P3
400 225
255
215 232 255
215 232 255
215 232 255
215 232 255
215 232 255
215 232 255
215 232 255
215 232 255
215 232 255
215 232 255
215 232 255
215 232 255
215 232 255
215 232 255
215 232 255
215 232 255
215 232 255
215 232 255
215 232 255
215 232 255
215 232 255
215 232 255
215 232 255
215 232 255
215 232 255
215 232 255
215 232 255
215 232 255
215 232 255
215 232 255
215 232 255
215 232 255
215 232 255
215 232 255
215 232 255
215 232 255
215 232 255
215 232 255
215 232 255
215 232 255
215 232 255
215 232 255
215 232 255
215 232 255
215 232 255
215 232 255
215 232 255
215 232 255
215 232 255
215 232 255
215 232 255
215 232 255
215 232 255
215 232 255
215 232 255
215 232 255
215 232 255
215 232 255
215 232 255
215 232 255
215 232 255
215 232 255
215 232 255
215 232 255
215 232 255
215 232 255
215 232 255
215 232 255
215 232 255
215 232 255
215 232 255
215 232 255
215 232 255
215 232 255
215 232 255
215 232 255
215 232 255
215 232 255
215 232 255
215 232 255
215 232 255
215 232 255
215 232 255
215 232 255
215 232 255
215 232 255
215 232 255
215 232 255
215 232 255
215 232 255
215 232 255
215 232 255
215 232 255
215 232 255
215 232 255
215 232 255
215 232 255
215 232 255
215 232 255
215 232 255
215 232 255
215 232 255
215 232 255
215 232 255
215 232 255
215 232 255
215 232 255
215 232 255
215 232 255
215 232 255
215 232 255
215 232 255
215 232 255
215 232 255
215 232 255
215 232 255
215 232 255
215 232 255
215 232 255
215 232 255
215 232 255
215 232 255
215 232 255
215 232 255
215 232 255
215 232 255
215 232 255
215 232 255
215 232 255
215 232 255
215 232 255
215 232 255
215 232 255
215 232 255
215 232 255
215 232 255
215 232 255
215 232 255
215 232 255
215 232 255
215 232 255
215 232 255
215 232 255
215 232 255
215 232 255
215 232 255
215 232 255
215 232 255
215 232 255
215 232 255
215 232 255
215 232 255
215 232 255
215 232 255
215 232 255
215 232 255
215 232 255
215 232 255
215 232 255
215 232 255
215 232 255
215 232 255
215 232 255
215 232 255
215 232 255
215 232 255
215 232 255
215 232 255
215 232 255
215 232 255
215 232 255
215 232 255
215 232 255
215 232 255
215 232 255
215 232 255
215 232 255
215 232 255
215 232 255
215 232 255
215 232 255
215 232 255
215 232 255
215 232 255
215 232 255
215 232 255
215 232 255
215 232 255
215 232 255
215 232 255
215 232 255
215 232 255
215 232 255
215 232 255
215 232 255
215 232 255
215 232 255
215 232 255
215 232 255
215 232 255
215 232 255
215 232 255
215 232 255
215 232 255
215 232 255
215 232 255
215 232 255
215 232 255
215 232 255
215 232 255
215 232 255
215 232 255
215 232 255
215 232 255
215 232 255
215 232 255
215 232 255
215 232 255
215 232 255
215 232 255
215 232 255
215 232 255
215 232 255
215 232 255
215 232 255
215 232 255
215 232 255
215 232 255
215 232 255
215 232 255
215 232 255
215 232 255
215 232 255
215 232 255
215 232 255
215 232 255
215 232 255
215 232 255
215 232 255
215 232 255
215 232 255
215 232 255
215 232 255
215 232 255
215 232 255
215 232 255
215 232 255
215 232 255
215 232 255
215 232 255
215 232 255
215 232 255
215 232 255
215 232 255
215 232 255
215 232 255
215 232 255
215 232 255
215 232 255
215 232 255
215 232 255
215 232 255
215 232 255
215 232 255
215 232 255
215 232 255
215 232 255
215 232 255
215 232 255
215 232 255
215 232 255
215 232 255
215 232 255
215 232 255
215 232 255
215 232 255
215 232 255
215 232 255
215 232 255
215 232 255
215 232 255
215 232 255
215 232 255
215 232 255
215 232 255
215 232 255
215 232 255
215 232 255
215 232 255
215 232 255
215 232 255
215 232 255
215 232 255
215 232 255
215 232 255
215 232 255
215 232 255
215 232 255
215 232 255
215 232 255
215 232 255
215 232 255
215 232 255
215 232 255
215 232 255
215 232 255
215 232 255
215 232 255
215 232 255
215 232 255
215 232 255
215 232 255
215 232 255
215 232 255
215 232 255
215 232 255
215 232 255
215 232 255
215 232 255
215 232 255
215 232 255
215 232 255
215 232 255
215 232 255
215 232 255
215 232 255
215 232 255
215 232 255
215 232 255
215 232 255
215 232 255
215 232 255
215 232 255
215 232 255
215 232 255
215 232 255
215 232 255
215 232 255
215 232 255
215 232 255
215 232 255
215 232 255
215 232 255
215 232 255
215 232 255
215 232 255
215 232 255
215 232 255
215 232 255
215 232 255
215 232 255
215 232 255
215 232 255
215 232 255
215 232 255
215 232 255
215 232 255
215 232 255
215 232 255
215 232 255
215 232 255
215 232 255
215 232 255
215 232 255
215 232 255
215 232 255
215 232 255
215 232 255
215 232 255
215 232 255
215 232 255
215 232 255
215 232 255
215 232 255
215 232 255
215 232 255
215 232 255
215 232 255
215 232 255
215 232 255
215 232 255
215 232 255
215 232 255
215 232 255
215 232 255
215 232 255
215 232 255
215 232 255
215 232 255
215 232 255
215 232 255
215 232 255
215 232 255
215 232 255
215 232 255
215 232 255
215 232 255
215 232 255
215 232 255
215 232 255
215 232 255
215 232 255
215 232 255
215 232 255
215 232 255
215 232 255
215 232 255
215 232 255
215 232 255
215 232 255
215 232 255
215 232 255
215 232 255
215 232 255
215 232 255
215 232 255
215 232 255
215 232 255
215 232 255
215 232 255
215 232 255
215 232 255
215 232 255
215 232 255
215 232 255
215 232 255
215 232 255
215 232 255
215 232 255
215 232 255
215 232 255
215 232 255
215 232 255
215 232 255
215 232 255
215 232 255
215 232 255
215 232 255
215 232 255
215 232 255
215 232 255
215 232 255
215 232 255
215 232 255
215 232 255
215 232 255
215 232 255
215 232 255
215 232 255
215 232 255
215 232 255
215 232 255
215 232 255
215 232 255
215 232 255
215 232 255
215 232 255
215 232 255
215 232 255
215 232 255
215 232 255
215 232 255
215 232 255
215 232 255
215 232 255
215 232 255
215 232 255
215 232 255
215 232 255
215 232 255
215 232 255
215 232 255
215 232 255
215 232 255
215 232 255
215 232 255
215 232 255
215 232 255
215 232 255
215 232 255
215 232 255
215 232 255
215 232 255
215 232 255
215 232 255
215 232 255
215 232 255
215 232 255
215 232 255
215 232 255
215 232 255
215 232 255
215 232 255
215 232 255
215 232 255
215 232 255
215 232 255
215 232 255
215 232 255
215 232 255
215 232 255
215 232 255
215 232 255
215 232 255
215 232 255
215 232 255
215 232 255
215 232 255
215 232 255
215 232 255
215 232 255
215 232 255
215 232 255
215 232 255
215 232 255
215 232 255
215 232 255
215 232 255
215 232 255
215 232 255
215 232 255
215 232 255
215 232 255
215 232 255
215 232 255
215 232 255
215 232 255
215 232 255
215 232 255
215 232 255
215 232 255
215 232 255
215 232 255
215 232 255
215 232 255
215 232 255
215 232 255
215 232 255
215 232 255
215 232 255
215 232 255
215 232 255
215 232 255
215 232 255
215 232 255
215 232 255
215 232 255
215 232 255
215 232 255
215 232 255
215 232 255
215 232 255
215 232 255
215 232 255
215 232 255
215 232 255
215 232 255
215 232 255
215 232 255
215 232 255
215 232 255
215 232 255
215 232 255
215 232 255
215 232 255
215 232 255
215 232 255
215 232 255
215 232 255
215 232 255
215 232 255
215 232 255
215 232 255
215 232 255
215 232 255
215 232 255
215 232 255
215 232 255
215 232 255
215 232 255
215 232 255
215 232 255
215 232 255
215 232 255
215 232 255
215 232 255
215 232 255
215 232 255
215 232 255
215 232 255
215 232 255
215 232 255
215 232 255
215 232 255
215 232 255
215 232 255
215 232 255
215 232 255
215 232 255
215 232 255
215 232 255
215 232 255
215 232 255
215 232 255
215 232 255
215 232 255
215 232 255
215 232 255
215 232 255
215 232 255
215 232 255
215 232 255
215 232 255
215 232 255
215 232 255
215 232 255
215 232 255
215 232 255
215 232 255
215 232 255
215 232 255
215 232 255
215 232 255
215 232 255
215 232 255
215 232 255
215 232 255
215 232 255
215 232 255
215 232 255
215 232 255
215 232 255
215 232 255
215 232 255
215 232 255
215 232 255
215 232 255
215 232 255
215 232 255
215 232 255
215 232 255
215 232 255
215 232 255
215 232 255
215 232 255
215 232 255
215 232 255
215 232 255
215 232 255
215 232 255
215 232 255
215 232 255
215 232 255
215 232 255
215 232 255
215 232 255
215 232 255
215 232 255
215 232 255
215 232 255
215 232 255
215 232 255
215 232 255
215 232 255
215 232 255
215 232 255
215 232 255
215 232 255
215 232 255
215 232 255
215 232 255
215 232 255
215 232 255
215 232 255
215 232 255
215 232 255
215 232 255
215 232 255
215 232 255
215 232 255
215 232 255
215 232 255
215 232 255
215 232 255
215 232 255
215 232 255
215 232 255
215 232 255
215 232 255
215 232 255
215 232 255
215 232 255
215 232 255
215 232 255
215 232 255
215 232 255
215 232 255
215 232 255
215 232 255
215 232 255
215 232 255
215 232 255
215 232 255
215 232 255
215 232 255
215 232 255
215 232 255
215 232 255
215 232 255
215 232 255
215 232 255
215 232 255
215 232 255
215 232 255
215 232 255
215 232 255
215 232 255
215 232 255
215 232 255
215 232 255
215 232 255
215 232 255
215 232 255
215 232 255
215 232 255
215 232 255
215 232 255
215 232 255
215 232 255
215 232 255
215 232 255
215 232 255
215 232 255
215 232 255
215 232 255
215 232 255
215 232 255
215 232 255
215 232 255
215 232 255
215 232 255
215 232 255
215 232 255
215 232 255
215 232 255
215 232 255
215 232 255
215 232 255
215 232 255
215 232 255
215 232 255
215 232 255
215 232 255
215 232 255
215 232 255
215 232 255
215 232 255
215 232 255
215 232 255
215 232 255
215 232 255
215 232 255
215 232 255
215 232 255
215 232 255
215 232 255
215 232 255
215 232 255
215 232 255
215 232 255
215 232 255
215 232 255
215 232 255
215 232 255
215 232 255
215 232 255
215 232 255
215 232 255
215 232 255
215 232 255
215 232 255
215 232 255
215 232 255
215 232 255
215 232 255
215 232 255
215 232 255
215 232 255
215 232 255
215 232 255
215 232 255
215 232 255
215 232 255
215 232 255
215 232 255
215 232 255
215 232 255
215 232 255
215 232 255
215 232 255
215 232 255
215 232 255
215 232 255
215 232 255
215 232 255
215 232 255
215 232 255
215 232 255
215 232 255
215 232 255
215 232 255
215 232 255
215 232 255
215 232 255
215 232 255
215 232 255
215 232 255
215 232 255
215 232 255
215 232 255
215 232 255
215 232 255
215 232 255
215 232 255
215 232 255
215 232 255
215 232 255
215 232 255
215 232 255
215 232 255
215 232 255
215 232 255
215 232 255
215 232 255
215 232 255
215 232 255
215 232 255
215 232 255
215 232 255
215 232 255
215 232 255
215 232 255
215 232 255
215 232 255
215 232 255
215 232 255
215 232 255
215 232 255
215 232 255
215 232 255
215 232 255
215 232 255
215 232 255
215 232 255
215 232 255
215 232 255
215 232 255
215 232 255
215 232 255
215 232 255
215 232 255
215 232 255
215 232 255
215 232 255
215 232 255
215 232 255
215 232 255
215 232 255
215 232 255
215 232 255
215 232 255
215 232 255
215 232 255
215 232 255
215 232 255
215 232 255
215 232 255
215 232 255
215 232 255
215 232 255
215 232 255
215 232 255
215 232 255
215 232 255
215 232 255
215 232 255
215 232 255
215 232 255
215 232 255
215 232 255
215 232 255
215 232 255
215 232 255
215 232 255
215 232 255
215 232 255
215 232 255
215 232 255
215 232 255
215 232 255
215 232 255
215 232 255
215 232 255
215 232 255
215 232 255
215 232 255
215 232 255
215 232 255
215 232 255
215 232 255
215 232 255
215 232 255
215 232 255
215 232 255
215 232 255
215 232 255
215 232 255
215 232 255
215 232 255
215 232 255
215 232 255
215 232 255
215 232 255
215 232 255
215 232 255
215 232 255
215 232 255
215 232 255
215 232 255
215 232 255
215 232 255
215 232 255
215 232 255
215 232 255
215 232 255
215 232 255
215 232 255
215 232 255
215 232 255
215 232 255
215 232 255
215 232 255
215 232 255
215 232 255
215 232 255
215 232 255
215 232 255
215 232 255
215 232 255
215 232 255
215 232 255
215 232 255
215 232 255
215 232 255
215 232 255
215 232 255
215 232 255
215 232 255
215 232 255
215 232 255
215 232 255
215 232 255
215 232 255
215 232 255
215 232 255
215 232 255
215 232 255
215 232 255
215 232 255
215 232 255
215 232 255
215 232 255
215 232 255
215 232 255
215 232 255
215 232 255
215 232 255
215 232 255
215 232 255
215 232 255
215 232 255
215 232 255
215 232 255
215 232 255
215 232 255
215 232 255
215 232 255
215 232 255
215 232 255
215 232 255
215 232 255
215 232 255
215 232 255
215 232 255
215 232 255
215 232 255
215 232 255
215 232 255
215 232 255
215 232 255
215 232 255
215 232 255
215 232 255
215 232 255
215 232 255
215 232 255
215 232 255
215 232 255
215 232 255
215 232 255
215 232 255
215 232 255
215 232 255
215 232 255
215 232 255
215 232 255
215 232 255
215 232 255
215 232 255
215 232 255
215 232 255
215 232 255
215 232 255
215 232 255
215 232 255
215 232 255
215 232 255
215 232 255
215 232 255
215 232 255
215 232 255
215 232 255
215 232 255
215 232 255
215 232 255
215 232 255
215 232 255
215 232 255
215 232 255
215 232 255
215 232 255
215 232 255
215 232 255
215 232 255
215 232 255
215 232 255
215 232 255
215 232 255
215 232 255
215 232 255
215 232 255
215 232 255
215 232 255
215 232 255
215 232 255
215 232 255
215 232 255
215 232 255
215 232 255
215 232 255
215 232 255
215 232 255
215 232 255
215 232 255
215 232 255
215 232 255
215 232 255
215 232 255
215 232 255
215 232 255
215 232 255
215 232 255
215 232 255
215 232 255
215 232 255
215 232 255
215 232 255
215 232 255
215 232 255
215 232 255
215 232 255
215 232 255
215 232 255
215 232 255
215 232 255
215 232 255
215 232 255
215 232 255
215 232 255
215 232 255
215 232 255
215 232 255
215 232 255
215 232 255
215 232 255
215 232 255
215 232 255
215 232 255
215 232 255
215 232 255
215 232 255
215 232 255
215 232 255
215 232 255
215 232 255
215 232 255
215 232 255
215 232 255
215 232 255
215 232 255
215 232 255
215 232 255
215 232 255
215 232 255
215 232 255
215 232 255
215 232 255
215 232 255
215 232 255
215 232 255
215 232 255
215 232 255
215 232 255
215 232 255
215 232 255
215 232 255
215 232 255
215 232 255
215 232 255
215 232 255
215 232 255
215 232 255
215 232 255
215 232 255
215 232 255
215 232 255
215 232 255
215 232 255
215 232 255
215 232 255
215 232 255
215 232 255
215 232 255
215 232 255
215 232 255
215 232 255
215 232 255
215 232 255
215 232 255
215 232 255
215 232 255
215 232 255
215 232 255
215 232 255
215 232 255
215 232 255
215 232 255
215 232 255
215 232 255
215 232 255
215 232 255
215 232 255
215 232 255
215 232 255
215 232 255
215 232 255
215 232 255
215 232 255
215 232 255
215 232 255
215 232 255
215 232 255
215 232 255
215 232 255
215 232 255
215 232 255
215 232 255
215 232 255
215 232 255
215 232 255
215 232 255
215 232 255
215 232 255
215 232 255
215 232 255
215 232 255
215 232 255
215 232 255
215 232 255
215 232 255
215 232 255
215 232 255
215 232 255
215 232 255
215 232 255
215 232 255
215 232 255
215 232 255
215 232 255
215 232 255
215 232 255
215 232 255
215 232 255
215 232 255
215 232 255
215 232 255
215 232 255
215 232 255
215 232 255
215 232 255
215 232 255
215 232 255
215 232 255
215 232 255
215 232 255
215 232 255
215 232 255
215 232 255
215 232 255
215 232 255
215 232 255
215 232 255
215 232 255
215 232 255
215 232 255
215 232 255
215 232 255
215 232 255
215 232 255
215 232 255
215 232 255
215 232 255
215 232 255
215 232 255
215 232 255
215 232 255
215 232 255
215 232 255
215 232 255
215 232 255
215 232 255
215 232 255
215 232 255
215 232 255
215 232 255
215 232 255
215 232 255
215 232 255
215 232 255
215 232 255
215 232 255
215 232 255
215 232 255
215 232 255
215 232 255
215 232 255
215 232 255
215 232 255
215 232 255
215 232 255
215 232 255
215 232 255
215 232 255
215 232 255
215 232 255
215 232 255
215 232 255
215 232 255
215 232 255
215 232 255
215 232 255
215 232 255
215 232 255
215 232 255
215 232 255
215 232 255
215 232 255
215 232 255
215 232 255
215 232 255
215 232 255
215 232 255
215 232 255
215 232 255
215 232 255
215 232 255
215 232 255
215 232 255
215 232 255
215 232 255
215 232 255
215 232 255
215 232 255
215 232 255
215 232 255
215 232 255
215 232 255
215 232 255
215 232 255
215 232 255
215 232 255
215 232 255
215 232 255
215 232 255
215 232 255
215 232 255
215 232 255
215 232 255
215 232 255
215 232 255
215 232 255
215 232 255
215 232 255
215 232 255
215 232 255
215 232 255
215 232 255
215 232 255
215 232 255
215 232 255
215 232 255
215 232 255
215 232 255
215 232 255
215 232 255
215 232 255
215 232 255
215 232 255
215 232 255
215 232 255
215 232 255
215 232 255
215 232 255
215 232 255
215 232 255
215 232 255
215 232 255
215 232 255
215 232 255
215 232 255
215 232 255
215 232 255
215 232 255
215 232 255
215 232 255
215 232 255
215 232 255
215 232 255
215 232 255
215 232 255
215 232 255
215 232 255
215 232 255
215 232 255
215 232 255
215 232 255
215 232 255
215 232 255
215 232 255
215 232 255
215 232 255
215 232 255
215 232 255
215 232 255
215 232 255
215 232 255
215 232 255
215 232 255
215 232 255
215 232 255
215 232 255
215 232 255
215 232 255
215 232 255
215 232 255
215 232 255
215 232 255
215 232 255
215 232 255
215 232 255
215 232 255
215 232 255
215 232 255
215 232 255
215 232 255
215 232 255
215 232 255
215 232 255
215 232 255
215 232 255
215 232 255
215 232 255
215 232 255
215 232 255
215 232 255
215 232 255
215 232 255
215 232 255
215 232 255
215 232 255
215 232 255
215 232 255
215 232 255
215 232 255
215 232 255
215 232 255
215 232 255
215 232 255
215 232 255
215 232 255
215 232 255
215 232 255
215 232 255
215 232 255
215 232 255
215 232 255
215 232 255
215 232 255
215 232 255
215 232 255
215 232 255
215 232 255
215 232 255
215 232 255
215 232 255
215 232 255
215 232 255
215 232 255
215 232 255
215 232 255
215 232 255
215 232 255
215 232 255
215 232 255
215 232 255
215 232 255
215 232 255
215 232 255
215 232 255
215 232 255
215 232 255
215 232 255
215 232 255
215 232 255
215 232 255
215 232 255
215 232 255
215 232 255
215 232 255
215 232 255
215 232 255
215 232 255
215 232 255
215 232 255
215 232 255
215 232 255
215 232 255
215 232 255
215 232 255
215 232 255
215 232 255
215 232 255
215 232 255
215 232 255
215 232 255
215 232 255
215 232 255
215 232 255
215 232 255
215 232 255
215 232 255
215 232 255
215 232 255
215 232 255
215 232 255
215 232 255
215 232 255
215 232 255
215 232 255
215 232 255
215 232 255
215 232 255
215 232 255
215 232 255
215 232 255
215 232 255
215 232 255
215 232 255
215 232 255
215 232 255
215 232 255
215 232 255
215 232 255
215 232 255
215 232 255
215 232 255
215 232 255
215 232 255
215 232 255
215 232 255
215 232 255
215 232 255
215 232 255
215 232 255
215 232 255
215 232 255
215 232 255
215 232 255
215 232 255
215 232 255
215 232 255
215 232 255
215 232 255
215 232 255
215 232 255
215 232 255
215 232 255
215 232 255
215 232 255
215 232 255
215 232 255
215 232 255
215 232 255
215 232 255
215 232 255
215 232 255
215 232 255
215 232 255
215 232 255
215 232 255
215 232 255
215 232 255
215 232 255
215 232 255
215 232 255
215 232 255
215 232 255
215 232 255
215 232 255
215 232 255
215 232 255
215 232 255
215 232 255
215 232 255
215 232 255
215 232 255
215 232 255
215 232 255
215 232 255
215 232 255
215 232 255
215 232 255
215 232 255
215 232 255
215 232 255
215 232 255
215 232 255
215 232 255
215 232 255
215 232 255
215 232 255
215 232 255
215 232 255
215 232 255
215 232 255
215 232 255
215 232 255
215 232 255
215 232 255
215 232 255
215 232 255
215 232 255
215 232 255
215 232 255
215 232 255
215 232 255
215 232 255
215 232 255
215 232 255
215 232 255
215 232 255
215 232 255
215 232 255
215 232 255
215 232 255
215 232 255
215 232 255
215 232 255
215 232 255
215 232 255
215 232 255
215 232 255
215 232 255
215 232 255
215 232 255
215 232 255
215 232 255
215 232 255
215 232 255
215 232 255
215 232 255
215 232 255
215 232 255
215 232 255
215 232 255
215 232 255
215 232 255
215 232 255
215 232 255
215 232 255
215 232 255
215 232 255
215 232 255
215 232 255
215 232 255
215 232 255
215 232 255
215 232 255
215 232 255
215 232 255
215 232 255
215 232 255
215 232 255
215 232 255
215 232 255
215 232 255
215 232 255
215 232 255
215 232 255
215 232 255
215 232 255
215 232 255
215 232 255
215 232 255
215 232 255
215 232 255
215 232 255
215 232 255
215 232 255
215 232 255
215 232 255
215 232 255
215 232 255
215 232 255
215 232 255
215 232 255
215 232 255
215 232 255
215 232 255
215 232 255
215 232 255
215 232 255
215 232 255
215 232 255
215 232 255
215 232 255
215 232 255
215 232 255
215 232 255
215 232 255
215 232 255
215 232 255
215 232 255
215 232 255
215 232 255
215 232 255
215 232 255
215 232 255
215 232 255
215 232 255
215 232 255
215 232 255
215 232 255
215 232 255
215 232 255
215 232 255
215 232 255
215 232 255
215 232 255
215 232 255
215 232 255
215 232 255
215 232 255
215 232 255
215 232 255
215 232 255
215 232 255
215 232 255
215 232 255
215 232 255
215 232 255
215 232 255
215 232 255
215 232 255
215 232 255
215 232 255
215 232 255
215 232 255
215 232 255
215 232 255
215 232 255
215 232 255
215 232 255
215 232 255
215 232 255
215 232 255
215 232 255
215 232 255
215 232 255
215 232 255
215 232 255
215 232 255
215 232 255
215 232 255
215 232 255
215 232 255
215 232 255
215 232 255
215 232 255
215 232 255
215 232 255
215 232 255
215 232 255
215 232 255
215 232 255
215 232 255
215 232 255
215 232 255
215 232 255
215 232 255
215 232 255
215 232 255
215 232 255
215 232 255
215 232 255
215 232 255
215 232 255
215 232 255
215 232 255
215 232 255
215 232 255
215 232 255
215 232 255
215 232 255
215 232 255
215 232 255
215 232 255
215 232 255
215 232 255
215 232 255
215 232 255
215 232 255
215 232 255
215 232 255
215 232 255
215 232 255
215 232 255
215 232 255
215 232 255
215 232 255
215 232 255
215 232 255
215 232 255
215 232 255
215 232 255
215 232 255
215 232 255
215 232 255
215 232 255
215 232 255
215 232 255
215 232 255
215 232 255
215 232 255
215 232 255
215 232 255
215 232 255
215 232 255
215 232 255
215 232 255
215 232 255
215 232 255
215 232 255
215 232 255
215 232 255
215 232 255
215 232 255
215 232 255
215 232 255
215 232 255
215 232 255
214 232 255
213 231 255
214 231 255
208 226 252
203 221 245
206 225 250
198 215 238
202 220 245
198 216 240
194 211 235
198 216 238
193 209 229
203 220 243
206 225 250
209 227 251
204 221 245
205 222 245
215 232 255
215 232 255
215 232 255
215 232 255
215 232 255
215 232 255
215 232 255
215 232 255
215 232 255
215 232 255
215 232 255
215 232 255
215 232 255
215 232 255
215 232 255
215 232 255
215 232 255
215 232 255
215 232 255
215 232 255
215 232 255
215 232 255
215 232 255
215 232 255
215 232 255
215 232 255
215 232 255
215 232 255
215 232 255
215 232 255
215 232 255
215 232 255
215 232 255
215 232 255
215 232 255
215 232 255
215 232 255
215 232 255
215 232 255
215 232 255
215 232 255
215 232 255
215 232 255
215 232 255
215 232 255
215 232 255
215 232 255
215 232 255
215 232 255
215 232 255
215 232 255
215 232 255
215 232 255
215 232 255
215 232 255
215 232 255
215 232 255
215 232 255
215 232 255
215 232 255
215 232 255
215 232 255
215 232 255
215 232 255
215 232 255
215 232 255
215 232 255
215 232 255
215 232 255
215 232 255
215 232 255
215 232 255
215 232 255
215 232 255
215 232 255
215 232 255
215 232 255
215 232 255
215 232 255
215 232 255
215 232 255
215 232 255
215 232 255
215 232 255
215 232 255
215 232 255
215 232 255
215 232 255
215 232 255
215 232 255
215 232 255
215 232 255
215 232 255
215 232 255
215 232 255
215 232 255
215 232 255
215 232 255
215 232 255
215 232 255
215 232 255
215 232 255
215 232 255
215 232 255
215 232 255
215 232 255
215 232 255
215 232 255
215 232 255
215 232 255
215 232 255
215 232 255
215 232 255
215 232 255
215 232 255
215 232 255
215 232 255
215 232 255
215 232 255
215 232 255
215 232 255
215 232 255
215 232 255
215 232 255
215 232 255
215 232 255
215 232 255
215 232 255
215 232 255
215 232 255
215 232 255
215 232 255
215 232 255
215 232 255
215 232 255
215 232 255
215 232 255
215 232 255
215 232 255
215 232 255
215 232 255
215 232 255
215 232 255
215 232 255
215 232 255
215 232 255
215 232 255
215 232 255
215 232 255
215 232 255
215 232 255
215 232 255
215 232 255
215 232 255
215 232 255
215 232 255
215 232 255
215 232 255
215 232 255
215 232 255
215 232 255
215 232 255
215 232 255
215 232 255
215 232 255
215 232 255
215 232 255
215 232 255
215 232 255
215 232 255
215 232 255
215 232 255
215 232 255
215 232 255
215 232 255
215 232 255
215 232 255
215 232 255
215 232 255
215 232 255
215 232 255
215 232 255
215 232 255
215 232 255
215 232 255
215 232 255
215 232 255
215 232 255
215 232 255
215 232 255
215 232 255
215 232 255
215 232 255
215 232 255
215 232 255
215 232 255
215 232 255
215 232 255
215 232 255
215 232 255
215 232 255
215 232 255
215 232 255
215 232 255
215 232 255
215 232 255
215 232 255
215 232 255
215 232 255
215 232 255
215 232 255
215 232 255
215 232 255
215 232 255
215 232 255
215 232 255
215 232 255
215 232 255
215 232 255
215 232 255
215 232 255
215 232 255
215 232 255
215 232 255
215 232 255
215 232 255
215 232 255
215 232 255
215 232 255
215 232 255
215 232 255
215 232 255
215 232 255
215 232 255
215 232 255
215 232 255
215 232 255
215 232 255
215 232 255
215 232 255
215 232 255
215 232 255
215 232 255
215 232 255
215 232 255
215 232 255
215 232 255
215 232 255
215 232 255
215 232 255
215 232 255
215 232 255
215 232 255
215 232 255
215 232 255
215 232 255
215 232 255
215 232 255
215 232 255
215 232 255
215 232 255
215 232 255
215 232 255
215 232 255
215 232 255
215 232 255
215 232 255
215 232 255
215 232 255
215 232 255
215 232 255
215 232 255
215 232 255
215 232 255
215 232 255
215 232 255
215 232 255
215 232 255
215 232 255
215 232 255
215 232 255
215 232 255
215 232 255
215 232 255
215 232 255
215 232 255
215 232 255
215 232 255
215 232 255
215 232 255
215 232 255
215 232 255
215 232 255
215 232 255
215 232 255
215 232 255
215 232 255
215 232 255
215 232 255
215 232 255
215 232 255
215 232 255
215 232 255
215 232 255
215 232 255
215 232 255
215 232 255
215 232 255
215 232 255
215 232 255
215 232 255
215 232 255
215 232 255
215 232 255
215 232 255
215 232 255
215 232 255
215 232 255
215 232 255
215 232 255
215 232 255
215 232 255
215 232 255
215 232 255
215 232 255
215 232 255
215 232 255
215 232 255
215 232 255
215 232 255
215 232 255
215 232 255
215 232 255
215 232 255
215 232 255
215 232 255
215 232 255
215 232 255
215 232 255
215 232 255
215 232 255
215 232 255
215 232 255
215 232 255
215 232 255
215 232 255
215 232 255
215 232 255
215 232 255
215 232 255
215 232 255
215 232 255
215 232 255
215 232 255
215 232 255
215 232 255
215 232 255
215 232 255
215 232 255
215 232 255
215 232 255
215 232 255
215 232 255
215 232 255
215 232 255
215 232 255
215 232 255
215 232 255
215 232 255
215 232 255
215 232 255
215 232 255
215 232 255
215 232 255
215 232 255
213 231 255
208 228 254
203 222 247
189 209 235
189 208 232
177 196 220
170 189 210
165 186 210
154 171 191
181 206 238
165 187 215
137 153 168
134 151 168
128 146 175
146 167 189
146 165 187
132 152 182
153 170 187
156 171 178
103 114 133
110 120 131
132 145 160
88 101 124
60 69 96
63 72 101
66 77 108
97 109 137
129 142 168
127 140 164
150 164 188
163 177 201
188 205 230
201 219 245
214 231 255
215 232 255
215 232 255
215 232 255
215 232 255
215 232 255
215 232 255
215 232 255
215 232 255
215 232 255
215 232 255
215 232 255
215 232 255
215 232 255
215 232 255
215 232 255
215 232 255
215 232 255
215 232 255
215 232 255
215 232 255
215 232 255
215 232 255
215 232 255
215 232 255
215 232 255
215 232 255
215 232 255
215 232 255
215 232 255
215 232 255
215 232 255
215 232 255
215 232 255
215 232 255
215 232 255
215 232 255
215 232 255
215 232 255
215 232 255
215 232 255
215 232 255
215 232 255
215 232 255
215 232 255
215 232 255
215 232 255
215 232 255
215 232 255
215 232 255
215 232 255
215 232 255
215 232 255
215 232 255
215 232 255
215 232 255
215 232 255
215 232 255
215 232 255
215 232 255
215 232 255
215 232 255
215 232 255
215 232 255
215 232 255
215 232 255
215 232 255
215 232 255
215 232 255
215 232 255
215 232 255
215 232 255
215 232 255
215 232 255
215 232 255
215 232 255
215 232 255
215 232 255
215 232 255
215 232 255
215 232 255
215 232 255
215 232 255
215 232 255
215 232 255
215 232 255
215 232 255
215 232 255
215 232 255
215 232 255
215 232 255
215 232 255
215 232 255
215 232 255
215 232 255
215 232 255
215 232 255
215 232 255
215 232 255
215 232 255
215 232 255
215 232 255
215 232 255
215 232 255
215 232 255
215 232 255
215 232 255
215 232 255
215 232 255
215 232 255
215 232 255
215 232 255
215 232 255
215 232 255
215 232 255
215 232 255
215 232 255
215 232 255
215 232 255
215 232 255
215 232 255
215 232 255
215 232 255
215 232 255
215 232 255
215 232 255
215 232 255
215 232 255
215 232 255
215 232 255
215 232 255
215 232 255
215 232 255
215 232 255
215 232 255
215 232 255
215 232 255
215 232 255
215 232 255
215 232 255
215 232 255
215 232 255
215 232 255
215 232 255
215 232 255
215 232 255
215 232 255
215 232 255
215 232 255
215 232 255
215 232 255
215 232 255
215 232 255
215 232 255
215 232 255
215 232 255
215 232 255
215 232 255
215 232 255
215 232 255
215 232 255
215 232 255
215 232 255
215 232 255
215 232 255
215 232 255
215 232 255
215 232 255
215 232 255
215 232 255
215 232 255
215 232 255
215 232 255
215 232 255
215 232 255
215 232 255
215 232 255
215 232 255
215 232 255
215 232 255
215 232 255
215 232 255
215 232 255
215 232 255
215 232 255
215 232 255
215 232 255
215 232 255
215 232 255
215 232 255
215 232 255
215 232 255
215 232 255
215 232 255
215 232 255
215 232 255
215 232 255
215 232 255
215 232 255
215 232 255
215 232 255
215 232 255
215 232 255
215 232 255
215 232 255
215 232 255
215 232 255
215 232 255
215 232 255
215 232 255
215 232 255
215 232 255
215 232 255
215 232 255
215 232 255
215 232 255
215 232 255
215 232 255
215 232 255
215 232 255
215 232 255
215 232 255
215 232 255
215 232 255
215 232 255
215 232 255
215 232 255
215 232 255
215 232 255
215 232 255
215 232 255
215 232 255
215 232 255
215 232 255
215 232 255
215 232 255
215 232 255
215 232 255
215 232 255
215 232 255
215 232 255
215 232 255
215 232 255
215 232 255
215 232 255
215 232 255
215 232 255
215 232 255
215 232 255
215 232 255
215 232 255
215 232 255
215 232 255
215 232 255
215 232 255
215 232 255
215 232 255
215 232 255
215 232 255
215 232 255
215 232 255
215 232 255
215 232 255
215 232 255
215 232 255
215 232 255
215 232 255
215 232 255
215 232 255
215 232 255
215 232 255
215 232 255
215 232 255
215 232 255
215 232 255
215 232 255
215 232 255
215 232 255
215 232 255
215 232 255
215 232 255
215 232 255
215 232 255
215 232 255
215 232 255
215 232 255
215 232 255
215 232 255
215 232 255
215 232 255
215 232 255
215 232 255
215 232 255
215 232 255
215 232 255
215 232 255
215 232 255
215 232 255
215 232 255
215 232 255
215 232 255
215 232 255
215 232 255
215 232 255
215 232 255
215 232 255
215 232 255
215 232 255
215 232 255
215 232 255
215 232 255
215 232 255
215 232 255
215 232 255
215 232 255
215 232 255
215 232 255
215 232 255
215 232 255
215 232 255
215 232 255
215 232 255
215 232 255
215 232 255
215 232 255
215 232 255
215 232 255
215 232 255
215 232 255
215 232 255
215 232 255
215 232 255
215 232 255
215 232 255
215 232 255
215 232 255
215 232 255
215 232 255
215 232 255
215 232 255
215 232 255
215 232 255
215 232 255
215 232 255
215 232 255
215 232 255
215 232 255
215 232 255
215 232 255
215 232 255
215 232 255
215 232 255
215 232 255
215 232 255
215 232 255
215 232 255
215 232 255
215 232 255
215 232 255
215 232 255
215 232 255
215 232 255
211 230 255
201 221 247
188 207 232
161 176 195
128 140 154
102 111 123
75 75 61
79 82 59
82 84 61
84 88 67
84 86 67
86 94 82
68 73 39
103 120 144
150 172 200
160 183 217
131 150 175
91 104 133
61 63 55
63 68 52
64 71 80
111 126 157
142 159 182
90 98 106
117 131 147
80 86 87
80 81 68
77 79 70
74 79 79
82 88 95
89 99 109
75 81 83
113 129 148
103 119 145
81 91 119
58 68 99
13 14 66
0 4 68
75 85 117
116 131 160
154 173 202
176 194 220
205 224 250
211 230 255
215 232 255
215 232 255
215 232 255
215 232 255
215 232 255
215 232 255
215 232 255
215 232 255
215 232 255
215 232 255
215 232 255
215 232 255
215 232 255
215 232 255
215 232 255
215 232 255
215 232 255
215 232 255
215 232 255
215 232 255
215 232 255
215 232 255
215 232 255
215 232 255
215 232 255
215 232 255
215 232 255
215 232 255
215 232 255
215 232 255
215 232 255
215 232 255
215 232 255
215 232 255
215 232 255
215 232 255
215 232 255
215 232 255
215 232 255
215 232 255
215 232 255
215 232 255
215 232 255
215 232 255
215 232 255
215 232 255
215 232 255
215 232 255
215 232 255
215 232 255
215 232 255
215 232 255
215 232 255
215 232 255
215 232 255
215 232 255
215 232 255
215 232 255
215 232 255
215 232 255
215 232 255
215 232 255
215 232 255
215 232 255
215 232 255
215 232 255
215 232 255
215 232 255
215 232 255
215 232 255
215 232 255
215 232 255
215 232 255
215 232 255
215 232 255
215 232 255
215 232 255
215 232 255
215 232 255
215 232 255
215 232 255
215 232 255
215 232 255
215 232 255
215 232 255
215 232 255
215 232 255
215 232 255
215 232 255
215 232 255
215 232 255
215 232 255
215 232 255
215 232 255
215 232 255
215 232 255
215 232 255
215 232 255
215 232 255
215 232 255
215 232 255
215 232 255
215 232 255
215 232 255
215 232 255
215 232 255
215 232 255
215 232 255
215 232 255
215 232 255
215 232 255
215 232 255
215 232 255
215 232 255
215 232 255
215 232 255
215 232 255
215 232 255
215 232 255
215 232 255
215 232 255
215 232 255
215 232 255
215 232 255
215 232 255
215 232 255
215 232 255
215 232 255
215 232 255
215 232 255
215 232 255
215 232 255
215 232 255
215 232 255
215 232 255
215 232 255
215 232 255
215 232 255
215 232 255
215 232 255
215 232 255
215 232 255
215 232 255
215 232 255
215 232 255
215 232 255
215 232 255
215 232 255
215 232 255
215 232 255
215 232 255
215 232 255
215 232 255
215 232 255
215 232 255
215 232 255
215 232 255
215 232 255
215 232 255
215 232 255
215 232 255
215 232 255
215 232 255
215 232 255
215 232 255
215 232 255
215 232 255
215 232 255
215 232 255
215 232 255
215 232 255
215 232 255
215 232 255
215 232 255
215 232 255
215 232 255
215 232 255
215 232 255
215 232 255
215 232 255
215 232 255
215 232 255
215 232 255
215 232 255
215 232 255
215 232 255
215 232 255
215 232 255
215 232 255
215 232 255
215 232 255
215 232 255
215 232 255
215 232 255
215 232 255
215 232 255
215 232 255
215 232 255
215 232 255
215 232 255
215 232 255
215 232 255
215 232 255
215 232 255
215 232 255
215 232 255
215 232 255
215 232 255
215 232 255
215 232 255
215 232 255
215 232 255
215 232 255
215 232 255
215 232 255
215 232 255
215 232 255
215 232 255
215 232 255
215 232 255
215 232 255
215 232 255
215 232 255
215 232 255
215 232 255
215 232 255
215 232 255
215 232 255
215 232 255
215 232 255
215 232 255
215 232 255
215 232 255
215 232 255
215 232 255
215 232 255
215 232 255
215 232 255
215 232 255
215 232 255
215 232 255
215 232 255
215 232 255
215 232 255
215 232 255
215 232 255
215 232 255
215 232 255
215 232 255
215 232 255
215 232 255
215 232 255
215 232 255
215 232 255
215 232 255
215 232 255
215 232 255
215 232 255
215 232 255
215 232 255
215 232 255
215 232 255
215 232 255
215 232 255
215 232 255
215 232 255
215 232 255
215 232 255
215 232 255
215 232 255
215 232 255
215 232 255
215 232 255
215 232 255
215 232 255
215 232 255
215 232 255
215 232 255
215 232 255
215 232 255
215 232 255
215 232 255
215 232 255
215 232 255
215 232 255
215 232 255
215 232 255
215 232 255
215 232 255
215 232 255
215 232 255
215 232 255
215 232 255
215 232 255
215 232 255
215 232 255
215 232 255
215 232 255
215 232 255
215 232 255
215 232 255
215 232 255
215 232 255
215 232 255
215 232 255
215 232 255
215 232 255
215 232 255
215 232 255
215 232 255
215 232 255
215 232 255
215 232 255
215 232 255
215 232 255
215 232 255
215 232 255
215 232 255
215 232 255
215 232 255
215 232 255
215 232 255
215 232 255
215 232 255
215 232 255
215 232 255
215 232 255
215 232 255
215 232 255
215 232 255
215 232 255
215 232 255
215 232 255
215 232 255
215 232 255
215 232 255
215 232 255
215 232 255
215 232 255
215 232 255
215 232 255
215 232 255
215 232 255
215 232 255
215 232 255
215 232 255
215 232 255
215 232 255
215 232 255
215 232 255
215 232 255
213 230 254
197 215 240
172 188 214
153 170 195
122 138 165
118 134 158
63 67 83
44 45 65
35 36 58
46 47 59
54 55 54
58 60 48
47 51 44
45 51 58
46 52 42
43 53 46
39 51 58
43 53 61
40 52 68
43 54 73
46 56 67
55 62 46
42 50 50
52 54 43
58 57 43
62 63 46
70 73 67
64 65 47
85 93 102
79 88 104
66 70 68
64 68 57
59 60 49
26 32 60
32 41 83
45 57 102
44 50 69
49 54 48
36 40 54
50 54 58
79 86 84
86 95 100
76 83 98
56 65 99
15 23 77
0 16 78
6 21 81
31 38 82
76 90 122
143 162 188
185 206 232
203 224 252
209 229 255
214 232 255
215 232 255
215 232 255
215 232 255
215 232 255
215 232 255
215 232 255
215 232 255
215 232 255
215 232 255
215 232 255
215 232 255
215 232 255
215 232 255
215 232 255
215 232 255
215 232 255
215 232 255
215 232 255
215 232 255
215 232 255
215 232 255
215 232 255
215 232 255
215 232 255
215 232 255
215 232 255
215 232 255
215 232 255
215 232 255
215 232 255
215 232 255
215 232 255
215 232 255
215 232 255
215 232 255
215 232 255
215 232 255
215 232 255
215 232 255
215 232 255
215 232 255
215 232 255
215 232 255
215 232 255
215 232 255
215 232 255
215 232 255
215 232 255
215 232 255
215 232 255
215 232 255
215 232 255
215 232 255
215 232 255
215 232 255
215 232 255
215 232 255
215 232 255
215 232 255
215 232 255
215 232 255
215 232 255
215 232 255
215 232 255
215 232 255
215 232 255
215 232 255
215 232 255
215 232 255
215 232 255
215 232 255
215 232 255
215 232 255
215 232 255
215 232 255
215 232 255
215 232 255
215 232 255
215 232 255
215 232 255
215 232 255
215 232 255
215 232 255
215 232 255
215 232 255
215 232 255
215 232 255
215 232 255
215 232 255
215 232 255
215 232 255
215 232 255
215 232 255
215 232 255
215 232 255
215 232 255
215 232 255
215 232 255
215 232 255
215 232 255
215 232 255
215 232 255
215 232 255
215 232 255
215 232 255
215 232 255
215 232 255
215 232 255
215 232 255
215 232 255
215 232 255
215 232 255
215 232 255
215 232 255
215 232 255
215 232 255
215 232 255
215 232 255
215 232 255
215 232 255
215 232 255
215 232 255
215 232 255
215 232 255
215 232 255
215 232 255
215 232 255
215 232 255
215 232 255
215 232 255
215 232 255
215 232 255
215 232 255
215 232 255
215 232 255
215 232 255
215 232 255
215 232 255
215 232 255
215 232 255
215 232 255
215 232 255
215 232 255
215 232 255
215 232 255
215 232 255
215 232 255
215 232 255
215 232 255
215 232 255
215 232 255
215 232 255
215 232 255
215 232 255
215 232 255
215 232 255
215 232 255
215 232 255
215 232 255
215 232 255
215 232 255
215 232 255
215 232 255
215 232 255
215 232 255
215 232 255
215 232 255
215 232 255
215 232 255
215 232 255
215 232 255
215 232 255
215 232 255
215 232 255
215 232 255
215 232 255
215 232 255
215 232 255
215 232 255
215 232 255
215 232 255
215 232 255
215 232 255
215 232 255
215 232 255
215 232 255
215 232 255
215 232 255
215 232 255
215 232 255
215 232 255
215 232 255
215 232 255
215 232 255
215 232 255
215 232 255
215 232 255
215 232 255
215 232 255
215 232 255
215 232 255
215 232 255
215 232 255
215 232 255
215 232 255
215 232 255
215 232 255
215 232 255
215 232 255
215 232 255
215 232 255
215 232 255
215 232 255
215 232 255
215 232 255
215 232 255
215 232 255
215 232 255
215 232 255
215 232 255
215 232 255
215 232 255
215 232 255
215 232 255
215 232 255
215 232 255
215 232 255
215 232 255
215 232 255
215 232 255
215 232 255
215 232 255
215 232 255
215 232 255
215 232 255
215 232 255
215 232 255
215 232 255
215 232 255
215 232 255
215 232 255
215 232 255
215 232 255
215 232 255
215 232 255
215 232 255
215 232 255
215 232 255
215 232 255
215 232 255
215 232 255
215 232 255
215 232 255
215 232 255
215 232 255
215 232 255
215 232 255
215 232 255
215 232 255
215 232 255
215 232 255
215 232 255
215 232 255
215 232 255
215 232 255
215 232 255
215 232 255
215 232 255
215 232 255
215 232 255
215 232 255
215 232 255
215 232 255
215 232 255
215 232 255
215 232 255
215 232 255
215 232 255
215 232 255
215 232 255
215 232 255
215 232 255
215 232 255
215 232 255
215 232 255
215 232 255
215 232 255
215 232 255
215 232 255
215 232 255
215 232 255
215 232 255
215 232 255
215 232 255
215 232 255
215 232 255
215 232 255
215 232 255
215 232 255
215 232 255
215 232 255
215 232 255
215 232 255
215 232 255
215 232 255
215 232 255
215 232 255
215 232 255
215 232 255
215 232 255
215 232 255
215 232 255
215 232 255
215 232 255
215 232 255
215 232 255
215 232 255
215 232 255
215 232 255
215 232 255
215 232 255
215 232 255
215 232 255
215 232 255
215 232 255
215 232 255
215 232 255
215 232 255
215 232 255
215 232 255
215 232 255
215 232 255
215 232 255
215 232 255
215 232 255
215 232 255
215 232 255
215 232 255
215 232 255
215 232 255
215 232 255
215 232 255
214 231 254
193 208 230
152 165 185
79 87 106
53 61 71
33 38 30
36 42 24
47 51 27
52 56 37
61 64 42
53 58 35
48 55 29
48 54 29
47 52 35
49 53 36
53 57 37
55 59 39
44 52 39
52 55 32
53 54 30
51 53 28
53 55 29
54 55 30
54 56 30
52 56 30
52 57 33
58 57 35
59 59 40
59 60 44
57 59 43
57 59 45
50 52 46
50 51 41
42 44 50
74 80 86
93 102 115
81 92 122
33 43 92
10 20 72
13 21 72
8 13 68
19 23 60
16 18 63
29 31 55
67 67 44
71 75 50
55 60 48
80 85 81
101 115 129
114 129 148
73 83 101
62 73 103
27 35 83
0 22 87
23 34 89
55 65 101
125 143 165
179 203 234
199 223 255
206 227 255
210 230 255
215 232 255
215 232 255
215 232 255
215 232 255
215 232 255
215 232 255
215 232 255
215 232 255
215 232 255
215 232 255
215 232 255
215 232 255
215 232 255
215 232 255
215 232 255
215 232 255
215 232 255
215 232 255
215 232 255
215 232 255
215 232 255
215 232 255
215 232 255
215 232 255
215 232 255
215 232 255
215 232 255
215 232 255
215 232 255
215 232 255
215 232 255
215 232 255
215 232 255
215 232 255
215 232 255
215 232 255
215 232 255
215 232 255
215 232 255
215 232 255
215 232 255
215 232 255
215 232 255
215 232 255
215 232 255
215 232 255
215 232 255
215 232 255
215 232 255
215 232 255
215 232 255
215 232 255
215 232 255
215 232 255
215 232 255
215 232 255
215 232 255
215 232 255
215 232 255
215 232 255
215 232 255
215 232 255
215 232 255
215 232 255
215 232 255
215 232 255
215 232 255
215 232 255
215 232 255
215 232 255
215 232 255
215 232 255
215 232 255
215 232 255
215 232 255
215 232 255
215 232 255
215 232 255
215 232 255
215 232 255
215 232 255
215 232 255
215 232 255
215 232 255
215 232 255
215 232 255
215 232 255
215 232 255
215 232 255
215 232 255
215 232 255
215 232 255
215 232 255
215 232 255
215 232 255
215 232 255
215 232 255
215 232 255
215 232 255
215 232 255
215 232 255
215 232 255
215 232 255
215 232 255
215 232 255
215 232 255
215 232 255
215 232 255
215 232 255
215 232 255
215 232 255
215 232 255
215 232 255
215 232 255
215 232 255
215 232 255
215 232 255
215 232 255
215 232 255
215 232 255
215 232 255
215 232 255
215 232 255
215 232 255
215 232 255
215 232 255
215 232 255
215 232 255
215 232 255
215 232 255
215 232 255
215 232 255
215 232 255
215 232 255
215 232 255
215 232 255
215 232 255
215 232 255
215 232 255
215 232 255
215 232 255
215 232 255
215 232 255
215 232 255
215 232 255
215 232 255
215 232 255
215 232 255
215 232 255
215 232 255
215 232 255
215 232 255
215 232 255
215 232 255
215 232 255
215 232 255
215 232 255
215 232 255
215 232 255
215 232 255
215 232 255
215 232 255
215 232 255
215 232 255
215 232 255
215 232 255
215 232 255
215 232 255
215 232 255
215 232 255
216 232 255
216 232 255
215 232 255
215 232 255
215 232 255
215 232 255
215 232 255
215 232 255
215 232 255
215 232 255
215 232 255
215 232 255
215 232 255
215 232 255
215 232 255
215 232 255
215 232 255
215 232 255
215 232 255
215 232 255
215 232 255
215 232 255
215 232 255
215 232 255
215 232 255
215 232 255
215 232 255
215 232 255
215 232 255
215 232 255
215 232 255
215 232 255
215 232 255
215 232 255
215 232 255
215 232 255
215 232 255
215 232 255
215 232 255
215 232 255
215 232 255
215 232 255
215 232 255
215 232 255
215 232 255
215 232 255
215 232 255
215 232 255
215 232 255
215 232 255
215 232 255
215 232 255
215 232 255
215 232 255
215 232 255
215 232 255
215 232 255
215 232 255
215 232 255
215 232 255
215 232 255
215 232 255
215 232 255
215 232 255
215 232 255
215 232 255
215 232 255
215 232 255
215 232 255
215 232 255
215 232 255
215 232 255
215 232 255
215 232 255
215 232 255
215 232 255
215 232 255
215 232 255
215 232 255
215 232 255
215 232 255
215 232 255
215 232 255
215 232 255
215 232 255
215 232 255
215 232 255
215 232 255
215 232 255
215 232 255
215 232 255
215 232 255
215 232 255
215 232 255
215 232 255
215 232 255
215 232 255
215 232 255
215 232 255
215 232 255
215 232 255
215 232 255
215 232 255
215 232 255
215 232 255
215 232 255
215 232 255
215 232 255
215 232 255
215 232 255
215 232 255
215 232 255
215 232 255
215 232 255
215 232 255
215 232 255
215 232 255
215 232 255
215 232 255
215 232 255
215 232 255
215 232 255
215 232 255
215 232 255
215 232 255
215 232 255
215 232 255
215 232 255
215 232 255
215 232 255
215 232 255
215 232 255
215 232 255
215 232 255
215 232 255
215 232 255
215 232 255
215 232 255
215 232 255
215 232 255
215 232 255
215 232 255
215 232 255
215 232 255
215 232 255
215 232 255
215 232 255
215 232 255
215 232 255
215 232 255
215 232 255
215 232 255
215 232 255
215 232 255
215 232 255
215 232 255
215 232 255
215 232 255
215 232 255
215 232 255
215 232 255
215 232 255
215 232 255
215 232 255
215 232 255
215 232 255
210 227 249
176 190 207
132 143 151
86 94 93
40 50 21
35 44 11
38 44 14
38 46 22
26 38 48
23 32 49
20 27 44
24 30 29
31 40 28
39 44 18
38 44 16
40 45 23
40 43 24
38 43 20
38 42 25
46 51 27
50 53 27
55 56 27
53 53 27
51 52 24
47 48 23
43 44 22
38 39 24
43 45 21
44 46 24
43 45 26
48 51 30
46 48 29
46 50 37
41 45 49
36 40 65
26 30 63
15 18 62
51 53 54
89 93 65
52 55 55
46 50 69
63 70 91
64 72 103
8 13 66
42 45 57
39 41 53
28 29 53
46 48 56
62 65 56
50 55 43
67 68 47
61 63 46
54 55 49
53 56 64
85 95 111
37 42 67
0 7 63
0 14 72
0 19 79
9 20 78
31 38 62
109 124 140
171 193 220
193 218 250
198 223 255
205 226 255
209 229 255
215 232 255
215 232 255
215 232 255
215 232 255
215 232 255
215 232 255
215 232 255
215 232 255
215 232 255
215 232 255
215 232 255
215 232 255
215 232 255
215 232 255
215 232 255
215 232 255
215 232 255
215 232 255
215 232 255
215 232 255
215 232 255
215 232 255
215 232 255
215 232 255
215 232 255
215 232 255
215 232 255
215 232 255
215 232 255
215 232 255
215 232 255
215 232 255
215 232 255
215 232 255
215 232 255
215 232 255
215 232 255
215 232 255
215 232 255
215 232 255
215 232 255
215 232 255
215 232 255
215 232 255
215 232 255
215 232 255
215 232 255
215 232 255
215 232 255
215 232 255
215 232 255
215 232 255
215 232 255
215 232 255
215 232 255
215 232 255
215 232 255
215 232 255
215 232 255
215 232 255
215 232 255
215 232 255
215 232 255
215 232 255
215 232 255
215 232 255
215 232 255
215 232 255
215 232 255
215 232 255
215 232 255
215 232 255
215 232 255
215 232 255
215 232 255
215 232 255
215 232 255
215 232 255
215 232 255
215 232 255
215 232 255
215 232 255
215 232 255
215 232 255
215 232 255
215 232 255
215 232 255
215 232 255
215 232 255
215 232 255
215 232 255
215 232 255
215 232 255
215 232 255
215 232 255
215 232 255
215 232 255
215 232 255
215 232 255
215 232 255
215 232 255
215 232 255
215 232 255
215 232 255
215 232 255
215 232 255
215 232 255
215 232 255
215 232 255
215 232 255
215 232 255
215 232 255
215 232 255
215 232 255
215 232 255
215 232 255
215 232 255
215 232 255
215 232 255
215 232 255
215 232 255
215 232 255
215 232 255
215 232 255
215 232 255
215 232 255
215 232 255
215 232 255
215 232 255
215 232 255
215 232 255
215 232 255
215 232 255
215 232 255
215 232 255
215 232 255
215 232 255
215 232 255
215 232 255
215 232 255
215 232 255
215 232 255
215 232 255
215 232 255
215 232 255
215 232 255
215 232 255
215 232 255
215 232 255
215 232 255
215 232 255
215 232 255
215 232 255
215 232 255
215 232 255
215 232 255
215 232 255
215 232 255
215 232 255
215 232 255
215 232 255
215 232 255
215 232 255
215 232 255
215 232 255
215 232 255
216 232 255
216 232 255
216 232 255
216 232 255
216 232 255
216 232 255
216 232 255
216 232 255
216 232 255
216 232 255
216 232 255
216 232 255
216 232 255
216 232 255
216 232 255
216 232 255
216 232 255
216 232 255
216 232 255
216 232 255
216 232 255
216 232 255
216 232 255
216 232 255
216 232 255
216 232 255
215 232 255
215 232 255
215 232 255
215 232 255
215 232 255
215 232 255
215 232 255
215 232 255
215 232 255
215 232 255
215 232 255
215 232 255
215 232 255
215 232 255
215 232 255
215 232 255
215 232 255
215 232 255
215 232 255
215 232 255
215 232 255
215 232 255
215 232 255
215 232 255
215 232 255
215 232 255
215 232 255
215 232 255
215 232 255
215 232 255
215 232 255
215 232 255
215 232 255
215 232 255
215 232 255
215 232 255
215 232 255
215 232 255
215 232 255
215 232 255
215 232 255
215 232 255
215 232 255
215 232 255
215 232 255
215 232 255
215 232 255
215 232 255
215 232 255
215 232 255
215 232 255
215 232 255
215 232 255
215 232 255
215 232 255
215 232 255
215 232 255
215 232 255
215 232 255
215 232 255
215 232 255
215 232 255
215 232 255
215 232 255
215 232 255
215 232 255
215 232 255
215 232 255
215 232 255
215 232 255
215 232 255
215 232 255
215 232 255
215 232 255
215 232 255
215 232 255
215 232 255
215 232 255
215 232 255
215 232 255
215 232 255
215 232 255
215 232 255
215 232 255
215 232 255
215 232 255
215 232 255
215 232 255
215 232 255
215 232 255
215 232 255
215 232 255
215 232 255
215 232 255
215 232 255
215 232 255
215 232 255
215 232 255
215 232 255
215 232 255
215 232 255
215 232 255
215 232 255
215 232 255
215 232 255
215 232 255
215 232 255
215 232 255
215 232 255
215 232 255
215 232 255
215 232 255
215 232 255
215 232 255
215 232 255
215 232 255
215 232 255
215 232 255
215 232 255
215 232 255
215 232 255
215 232 255
215 232 255
215 232 255
215 232 255
215 232 255
215 232 255
215 232 255
215 232 255
215 232 255
215 232 255
215 232 255
215 232 255
215 232 255
215 232 255
215 232 255
215 232 255
215 232 255
210 227 249
172 187 203
103 113 115
62 71 59
46 55 21
53 61 30
55 60 33
57 64 37
37 46 12
37 47 10
38 43 12
33 38 16
31 38 12
32 40 12
34 42 9
36 43 15
36 42 16
34 40 17
28 35 20
34 40 17
42 45 19
44 47 20
46 48 20
50 50 20
44 45 20
44 46 21
33 36 24
36 40 18
37 41 19
35 39 18
41 45 20
39 42 15
42 44 21
40 45 29
25 27 51
16 19 62
1 9 71
0 10 74
0 2 65
0 5 67
3 5 66
8 10 64
18 19 56
54 58 59
18 21 63
13 19 69
45 50 65
10 18 64
42 44 57
36 37 61
32 34 61
29 31 60
21 23 62
34 36 54
52 52 52
53 54 51
63 64 55
83 90 95
54 60 71
7 10 58
2 10 64
0 0 63
0 1 63
0 3 63
0 4 64
36 41 73
86 97 114
150 170 196
188 213 245
198 223 255
196 221 254
199 222 252
197 215 241
213 230 253
215 232 255
215 232 255
215 232 255
215 232 255
215 232 255
215 232 255
215 232 255
215 232 255
215 232 255
215 232 255
215 232 255
215 232 255
215 232 255
215 232 255
215 232 255
215 232 255
215 232 255
215 232 255
215 232 255
215 232 255
215 232 255
215 232 255
215 232 255
215 232 255
215 232 255
215 232 255
215 232 255
215 232 255
215 232 255
215 232 255
215 232 255
215 232 255
215 232 255
215 232 255
215 232 255
215 232 255
215 232 255
215 232 255
215 232 255
215 232 255
215 232 255
215 232 255
215 232 255
215 232 255
215 232 255
215 232 255
215 232 255
215 232 255
215 232 255
215 232 255
215 232 255
215 232 255
215 232 255
215 232 255
215 232 255
215 232 255
215 232 255
215 232 255
215 232 255
215 232 255
215 232 255
215 232 255
215 232 255
215 232 255
215 232 255
215 232 255
215 232 255
215 232 255
215 232 255
215 232 255
215 232 255
215 232 255
215 232 255
215 232 255
215 232 255
215 232 255
215 232 255
215 232 255
215 232 255
215 232 255
215 232 255
215 232 255
215 232 255
215 232 255
215 232 255
215 232 255
215 232 255
215 232 255
215 232 255
215 232 255
215 232 255
215 232 255
215 232 255
215 232 255
215 232 255
215 232 255
215 232 255
215 232 255
215 232 255
215 232 255
215 232 255
215 232 255
215 232 255
215 232 255
215 232 255
215 232 255
215 232 255
215 232 255
215 232 255
215 232 255
215 232 255
215 232 255
215 232 255
215 232 255
215 232 255
215 232 255
215 232 255
215 232 255
215 232 255
215 232 255
215 232 255
215 232 255
215 232 255
215 232 255
215 232 255
215 232 255
215 232 255
215 232 255
215 232 255
215 232 255
215 232 255
215 232 255
215 232 255
215 232 255
215 232 255
215 232 255
215 232 255
215 232 255
216 232 255
216 232 255
216 232 255
216 232 255
216 232 255
216 232 255
216 232 255
216 232 255
216 232 255
216 232 255
216 232 255
216 232 255
216 232 255
216 232 255
216 232 255
216 232 255
216 232 255
216 232 255
216 232 255
216 232 255
216 232 255
216 232 255
216 232 255
216 232 255
216 232 255
216 232 255
216 232 255
216 232 255
216 232 255
216 232 255
216 232 255
216 232 255
216 232 255
216 232 255
216 232 255
216 232 255
216 232 255
216 232 255
216 232 255
216 232 255
216 232 255
216 232 255
216 232 255
216 232 255
216 232 255
216 232 255
216 232 255
216 232 255
216 232 255
216 232 255
216 232 255
216 232 255
216 232 255
216 232 255
216 232 255
216 232 255
216 232 255
216 232 255
216 232 255
216 232 255
216 232 255
216 232 255
216 232 255
216 232 255
216 232 255
216 232 255
216 232 255
216 232 255
216 232 255
216 232 255
216 232 255
216 232 255
216 232 255
216 232 255
216 232 255
216 232 255
215 232 255
215 232 255
215 232 255
215 232 255
215 232 255
215 232 255
215 232 255
215 232 255
215 232 255
215 232 255
215 232 255
215 232 255
215 232 255
215 232 255
215 232 255
215 232 255
215 232 255
215 232 255
215 232 255
215 232 255
215 232 255
215 232 255
215 232 255
215 232 255
215 232 255
215 232 255
215 232 255
215 232 255
215 232 255
215 232 255
215 232 255
215 232 255
215 232 255
215 232 255
215 232 255
215 232 255
215 232 255
215 232 255
215 232 255
215 232 255
215 232 255
215 232 255
215 232 255
215 232 255
215 232 255
215 232 255
215 232 255
215 232 255
215 232 255
215 232 255
215 232 255
215 232 255
215 232 255
215 232 255
215 232 255
215 232 255
215 232 255
215 232 255
215 232 255
215 232 255
215 232 255
215 232 255
215 232 255
215 232 255
215 232 255
215 232 255
215 232 255
215 232 255
215 232 255
215 232 255
215 232 255
215 232 255
215 232 255
215 232 255
215 232 255
215 232 255
215 232 255
215 232 255
215 232 255
215 232 255
215 232 255
215 232 255
215 232 255
215 232 255
215 232 255
215 232 255
215 232 255
215 232 255
215 232 255
215 232 255
215 232 255
215 232 255
215 232 255
215 232 255
215 232 255
215 232 255
215 232 255
215 232 255
215 232 255
215 232 255
215 232 255
215 232 255
215 232 255
215 232 255
215 232 255
215 232 255
215 232 255
215 232 255
215 232 255
215 232 255
175 190 206
147 160 172
59 70 58
43 53 18
42 52 20
46 56 24
55 66 32
68 74 44
63 66 39
42 51 18
34 46 7
34 45 7
39 46 15
37 45 14
32 40 7
28 38 15
23 39 19
30 46 18
29 39 15
27 37 10
30 38 12
35 42 16
36 41 13
38 40 17
34 38 13
34 38 12
36 41 16
40 45 20
43 47 17
37 41 19
42 46 16
41 45 17
44 47 13
44 46 16
28 33 40
6 9 67
0 0 68
0 2 69
0 0 69
0 0 71
0 0 70
0 0 68
0 0 64
0 0 64
0 0 63
0 0 63
0 0 64
0 7 72
9 15 67
3 9 68
22 28 58
57 56 31
58 58 29
59 60 38
64 64 44
56 58 47
37 40 58
22 23 53
20 23 54
37 38 57
32 36 58
17 20 54
17 18 61
2 9 70
0 6 67
0 0 58
0 0 59
0 0 61
0 0 65
8 13 67
75 87 105
157 177 202
191 215 246
198 223 255
174 197 230
104 117 147
134 145 166
184 198 220
215 232 255
215 232 255
215 232 255
215 232 255
215 232 255
215 232 255
215 232 255
215 232 255
215 232 255
215 232 255
215 232 255
215 232 255
215 232 255
215 232 255
215 232 255
215 232 255
215 232 255
215 232 255
215 232 255
215 232 255
215 232 255
215 232 255
215 232 255
215 232 255
215 232 255
215 232 255
215 232 255
215 232 255
215 232 255
215 232 255
215 232 255
215 232 255
215 232 255
215 232 255
215 232 255
215 232 255
215 232 255
215 232 255
215 232 255
215 232 255
215 232 255
215 232 255
215 232 255
215 232 255
215 232 255
215 232 255
215 232 255
215 232 255
215 232 255
215 232 255
215 232 255
215 232 255
215 232 255
215 232 255
215 232 255
215 232 255
215 232 255
215 232 255
215 232 255
215 232 255
215 232 255
215 232 255
215 232 255
215 232 255
215 232 255
215 232 255
215 232 255
215 232 255
215 232 255
215 232 255
215 232 255
215 232 255
215 232 255
215 232 255
215 232 255
215 232 255
215 232 255
215 232 255
215 232 255
215 232 255
215 232 255
215 232 255
215 232 255
215 232 255
215 232 255
215 232 255
215 232 255
215 232 255
215 232 255
215 232 255
215 232 255
215 232 255
215 232 255
215 232 255
215 232 255
215 232 255
215 232 255
215 232 255
215 232 255
215 232 255
215 232 255
215 232 255
215 232 255
215 232 255
215 232 255
215 232 255
215 232 255
215 232 255
215 232 255
216 232 255
215 232 255
216 232 255
216 232 255
216 232 255
216 232 255
216 232 255
216 232 255
216 232 255
216 232 255
216 232 255
216 232 255
216 232 255
216 232 255
216 232 255
216 232 255
216 232 255
216 232 255
216 232 255
216 232 255
216 232 255
216 232 255
216 232 255
216 232 255
216 232 255
216 232 255
216 232 255
216 232 255
216 232 255
216 232 255
216 232 255
216 232 255
216 232 255
216 232 255
216 232 255
216 232 255
216 232 255
216 232 255
216 232 255
216 232 255
216 232 255
216 232 255
216 232 255
216 232 255
216 232 255
216 232 255
216 232 255
216 232 255
216 232 255
216 232 255
216 232 255
216 232 255
216 232 255
216 232 255
216 232 255
216 232 255
216 232 255
216 232 255
216 232 255
216 232 255
216 232 255
216 232 255
216 232 255
216 232 255
216 232 255
216 232 255
216 232 255
216 232 255
216 232 255
216 232 255
216 232 255
216 232 255
216 232 255
216 232 255
216 232 255
216 232 255
216 232 255
216 232 255
216 232 255
216 232 255
216 232 255
216 232 255
216 232 255
216 232 255
216 232 255
216 232 255
216 232 255
216 232 255
216 232 255
216 232 255
216 232 255
216 232 255
216 232 255
216 232 255
216 232 255
216 232 255
216 232 255
216 232 255
216 232 255
216 232 255
216 232 255
216 232 255
216 232 255
216 232 255
216 232 255
216 232 255
216 232 255
216 232 255
216 232 255
216 232 255
216 232 255
216 232 255
216 232 255
216 232 255
216 232 255
216 232 255
216 232 255
216 232 255
216 232 255
216 232 255
216 232 255
216 232 255
216 232 255
216 232 255
216 232 255
216 232 255
216 232 255
216 232 255
216 232 255
216 232 255
216 232 255
216 232 255
216 232 255
216 232 255
216 232 255
215 232 255
215 232 255
215 232 255
215 232 255
215 232 255
215 232 255
215 232 255
215 232 255
215 232 255
215 232 255
215 232 255
215 232 255
215 232 255
215 232 255
215 232 255
215 232 255
215 232 255
215 232 255
215 232 255
215 232 255
215 232 255
215 232 255
215 232 255
215 232 255
215 232 255
215 232 255
215 232 255
215 232 255
215 232 255
215 232 255
215 232 255
215 232 255
215 232 255
215 232 255
215 232 255
215 232 255
215 232 255
215 232 255
215 232 255
215 232 255
215 232 255
215 232 255
215 232 255
215 232 255
215 232 255
215 232 255
215 232 255
215 232 255
215 232 255
215 232 255
215 232 255
215 232 255
215 232 255
215 232 255
215 232 255
215 232 255
215 232 255
215 232 255
215 232 255
215 232 255
215 232 255
215 232 255
215 232 255
215 232 255
215 232 255
215 232 255
215 232 255
215 232 255
215 232 255
215 232 255
215 232 255
215 232 255
215 232 255
215 232 255
215 232 255
209 225 248
165 179 195
77 87 85
38 49 15
32 45 7
31 45 6
32 44 5
33 45 6
46 58 23
50 60 28
53 59 32
42 53 22
26 42 0
26 40 0
28 42 3
31 44 3
30 44 7
30 43 10
26 41 12
34 46 7
31 44 6
32 43 8
27 36 14
30 38 11
32 39 9
27 35 5
27 34 5
29 37 11
36 44 14
35 41 18
38 44 23
34 39 14
34 39 15
40 43 14
44 47 13
47 49 16
43 45 13
7 12 66
0 8 69
0 6 69
0 3 70
0 0 65
0 0 64
0 0 70
0 0 70
0 0 68
0 0 68
0 0 67
0 0 64
0 0 64
0 1 64
0 4 66
0 5 65
1 4 67
32 37 51
50 53 19
47 49 20
48 50 26
52 53 31
62 62 39
57 59 31
48 50 38
13 15 60
12 17 61
0 0 64
6 7 63
19 25 57
2 6 66
0 0 65
0 0 65
0 0 66
0 0 62
0 7 68
0 11 74
0 9 71
89 100 126
134 151 177
183 206 236
196 220 252
131 151 180
17 23 71
91 98 121
167 180 201
209 225 248
215 232 255
215 232 255
215 232 255
215 232 255
215 232 255
215 232 255
215 232 255
215 232 255
215 232 255
215 232 255
215 232 255
215 232 255
215 232 255
215 232 255
215 232 255
215 232 255
215 232 255
215 232 255
215 232 255
215 232 255
215 232 255
215 232 255
215 232 255
215 232 255
215 232 255
215 232 255
215 232 255
215 232 255
215 232 255
215 232 255
215 232 255
215 232 255
215 232 255
215 232 255
215 232 255
215 232 255
215 232 255
215 232 255
215 232 255
215 232 255
215 232 255
215 232 255
215 232 255
215 232 255
215 232 255
215 232 255
215 232 255
215 232 255
215 232 255
215 232 255
215 232 255
215 232 255
215 232 255
215 232 255
215 232 255
215 232 255
215 232 255
215 232 255
215 232 255
215 232 255
215 232 255
215 232 255
215 232 255
215 232 255
215 232 255
215 232 255
215 232 255
215 232 255
215 232 255
215 232 255
215 232 255
215 232 255
215 232 255
215 232 255
215 232 255
215 232 255
216 232 255
216 232 255
216 232 255
216 232 255
216 232 255
216 232 255
216 232 255
216 232 255
216 232 255
216 232 255
216 232 255
216 232 255
216 232 255
216 232 255
216 232 255
216 232 255
216 232 255
216 232 255
216 232 255
216 232 255
216 232 255
216 232 255
216 232 255
216 232 255
216 232 255
216 232 255
216 232 255
216 232 255
216 232 255
216 232 255
216 232 255
216 232 255
216 232 255
216 232 255
216 232 255
216 232 255
216 232 255
216 232 255
216 232 255
216 232 255
216 232 255
216 232 255
216 232 255
216 232 255
216 232 255
216 232 255
216 232 255
216 232 255
216 232 255
216 232 255
216 232 255
216 232 255
216 232 255
216 232 255
216 232 255
216 232 255
216 232 255
216 232 255
216 232 255
216 232 255
216 232 255
216 232 255
216 232 255
216 232 255
216 232 255
216 232 255
216 232 255
216 232 255
216 232 255
216 232 255
216 232 255
216 232 255
216 232 255
216 232 255
216 232 255
216 232 255
216 232 255
216 232 255
216 232 255
216 232 255
216 232 255
216 232 255
216 232 255
216 232 255
216 232 255
216 232 255
216 232 255
216 232 255
216 232 255
216 232 255
216 232 255
216 232 255
216 232 255
216 232 255
216 232 255
216 232 255
216 232 255
216 232 255
216 232 255
216 232 255
216 232 255
216 232 255
216 232 255
216 232 255
216 232 255
216 232 255
216 232 255
216 232 255
216 232 255
216 232 255
216 232 255
216 232 255
216 232 255
216 232 255
216 232 255
216 232 255
216 232 255
216 232 255
216 232 255
216 232 255
216 232 255
216 232 255
216 232 255
216 232 255
216 232 255
216 232 255
216 232 255
216 232 255
216 232 255
216 232 255
216 232 255
216 232 255
216 232 255
216 232 255
216 232 255
216 232 255
216 232 255
216 232 255
216 232 255
216 232 255
216 232 255
216 232 255
216 232 255
216 232 255
216 232 255
216 232 255
216 232 255
216 232 255
216 232 255
216 232 255
216 232 255
216 232 255
216 232 255
216 232 255
216 232 255
216 232 255
216 232 255
216 232 255
216 232 255
216 232 255
216 232 255
216 232 255
216 232 255
216 232 255
216 232 255
216 232 255
216 232 255
216 232 255
216 232 255
216 232 255
216 232 255
216 232 255
216 232 255
216 232 255
216 232 255
216 232 255
216 232 255
216 232 255
216 232 255
216 232 255
216 232 255
216 232 255
216 232 255
216 232 255
216 232 255
216 232 255
216 232 255
216 232 255
216 232 255
216 232 255
216 232 255
216 232 255
216 232 255
216 232 255
216 232 255
216 232 255
216 232 255
216 232 255
216 232 255
216 232 255
216 232 255
216 232 255
216 232 255
216 232 255
216 232 255
216 232 255
216 232 255
215 232 255
215 232 255
215 232 255
215 232 255
215 232 255
215 232 255
215 232 255
215 232 255
215 232 255
215 232 255
215 232 255
215 232 255
215 232 255
215 232 255
215 232 255
215 232 255
215 232 255
215 232 255
215 232 255
215 232 255
215 232 255
215 232 255
215 232 255
215 232 255
215 232 255
215 232 255
215 232 255
215 232 255
215 232 255
215 232 255
215 232 255
201 217 237
141 154 163
85 96 85
49 60 34
37 46 14
35 46 9
34 47 12
36 50 14
31 44 10
28 42 8
26 41 3
23 39 1
25 42 2
25 43 0
25 41 0
26 41 0
25 42 0
28 44 1
30 44 0
28 43 0
30 48 1
38 53 9
35 48 10
32 41 11
42 47 32
39 44 24
39 46 17
39 47 19
35 43 13
29 36 16
28 37 15
31 38 18
37 43 16
36 42 13
33 40 7
32 38 9
33 38 3
37 43 7
38 45 11
37 43 13
32 37 27
9 29 82
0 28 84
0 15 77
0 8 69
0 5 65
0 3 67
0 0 67
0 0 69
0 0 69
0 0 65
0 0 64
0 0 62
0 0 64
0 0 63
4 4 59
27 31 48
41 45 32
44 49 15
44 48 16
46 50 18
53 55 22
53 56 24
56 57 26
45 51 35
30 38 51
18 34 79
5 26 83
46 54 51
62 64 54
38 39 57
3 3 62
0 0 63
0 0 64
0 5 65
0 5 66
0 6 67
0 4 63
0 8 68
28 33 74
111 124 149
140 157 179
148 168 192
83 97 129
0 0 58
48 52 77
146 157 177
188 202 224
215 232 255
215 232 255
215 232 255
215 232 255
215 232 255
215 232 255
215 232 255
215 232 255
215 232 255
215 232 255
215 232 255
215 232 255
215 232 255
215 232 255
215 232 255
215 232 255
215 232 255
215 232 255
215 232 255
215 232 255
215 232 255
215 232 255
215 232 255
215 232 255
215 232 255
215 232 255
215 232 255
215 232 255
216 232 255
216 232 255
216 232 255
216 232 255
215 232 255
216 232 255
216 232 255
216 232 255
216 232 255
216 232 255
216 232 255
216 232 255
216 232 255
216 232 255
216 232 255
216 232 255
216 232 255
216 232 255
216 232 255
216 232 255
216 232 255
216 232 255
216 232 255
216 232 255
216 232 255
216 232 255
216 232 255
216 232 255
216 232 255
216 232 255
216 232 255
216 232 255
216 232 255
216 232 255
216 232 255
216 232 255
216 232 255
216 232 255
216 232 255
216 232 255
216 232 255
216 232 255
216 232 255
216 232 255
216 232 255
216 232 255
216 232 255
216 232 255
216 232 255
216 232 255
216 232 255
216 232 255
216 232 255
216 232 255
216 232 255
216 232 255
216 232 255
216 232 255
216 232 255
216 232 255
216 232 255
216 232 255
216 232 255
216 232 255
216 232 255
216 232 255
216 232 255
216 232 255
216 232 255
216 232 255
216 232 255
216 232 255
216 232 255
216 232 255
216 232 255
216 232 255
216 232 255
216 232 255
216 232 255
216 232 255
216 232 255
216 232 255
216 232 255
216 232 255
216 232 255
216 232 255
216 232 255
216 232 255
216 232 255
216 232 255
216 232 255
216 232 255
216 232 255
216 232 255
216 232 255
216 232 255
216 232 255
216 232 255
216 232 255
216 232 255
216 232 255
216 232 255
216 232 255
216 232 255
216 232 255
216 232 255
216 232 255
216 232 255
216 232 255
216 232 255
216 232 255
216 232 255
216 232 255
216 232 255
216 232 255
216 232 255
216 232 255
216 232 255
216 232 255
216 232 255
216 232 255
216 232 255
216 232 255
216 232 255
216 232 255
216 232 255
216 232 255
216 232 255
216 232 255
216 232 255
216 232 255
216 232 255
216 232 255
216 232 255
216 232 255
216 232 255
216 232 255
216 232 255
216 232 255
216 232 255
216 232 255
216 232 255
216 232 255
216 232 255
216 232 255
216 232 255
216 232 255
216 232 255
216 232 255
216 232 255
216 232 255
216 232 255
216 232 255
216 232 255
216 232 255
216 232 255
216 232 255
216 232 255
216 232 255
216 232 255
216 232 255
216 232 255
216 232 255
216 232 255
216 232 255
216 232 255
216 232 255
216 232 255
216 232 255
216 232 255
216 232 255
216 232 255
216 232 255
216 232 255
216 232 255
216 232 255
216 232 255
216 232 255
216 232 255
216 232 255
216 232 255
216 232 255
216 232 255
216 232 255
216 232 255
216 232 255
216 232 255
216 232 255
216 232 255
216 232 255
216 232 255
216 232 255
216 232 255
216 232 255
216 232 255
216 232 255
216 232 255
216 232 255
216 232 255
216 232 255
216 232 255
216 232 255
216 232 255
216 232 255
216 232 255
216 232 255
216 232 255
216 232 255
216 232 255
216 232 255
216 232 255
216 232 255
216 232 255
216 232 255
216 232 255
216 232 255
216 232 255
216 232 255
216 232 255
216 232 255
216 232 255
216 232 255
216 232 255
216 232 255
216 232 255
216 232 255
216 232 255
216 232 255
216 232 255
216 232 255
216 232 255
216 232 255
216 232 255
216 232 255
216 232 255
216 232 255
216 232 255
216 232 255
216 232 255
216 232 255
216 232 255
216 232 255
216 232 255
216 232 255
216 232 255
216 232 255
216 232 255
216 232 255
216 232 255
216 232 255
216 232 255
216 232 255
216 232 255
216 232 255
216 232 255
216 232 255
216 232 255
216 232 255
216 232 255
216 232 255
216 232 255
216 232 255
216 232 255
216 232 255
216 232 255
216 232 255
216 232 255
216 232 255
216 232 255
216 232 255
216 232 255
216 232 255
216 232 255
216 232 255
216 232 255
216 232 255
216 232 255
216 232 255
216 232 255
216 232 255
216 232 255
216 232 255
178 193 210
137 153 158
77 91 79
144 164 177
140 160 170
66 78 59
37 50 14
29 43 9
40 54 17
30 43 7
32 46 12
44 56 25
24 40 8
20 40 0
24 44 0
24 44 0
24 45 0
25 45 0
29 50 5
30 50 8
27 46 0
26 45 0
27 46 0
30 46 5
36 48 9
36 47 13
42 48 16
37 44 18
32 40 15
31 42 10
27 41 2
25 38 11
16 23 23
27 37 9
28 38 6
30 41 10
32 45 10
30 41 7
33 43 9
36 45 0
35 48 7
39 47 9
39 46 11
28 48 57
28 50 56
26 41 46
24 35 55
18 30 64
5 21 74
0 9 71
0 0 66
0 3 70
0 7 71
0 0 70
0 0 66
0 6 68
0 3 70
0 3 64
3 6 57
0 2 60
31 37 49
44 51 17
44 50 20
47 51 21
52 57 25
53 58 23
51 57 19
46 54 17
41 50 16
39 52 27
45 52 21
56 61 27
66 67 41
53 56 49
24 29 60
3 4 64
0 0 63
0 0 58
0 0 53
0 0 54
0 1 61
0 0 63
0 6 66
0 9 71
5 15 74
75 86 116
56 67 94
8 11 59
0 0 54
0 0 53
98 106 126
178 192 213
214 231 254
216 232 255
216 232 255
216 232 255
216 232 255
216 232 255
216 232 255
216 232 255
216 232 255
216 232 255
216 232 255
216 232 255
216 232 255
216 232 255
216 232 255
216 232 255
216 232 255
216 232 255
216 232 255
216 232 255
216 232 255
216 232 255
216 232 255
216 232 255
216 232 255
216 232 255
216 232 255
216 232 255
216 232 255
216 232 255
216 232 255
216 232 255
216 232 255
216 232 255
216 232 255
216 232 255
216 232 255
216 232 255
216 232 255
216 232 255
216 232 255
216 232 255
216 232 255
216 232 255
216 232 255
216 232 255
216 232 255
216 232 255
216 232 255
216 232 255
216 232 255
216 232 255
216 232 255
216 232 255
216 232 255
216 232 255
216 232 255
216 232 255
216 232 255
216 232 255
216 232 255
216 232 255
216 232 255
216 232 255
216 232 255
216 232 255
216 232 255
216 232 255
216 232 255
216 232 255
216 232 255
216 232 255
216 232 255
216 232 255
216 232 255
216 232 255
216 232 255
216 232 255
216 232 255
216 232 255
216 232 255
216 232 255
216 232 255
216 232 255
216 232 255
216 232 255
216 232 255
216 232 255
216 232 255
216 232 255
216 232 255
216 232 255
216 232 255
216 232 255
216 232 255
216 232 255
216 232 255
216 232 255
216 232 255
216 232 255
216 232 255
216 232 255
216 232 255
216 232 255
216 232 255
216 232 255
216 232 255
216 232 255
216 232 255
216 232 255
216 232 255
216 232 255
216 232 255
216 232 255
216 232 255
216 232 255
216 232 255
216 232 255
216 232 255
216 232 255
216 232 255
216 232 255
216 232 255
216 232 255
216 232 255
216 232 255
216 232 255
216 232 255
216 232 255
216 232 255
216 232 255
216 232 255
216 232 255
216 232 255
216 232 255
216 232 255
216 232 255
216 232 255
216 232 255
216 232 255
216 232 255
216 232 255
216 232 255
216 232 255
216 232 255
216 232 255
216 232 255
216 232 255
216 232 255
216 232 255
216 232 255
216 232 255
216 232 255
216 232 255
216 233 255
216 233 255
216 233 255
216 233 255
216 233 255
216 233 255
216 233 255
216 233 255
216 233 255
216 232 255
216 232 255
216 232 255
216 232 255
216 232 255
216 232 255
216 232 255
216 232 255
216 232 255
216 232 255
216 232 255
216 232 255
216 232 255
216 232 255
216 232 255
216 232 255
216 232 255
216 232 255
216 232 255
216 232 255
216 232 255
216 232 255
216 232 255
216 232 255
216 232 255
216 232 255
216 232 255
216 232 255
216 232 255
216 232 255
216 232 255
216 232 255
216 232 255
216 232 255
216 232 255
216 232 255
216 232 255
216 232 255
216 232 255
216 232 255
216 232 255
216 232 255
216 232 255
216 232 255
216 232 255
216 232 255
216 232 255
216 232 255
216 232 255
216 232 255
216 232 255
216 232 255
216 232 255
216 232 255
216 232 255
216 232 255
216 232 255
216 232 255
216 232 255
216 232 255
216 232 255
216 232 255
216 232 255
216 232 255
216 232 255
216 232 255
216 232 255
216 232 255
216 232 255
216 232 255
216 232 255
216 232 255
216 232 255
216 232 255
216 232 255
216 232 255
216 232 255
216 232 255
216 232 255
216 232 255
216 232 255
216 232 255
216 232 255
216 232 255
216 232 255
216 232 255
216 232 255
216 232 255
216 232 255
216 232 255
216 232 255
216 232 255
216 232 255
216 232 255
216 232 255
216 232 255
216 232 255
216 232 255
216 232 255
216 232 255
216 232 255
216 232 255
216 232 255
216 232 255
216 232 255
216 232 255
216 232 255
216 232 255
216 232 255
216 232 255
216 232 255
216 232 255
216 232 255
216 232 255
216 232 255
216 232 255
216 232 255
216 232 255
216 232 255
216 232 255
216 232 255
216 232 255
216 232 255
216 232 255
216 232 255
216 232 255
216 232 255
216 232 255
216 232 255
216 232 255
216 232 255
216 232 255
216 232 255
216 232 255
216 232 255
216 232 255
216 232 255
216 232 255
216 232 255
216 232 255
216 232 255
216 232 255
213 230 253
186 203 221
108 122 130
55 69 86
79 93 106
106 124 141
149 173 188
108 130 136
114 134 136
29 44 5
32 47 11
40 53 14
44 57 21
40 52 22
64 74 45
23 40 3
23 42 0
22 42 0
23 43 1
27 48 5
25 46 2
23 44 0
22 42 0
23 43 0
24 45 0
24 44 0
24 42 0
27 42 8
20 33 8
26 39 6
27 39 3
22 36 0
20 35 0
24 39 0
22 37 8
25 39 0
26 40 6
29 45 0
26 43 0
24 40 0
24 43 5
28 44 0
26 41 0
29 45 0
30 43 7
27 41 0
31 43 0
33 44 2
30 41 3
32 41 5
37 43 8
30 42 30
23 38 55
18 29 59
11 19 67
5 16 72
3 13 72
0 15 76
0 10 73
0 8 74
6 16 65
6 13 62
0 2 60
12 19 65
34 44 20
40 46 12
36 43 13
38 44 14
42 49 13
46 53 12
45 52 15
43 52 16
34 43 8
35 43 9
37 42 9
49 53 24
59 61 32
57 60 32
37 46 35
9 15 60
0 0 65
0 0 59
0 0 57
0 0 56
0 0 57
0 0 59
0 0 61
0 3 64
0 11 70
0 18 76
4 13 72
0 10 69
0 0 53
0 0 51
0 0 52
86 93 113
180 194 216
216 232 255
216 232 255
216 232 255
216 232 255
216 232 255
216 232 255
216 232 255
216 232 255
216 232 255
216 232 255
216 232 255
216 232 255
216 232 255
216 232 255
216 232 255
216 232 255
216 232 255
216 232 255
216 232 255
216 232 255
216 232 255
216 232 255
216 232 255
216 232 255
216 232 255
216 232 255
216 232 255
216 232 255
216 232 255
216 232 255
216 232 255
216 232 255
216 232 255
216 232 255
216 232 255
216 232 255
216 232 255
216 232 255
216 232 255
216 232 255
216 232 255
216 232 255
216 232 255
216 232 255
216 232 255
216 232 255
216 232 255
216 232 255
216 232 255
216 232 255
216 232 255
216 232 255
216 232 255
216 232 255
216 232 255
216 232 255
216 232 255
216 232 255
216 232 255
216 232 255
216 232 255
216 232 255
216 232 255
216 232 255
216 232 255
216 232 255
216 232 255
216 232 255
216 232 255
216 232 255
216 232 255
216 232 255
216 232 255
216 232 255
216 232 255
216 232 255
216 232 255
216 232 255
216 232 255
216 232 255
216 232 255
216 232 255
216 232 255
216 232 255
216 232 255
216 232 255
216 232 255
216 232 255
216 232 255
216 232 255
216 232 255
216 232 255
216 232 255
216 232 255
216 232 255
216 232 255
216 232 255
216 232 255
216 232 255
216 232 255
216 232 255
216 232 255
216 232 255
216 232 255
216 232 255
216 232 255
216 232 255
216 232 255
216 232 255
216 232 255
216 232 255
216 232 255
216 232 255
216 232 255
216 232 255
216 232 255
216 232 255
216 232 255
216 232 255
216 232 255
216 232 255
216 232 255
216 232 255
216 232 255
216 232 255
216 232 255
216 232 255
216 232 255
216 232 255
216 232 255
216 232 255
216 232 255
216 232 255
216 232 255
216 232 255
216 232 255
216 232 255
216 232 255
216 232 255
216 232 255
216 232 255
216 232 255
216 232 255
216 233 255
216 233 255
216 233 255
216 233 255
216 233 255
216 233 255
216 233 255
216 233 255
216 233 255
216 233 255
216 233 255
216 233 255
216 233 255
216 233 255
216 233 255
216 233 255
216 233 255
216 233 255
216 233 255
216 233 255
216 233 255
216 233 255
216 233 255
216 233 255
216 233 255
216 233 255
216 233 255
216 233 255
216 233 255
216 233 255
216 233 255
216 233 255
216 233 255
216 233 255
216 233 255
216 233 255
216 233 255
216 233 255
216 233 255
216 233 255
216 233 255
216 233 255
216 233 255
216 232 255
216 232 255
216 232 255
216 232 255
216 232 255
216 232 255
216 232 255
216 232 255
216 232 255
216 232 255
216 232 255
216 232 255
216 232 255
216 232 255
216 232 255
216 232 255
216 232 255
216 232 255
216 232 255
216 232 255
216 232 255
216 232 255
216 232 255
216 232 255
216 232 255
216 232 255
216 232 255
216 232 255
216 232 255
216 232 255
216 232 255
216 232 255
216 232 255
216 232 255
216 232 255
216 232 255
216 232 255
216 232 255
216 232 255
216 232 255
216 232 255
216 232 255
216 232 255
216 232 255
216 232 255
216 232 255
216 232 255
216 232 255
216 232 255
216 232 255
216 232 255
216 232 255
216 232 255
216 232 255
216 232 255
216 232 255
216 232 255
216 232 255
216 232 255
216 232 255
216 232 255
216 232 255
216 232 255
216 232 255
216 232 255
216 232 255
216 232 255
216 232 255
216 232 255
216 232 255
216 232 255
216 232 255
216 232 255
216 232 255
216 232 255
216 232 255
216 232 255
216 232 255
216 232 255
216 232 255
216 232 255
216 232 255
216 232 255
216 232 255
216 232 255
216 232 255
216 232 255
216 232 255
216 232 255
216 232 255
216 232 255
216 232 255
216 232 255
216 232 255
216 232 255
216 232 255
216 232 255
216 232 255
216 232 255
216 232 255
216 232 255
216 232 255
216 232 255
216 232 255
216 232 255
216 232 255
216 232 255
216 232 255
216 232 255
216 232 255
216 232 255
216 232 255
216 232 255
216 232 255
216 232 255
216 232 255
182 198 216
107 119 136
57 70 90
3 8 56
0 0 55
0 0 60
45 58 65
28 41 44
122 144 150
101 120 110
61 79 46
47 64 27
42 56 19
33 47 13
29 45 11
23 40 5
26 48 1
36 58 8
37 59 8
39 63 12
40 62 16
21 40 0
24 42 2
23 44 0
25 45 0
23 43 0
22 41 0
25 45 4
23 41 1
20 36 0
21 38 4
22 39 2
14 27 10
20 35 5
17 32 0
18 34 0
20 36 0
25 40 2
29 45 6
25 42 0
24 44 0
25 39 0
23 40 0
18 33 0
16 31 5
20 35 0
21 37 0
22 40 0
26 41 0
27 40 0
28 40 8
29 38 0
33 38 0
32 38 0
34 42 0
34 41 3
33 43 22
35 43 24
34 44 37
13 36 90
0 19 86
0 29 85
17 26 61
25 32 41
35 44 19
40 47 13
36 43 4
38 46 8
36 45 7
34 40 8
34 41 7
34 41 2
37 44 7
39 46 7
39 47 13
34 41 6
34 42 4
43 51 14
45 50 18
48 52 21
36 44 30
19 28 54
4 13 66
0 0 60
0 0 59
0 0 56
0 0 58
0 0 59
0 0 59
0 0 63
0 1 62
0 1 60
0 11 68
0 1 59
0 0 51
0 0 51
0 0 51
0 0 51
103 111 132
183 197 219
216 232 255
216 232 255
216 232 255
216 232 255
216 232 255
216 232 255
216 232 255
216 232 255
216 232 255
216 232 255
216 232 255
216 232 255
216 232 255
216 232 255
216 232 255
216 232 255
216 232 255
216 232 255
216 232 255
216 232 255
216 232 255
216 232 255
216 232 255
216 232 255
216 232 255
216 232 255
216 232 255
216 232 255
216 232 255
216 232 255
216 232 255
216 232 255
216 232 255
216 232 255
216 232 255
216 232 255
216 232 255
216 232 255
216 232 255
216 232 255
216 232 255
216 232 255
216 232 255
216 232 255
216 232 255
216 232 255
216 232 255
216 232 255
216 232 255
216 232 255
216 232 255
216 232 255
216 232 255
216 232 255
216 232 255
216 232 255
216 232 255
216 232 255
216 232 255
216 232 255
216 232 255
216 232 255
216 232 255
216 232 255
216 232 255
216 232 255
216 232 255
216 232 255
216 232 255
216 232 255
216 232 255
216 232 255
216 232 255
216 232 255
216 232 255
216 232 255
216 232 255
216 232 255
216 232 255
216 232 255
216 232 255
216 232 255
216 232 255
216 232 255
216 232 255
216 232 255
216 232 255
216 232 255
216 232 255
216 232 255
216 232 255
216 232 255
216 232 255
216 232 255
216 232 255
216 232 255
216 232 255
216 232 255
216 232 255
216 232 255
216 232 255
216 232 255
216 232 255
216 232 255
216 232 255
216 232 255
216 232 255
216 232 255
216 232 255
216 232 255
216 232 255
216 232 255
216 232 255
216 232 255
216 233 255
216 232 255
216 232 255
216 233 255
216 233 255
216 233 255
216 233 255
216 233 255
216 233 255
216 233 255
216 233 255
216 233 255
216 233 255
216 233 255
216 233 255
216 233 255
216 233 255
216 233 255
216 233 255
216 233 255
216 233 255
216 233 255
216 233 255
216 233 255
216 233 255
216 233 255
216 233 255
216 233 255
216 233 255
216 233 255
216 233 255
216 233 255
216 233 255
216 233 255
216 233 255
216 233 255
216 233 255
216 233 255
216 233 255
216 233 255
216 233 255
216 233 255
216 233 255
216 233 255
216 233 255
216 233 255
216 233 255
216 233 255
216 233 255
216 233 255
216 233 255
216 233 255
216 233 255
216 233 255
216 233 255
216 233 255
216 233 255
216 233 255
216 233 255
216 233 255
216 233 255
216 233 255
216 233 255
216 233 255
216 233 255
216 233 255
216 233 255
216 233 255
216 233 255
216 233 255
216 233 255
216 233 255
216 233 255
216 233 255
216 233 255
216 233 255
216 233 255
216 233 255
216 233 255
216 233 255
216 233 255
216 233 255
216 233 255
216 233 255
216 233 255
216 233 255
216 233 255
216 233 255
216 233 255
216 233 255
216 233 255
216 233 255
216 233 255
216 233 255
216 233 255
216 233 255
216 233 255
216 233 255
216 233 255
216 233 255
216 233 255
216 232 255
216 232 255
216 232 255
216 232 255
216 232 255
216 232 255
216 232 255
216 232 255
216 232 255
216 232 255
216 232 255
216 232 255
216 232 255
216 232 255
216 232 255
216 232 255
216 232 255
216 232 255
216 232 255
216 232 255
216 232 255
216 232 255
216 232 255
216 232 255
216 232 255
216 232 255
216 232 255
216 232 255
216 232 255
216 232 255
216 232 255
216 232 255
216 232 255
216 232 255
216 232 255
216 232 255
216 232 255
216 232 255
216 232 255
216 232 255
216 232 255
216 232 255
216 232 255
216 232 255
216 232 255
216 232 255
216 232 255
216 232 255
216 232 255
216 232 255
216 232 255
216 232 255
216 232 255
216 232 255
216 232 255
216 232 255
216 232 255
216 232 255
216 232 255
216 232 255
216 232 255
216 232 255
216 232 255
216 232 255
216 232 255
216 232 255
216 232 255
216 232 255
216 232 255
216 232 255
216 232 255
216 232 255
216 232 255
216 232 255
216 232 255
216 232 255
216 232 255
216 232 255
216 232 255
216 232 255
216 232 255
216 232 255
216 232 255
187 203 221
120 130 149
11 17 62
0 1 57
0 0 54
0 0 56
0 0 58
15 22 53
17 34 35
36 56 44
103 130 123
73 94 81
37 57 25
26 42 15
22 36 6
17 34 0
20 39 1
20 37 5
22 41 1
31 52 5
29 52 4
28 48 3
28 46 3
30 49 4
37 58 13
37 58 14
38 60 15
38 58 18
33 51 11
34 54 12
31 51 9
26 45 0
19 37 1
24 41 5
30 47 2
29 46 8
33 49 0
30 47 0
31 50 8
28 50 9
25 49 7
23 47 8
23 46 9
27 41 5
27 40 5
22 36 0
15 31 0
21 39 3
23 40 2
23 41 0
22 38 0
22 37 0
20 36 5
26 39 0
26 40 0
30 39 0
30 38 0
31 38 0
32 42 7
33 40 7
27 39 0
16 50 70
4 40 97
0 45 105
10 45 96
30 45 44
36 44 17
27 36 13
26 36 4
25 34 10
33 43 7
32 41 5
27 36 4
27 37 0
28 37 5
29 35 10
29 36 4
32 39 0
36 44 12
27 36 3
30 38 5
35 40 10
47 53 19
40 49 17
33 40 24
20 35 56
16 25 61
8 13 62
0 0 55
0 0 54
0 0 58
0 0 59
0 0 60
0 0 58
0 0 55
0 0 57
0 0 53
0 0 51
0 0 52
0 0 53
0 0 52
0 0 55
94 101 122
184 199 220
216 232 255
216 232 255
216 232 255
216 232 255
216 232 255
216 232 255
216 232 255
216 232 255
216 232 255
216 232 255
216 232 255
216 232 255
216 232 255
216 232 255
216 232 255
216 232 255
216 232 255
216 232 255
216 232 255
216 232 255
216 232 255
216 232 255
216 232 255
216 232 255
216 232 255
216 232 255
216 232 255
216 232 255
216 232 255
216 232 255
216 232 255
216 232 255
216 232 255
216 232 255
216 232 255
216 232 255
216 232 255
216 232 255
216 232 255
216 232 255
216 232 255
216 232 255
216 232 255
216 232 255
216 232 255
216 232 255
216 232 255
216 232 255
216 232 255
216 232 255
216 232 255
216 232 255
216 232 255
216 232 255
216 232 255
216 232 255
216 232 255
216 232 255
216 232 255
216 232 255
216 232 255
216 232 255
216 232 255
216 232 255
216 232 255
216 232 255
216 232 255
216 232 255
216 232 255
216 232 255
216 232 255
216 232 255
216 232 255
216 232 255
216 232 255
216 232 255
216 232 255
216 232 255
216 232 255
216 232 255
216 232 255
216 232 255
216 232 255
216 233 255
216 233 255
216 233 255
216 233 255
216 233 255
216 233 255
216 233 255
216 233 255
216 233 255
216 233 255
216 233 255
216 233 255
216 233 255
216 233 255
216 233 255
216 233 255
216 233 255
216 233 255
216 233 255
216 233 255
216 233 255
216 233 255
216 233 255
216 233 255
216 233 255
216 233 255
216 233 255
216 233 255
216 233 255
216 233 255
216 233 255
216 233 255
216 233 255
216 233 255
216 233 255
216 233 255
216 233 255
216 233 255
216 233 255
216 233 255
216 233 255
216 233 255
216 233 255
216 233 255
216 233 255
216 233 255
216 233 255
216 233 255
216 233 255
216 233 255
216 233 255
216 233 255
216 233 255
216 233 255
216 233 255
216 233 255
216 233 255
216 233 255
216 233 255
216 233 255
216 233 255
216 233 255
216 233 255
216 233 255
216 233 255
216 233 255
216 233 255
216 233 255
216 233 255
216 233 255
216 233 255
216 233 255
216 233 255
216 233 255
216 233 255
216 233 255
216 233 255
216 233 255
216 233 255
216 233 255
216 233 255
216 233 255
216 233 255
216 233 255
216 233 255
216 233 255
216 233 255
216 233 255
216 233 255
216 233 255
216 233 255
216 233 255
216 233 255
216 233 255
216 233 255
216 233 255
216 233 255
216 233 255
216 233 255
216 233 255
216 233 255
216 233 255
216 233 255
216 233 255
216 233 255
216 233 255
216 233 255
216 233 255
216 233 255
216 233 255
216 233 255
216 233 255
216 233 255
216 233 255
216 233 255
216 233 255
216 233 255
216 233 255
216 233 255
216 233 255
216 233 255
216 233 255
216 233 255
216 233 255
216 233 255
216 233 255
216 233 255
216 233 255
216 233 255
216 233 255
216 233 255
216 233 255
216 233 255
216 233 255
216 233 255
216 233 255
216 233 255
216 233 255
216 233 255
216 233 255
216 233 255
216 233 255
216 233 255
216 233 255
216 233 255
216 233 255
216 233 255
216 233 255
216 233 255
216 233 255
216 233 255
216 233 255
216 233 255
216 233 255
216 233 255
216 233 255
216 233 255
216 233 255
216 233 255
216 233 255
216 233 255
216 233 255
216 233 255
216 233 255
216 233 255
216 233 255
216 232 255
216 233 255
216 232 255
216 232 255
216 232 255
216 232 255
216 232 255
216 232 255
216 232 255
216 232 255
216 232 255
216 232 255
216 232 255
216 232 255
216 232 255
216 232 255
216 232 255
216 232 255
216 232 255
216 232 255
216 232 255
216 232 255
216 232 255
216 232 255
216 232 255
216 232 255
216 232 255
216 232 255
216 232 255
216 232 255
216 232 255
216 232 255
216 232 255
216 232 255
216 232 255
216 232 255
216 232 255
216 232 255
216 232 255
216 232 255
216 232 255
216 232 255
216 232 255
216 232 255
216 232 255
202 218 239
126 138 152
17 24 59
0 0 53
0 0 51
0 0 53
0 0 54
0 0 55
0 0 58
6 19 41
8 26 35
47 68 51
52 73 47
30 48 14
18 36 0
17 33 0
17 34 0
18 37 0
21 40 6
39 56 24
29 43 11
24 39 0
20 39 0
23 44 0
36 56 13
43 65 19
47 70 23
48 71 24
50 72 26
57 76 33
60 77 35
57 74 34
52 69 29
56 71 31
59 75 32
57 74 33
54 73 30
46 64 20
30 51 0
30 48 2
27 46 7
18 45 12
26 43 3
14 46 0
25 41 8
28 42 3
29 44 0
27 40 0
26 39 0
24 38 0
23 39 0
21 37 0
19 34 0
22 36 0
18 35 0
20 36 0
18 33 0
22 36 0
27 38 0
27 37 0
29 41 0
31 41 0
30 40 0
26 51 37
21 74 84
11 68 111
3 63 115
12 56 104
34 52 27
39 47 10
28 38 5
31 42 0
31 42 2
32 43 0
30 40 7
29 41 0
28 39 0
27 36 0
32 42 0
28 37 0
30 37 0
32 41 4
26 35 7
23 31 13
22 31 7
27 39 0
28 40 5
28 42 7
24 49 41
22 41 30
12 29 49
1 10 66
0 2 56
0 0 52
0 0 54
0 0 56
0 0 57
0 0 58
0 0 58
0 0 57
0 0 54
0 0 52
0 0 53
0 0 53
0 0 54
0 0 54
133 143 163
206 222 244
216 232 255
216 232 255
216 232 255
216 232 255
216 232 255
216 232 255
216 232 255
216 232 255
216 232 255
216 232 255
216 232 255
216 232 255
216 232 255
216 232 255
216 232 255
216 232 255
216 232 255
216 232 255
216 232 255
216 232 255
216 232 255
216 232 255
216 232 255
216 232 255
216 232 255
216 232 255
216 232 255
216 232 255
216 232 255
216 232 255
216 232 255
216 232 255
216 232 255
216 232 255
216 232 255
216 232 255
216 232 255
216 232 255
216 232 255
216 232 255
216 232 255
216 232 255
216 232 255
216 232 255
216 232 255
216 233 255
216 233 255
216 233 255
216 233 255
216 233 255
216 233 255
216 233 255
216 233 255
216 233 255
216 233 255
216 233 255
216 233 255
216 233 255
216 233 255
216 233 255
216 233 255
216 233 255
216 233 255
216 233 255
216 233 255
216 233 255
216 233 255
216 233 255
216 233 255
216 233 255
216 233 255
216 233 255
216 233 255
216 233 255
216 233 255
216 233 255
216 233 255
216 233 255
216 233 255
216 233 255
216 233 255
216 233 255
216 233 255
216 233 255
216 233 255
216 233 255
216 233 255
216 233 255
216 233 255
216 233 255
216 233 255
216 233 255
216 233 255
216 233 255
216 233 255
216 233 255
216 233 255
216 233 255
216 233 255
216 233 255
216 233 255
216 233 255
216 233 255
216 233 255
216 233 255
216 233 255
216 233 255
216 233 255
216 233 255
216 233 255
216 233 255
216 233 255
216 233 255
216 233 255
216 233 255
216 233 255
216 233 255
216 233 255
216 233 255
216 233 255
216 233 255
216 233 255
216 233 255
216 233 255
216 233 255
216 233 255
216 233 255
216 233 255
216 233 255
216 233 255
216 233 255
216 233 255
216 233 255
216 233 255
216 233 255
216 233 255
216 233 255
216 233 255
216 233 255
216 233 255
216 233 255
216 233 255
216 233 255
216 233 255
216 233 255
216 233 255
216 233 255
216 233 255
216 233 255
216 233 255
216 233 255
216 233 255
216 233 255
216 233 255
216 233 255
216 233 255
216 233 255
216 233 255
216 233 255
216 233 255
216 233 255
216 233 255
216 233 255
216 233 255
216 233 255
216 233 255
216 233 255
216 233 255
216 233 255
216 233 255
216 233 255
216 233 255
216 233 255
216 233 255
216 233 255
216 233 255
216 233 255
216 233 255
216 233 255
216 233 255
216 233 255
216 233 255
216 233 255
216 233 255
216 233 255
216 233 255
216 233 255
216 233 255
216 233 255
216 233 255
216 233 255
216 233 255
216 233 255
216 233 255
216 233 255
216 233 255
216 233 255
216 233 255
216 233 255
216 233 255
216 233 255
216 233 255
216 233 255
216 233 255
216 233 255
216 233 255
216 233 255
216 233 255
216 233 255
216 233 255
216 233 255
216 233 255
216 233 255
216 233 255
216 233 255
216 233 255
216 233 255
216 233 255
216 233 255
216 233 255
216 233 255
216 233 255
216 233 255
216 233 255
216 233 255
216 233 255
216 233 255
216 233 255
216 233 255
216 233 255
216 233 255
216 233 255
216 233 255
216 233 255
216 233 255
216 233 255
216 233 255
216 233 255
216 233 255
216 233 255
216 233 255
216 233 255
216 233 255
216 233 255
216 233 255
216 233 255
216 233 255
216 233 255
216 233 255
216 233 255
216 233 255
216 233 255
216 233 255
216 233 255
216 233 255
216 233 255
216 233 255
216 233 255
216 233 255
216 233 255
216 233 255
216 233 255
216 233 255
216 233 255
216 233 255
216 233 255
216 233 255
216 233 255
216 233 255
216 233 255
216 233 255
216 233 255
216 233 255
216 233 255
216 233 255
216 233 255
216 233 255
216 233 255
216 233 255
216 233 255
216 233 255
216 233 255
216 233 255
216 233 255
216 233 255
216 233 255
216 233 255
216 233 255
216 233 255
216 233 255
208 225 247
147 158 180
46 55 73
0 0 52
0 0 50
0 0 49
0 0 51
0 0 53
0 0 55
0 4 52
5 18 52
0 14 62
30 47 43
65 88 66
51 68 48
18 30 0
18 32 0
20 36 0
20 38 0
19 37 4
55 73 45
50 63 33
59 70 40
58 66 41
28 39 10
24 44 0
38 62 12
43 69 18
52 73 27
64 80 41
69 80 43
81 88 54
81 89 53
78 85 49
76 83 50
81 88 51
77 86 46
65 81 40
61 78 36
48 67 25
43 65 22
36 58 10
32 55 10
28 54 8
25 49 2
27 51 0
34 50 5
27 40 0
30 46 0
21 36 0
18 33 0
18 34 0
17 34 0
15 30 0
16 31 0
16 33 0
19 35 0
16 33 0
17 33 0
20 38 0
23 39 0
24 38 0
28 40 0
30 43 0
29 40 0
30 42 0
31 47 20
30 50 71
9 90 130
10 79 110
25 53 40
34 43 10
29 42 1
31 42 6
28 40 0
27 39 0
27 40 0
29 40 1
30 42 0
31 42 0
35 46 0
32 43 0
29 40 0
29 40 0
24 34 0
23 33 0
23 33 0
26 39 0
27 40 0
21 36 0
15 37 17
22 38 17
21 36 0
22 38 12
19 35 45
3 8 61
0 0 53
0 0 54
0 0 57
0 0 55
0 0 56
0 0 57
0 0 54
0 0 53
0 0 55
0 0 56
0 0 56
0 0 55
0 0 56
0 0 58
157 169 191
210 227 249
216 233 255
216 233 255
216 233 255
216 233 255
216 233 255
216 233 255
216 233 255
216 233 255
216 233 255
216 233 255
216 233 255
216 233 255
216 233 255
216 233 255
216 233 255
216 233 255
216 233 255
216 233 255
216 233 255
216 233 255
216 233 255
216 233 255
216 233 255
216 233 255
216 233 255
216 233 255
216 233 255
216 233 255
216 233 255
216 233 255
216 233 255
216 233 255
216 233 255
216 233 255
216 233 255
216 233 255
216 233 255
216 233 255
216 233 255
216 233 255
216 233 255
216 233 255
216 233 255
216 233 255
216 233 255
216 233 255
216 233 255
216 233 255
216 233 255
216 233 255
216 233 255
216 233 255
216 233 255
216 233 255
216 233 255
216 233 255
216 233 255
216 233 255
216 233 255
216 233 255
216 233 255
216 233 255
216 233 255
216 233 255
216 233 255
216 233 255
216 233 255
216 233 255
216 233 255
216 233 255
216 233 255
216 233 255
216 233 255
216 233 255
216 233 255
216 233 255
216 233 255
216 233 255
216 233 255
216 233 255
216 233 255
216 233 255
216 233 255
216 233 255
216 233 255
216 233 255
216 233 255
216 233 255
216 233 255
216 233 255
216 233 255
216 233 255
216 233 255
216 233 255
216 233 255
216 233 255
216 233 255
216 233 255
216 233 255
216 233 255
216 233 255
216 233 255
216 233 255
216 233 255
216 233 255
216 233 255
216 233 255
216 233 255
216 233 255
216 233 255
216 233 255
216 233 255
216 233 255
216 233 255
216 233 255
216 233 255
216 233 255
216 233 255
216 233 255
216 233 255
216 233 255
216 233 255
216 233 255
216 233 255
216 233 255
216 233 255
216 233 255
216 233 255
216 233 255
216 233 255
216 233 255
216 233 255
216 233 255
216 233 255
216 233 255
216 233 255
216 233 255
216 233 255
216 233 255
216 233 255
216 233 255
216 233 255
216 233 255
216 233 255
216 233 255
216 233 255
216 233 255
216 233 255
216 233 255
216 233 255
216 233 255
216 233 255
216 233 255
216 233 255
216 233 255
216 233 255
216 233 255
216 233 255
216 233 255
216 233 255
216 233 255
216 233 255
216 233 255
216 233 255
216 233 255
216 233 255
216 233 255
216 233 255
216 233 255
216 233 255
216 233 255
216 233 255
216 233 255
216 233 255
216 233 255
216 233 255
216 233 255
216 233 255
216 233 255
216 233 255
216 233 255
216 233 255
216 233 255
216 233 255
216 233 255
216 233 255
216 233 255
216 233 255
216 233 255
216 233 255
216 233 255
216 233 255
216 233 255
216 233 255
216 233 255
216 233 255
216 233 255
216 233 255
216 233 255
216 233 255
216 233 255
216 233 255
216 233 255
216 233 255
216 233 255
216 233 255
216 233 255
216 233 255
216 233 255
216 233 255
216 233 255
216 233 255
216 233 255
216 233 255
216 233 255
216 233 255
216 233 255
216 233 255
216 233 255
216 233 255
216 233 255
216 233 255
216 233 255
216 233 255
216 233 255
216 233 255
216 233 255
216 233 255
216 233 255
216 233 255
216 233 255
216 233 255
216 233 255
216 233 255
216 233 255
216 233 255
216 233 255
216 233 255
216 233 255
216 233 255
216 233 255
216 233 255
216 233 255
216 233 255
216 233 255
216 233 255
216 233 255
216 233 255
216 233 255
216 233 255
216 233 255
216 233 255
216 233 255
216 233 255
216 233 255
216 233 255
216 233 255
216 233 255
216 233 255
216 233 255
216 233 255
216 233 255
216 233 255
216 233 255
216 233 255
216 233 255
216 233 255
216 233 255
216 233 255
216 233 255
216 233 255
216 233 255
216 233 255
216 233 255
216 233 255
216 233 255
216 233 255
216 233 255
216 233 255
216 233 255
216 233 255
216 233 255
216 233 255
216 233 255
216 233 255
216 233 255
216 233 255
176 189 211
81 89 109
0 2 53
0 0 51
0 0 49
0 0 49
0 0 52
0 0 54
0 0 54
0 0 54
5 21 47
5 19 57
1 10 50
22 39 26
70 93 73
47 61 40
31 41 3
38 48 7
29 43 0
20 38 0
19 36 2
31 48 18
49 65 32
66 79 54
82 89 65
51 59 32
37 55 13
54 75 28
74 85 46
87 89 57
95 93 64
100 97 69
105 102 71
103 102 67
93 96 62
83 89 59
81 89 53
73 83 49
65 79 41
60 75 34
54 73 31
49 73 27
42 70 21
40 61 11
38 63 13
35 62 14
34 57 12
40 63 10
31 48 5
33 48 0
26 40 0
24 38 0
23 37 0
20 35 0
17 33 0
15 30 0
13 26 0
15 30 0
18 35 1
19 35 1
20 37 0
23 41 0
23 40 0
25 41 0
25 41 0
29 42 0
31 46 0
30 45 0
25 41 5
31 46 12
33 43 10
33 45 7
27 43 6
26 38 0
22 36 8
26 39 1
27 40 0
21 34 6
16 26 8
23 36 0
27 41 0
24 37 0
29 41 0
20 31 0
20 32 0
22 35 0
22 36 0
26 39 0
29 43 0
23 36 0
24 38 0
19 35 0
21 36 0
23 40 0
21 36 0
26 44 3
20 36 35
1 6 59
0 0 55
0 0 57
0 0 53
0 0 53
0 0 59
0 0 60
0 0 56
0 0 54
0 0 56
0 0 55
0 0 57
0 0 59
0 0 55
0 0 57
52 57 86
170 183 205
216 233 255
216 233 255
216 233 255
216 233 255
216 233 255
216 233 255
216 233 255
216 233 255
216 233 255
216 233 255
216 233 255
216 233 255
216 233 255
216 233 255
216 233 255
216 233 255
216 233 255
216 233 255
216 233 255
216 233 255
216 233 255
216 233 255
216 233 255
216 233 255
216 233 255
216 233 255
216 233 255
216 233 255
216 233 255
216 233 255
216 233 255
216 233 255
216 233 255
216 233 255
216 233 255
216 233 255
216 233 255
216 233 255
216 233 255
216 233 255
216 233 255
216 233 255
216 233 255
216 233 255
216 233 255
216 233 255
216 233 255
216 233 255
216 233 255
216 233 255
216 233 255
216 233 255
216 233 255
216 233 255
216 233 255
216 233 255
216 233 255
216 233 255
216 233 255
216 233 255
216 233 255
216 233 255
216 233 255
216 233 255
216 233 255
216 233 255
216 233 255
216 233 255
216 233 255
216 233 255
216 233 255
216 233 255
216 233 255
216 233 255
216 233 255
216 233 255
216 233 255
216 233 255
216 233 255
216 233 255
216 233 255
216 233 255
216 233 255
216 233 255
216 233 255
216 233 255
216 233 255
216 233 255
216 233 255
216 233 255
216 233 255
216 233 255
216 233 255
216 233 255
216 233 255
216 233 255
216 233 255
216 233 255
216 233 255
216 233 255
216 233 255
216 233 255
216 233 255
216 233 255
216 233 255
216 233 255
216 233 255
216 233 255
216 233 255
216 233 255
216 233 255
216 233 255
216 233 255
216 233 255
216 233 255
216 233 255
216 233 255
216 233 255
216 233 255
216 233 255
216 233 255
216 233 255
216 233 255
216 233 255
216 233 255
216 233 255
216 233 255
216 233 255
216 233 255
216 233 255
216 233 255
216 233 255
216 233 255
216 233 255
216 233 255
216 233 255
216 233 255
216 233 255
216 233 255
216 233 255
216 233 255
216 233 255
216 233 255
216 233 255
216 233 255
216 233 255
216 233 255
216 233 255
216 233 255
216 233 255
216 233 255
216 233 255
216 233 255
216 233 255
216 233 255
216 233 255
216 233 255
216 233 255
216 233 255
216 233 255
216 233 255
216 233 255
216 233 255
216 233 255
216 233 255
216 233 255
216 233 255
216 233 255
216 233 255
216 233 255
216 233 255
216 233 255
216 233 255
216 233 255
216 233 255
216 233 255
216 233 255
216 233 255
216 233 255
216 233 255
216 233 255
216 233 255
216 233 255
216 233 255
216 233 255
216 233 255
216 233 255
216 233 255
216 233 255
216 233 255
216 233 255
216 233 255
216 233 255
216 233 255
216 233 255
216 233 255
216 233 255
216 233 255
216 233 255
216 233 255
216 233 255
216 233 255
216 233 255
216 233 255
216 233 255
216 233 255
216 233 255
216 233 255
216 233 255
216 233 255
216 233 255
216 233 255
216 233 255
216 233 255
216 233 255
216 233 255
216 233 255
216 233 255
216 233 255
216 233 255
216 233 255
216 233 255
216 233 255
216 233 255
216 233 255
216 233 255
216 233 255
216 233 255
216 233 255
216 233 255
216 233 255
216 233 255
216 233 255
216 233 255
216 233 255
216 233 255
216 233 255
216 233 255
216 233 255
216 233 255
216 233 255
216 233 255
216 233 255
216 233 255
216 233 255
216 233 255
216 233 255
216 233 255
216 233 255
216 233 255
216 233 255
216 233 255
216 233 255
216 233 255
216 233 255
216 233 255
216 233 255
216 233 255
216 233 255
216 233 255
216 233 255
216 233 255
216 233 255
216 233 255
216 233 255
216 233 255
216 233 255
216 233 255
216 233 255
216 233 255
216 233 255
216 233 255
216 233 255
216 233 255
216 233 255
216 233 255
216 233 255
216 233 255
216 233 255
216 233 255
216 233 255
216 233 255
216 233 255
216 233 255
206 222 245
109 118 137
0 3 54
0 0 52
0 0 50
0 0 50
0 0 52
0 0 53
0 0 53
0 0 52
0 0 53
0 0 57
1 9 52
0 0 56
4 13 49
32 51 33
106 129 120
87 104 90
54 66 46
35 44 11
33 45 8
26 40 6
20 38 1
26 44 13
40 57 23
53 69 39
38 49 15
46 57 24
55 70 32
83 87 52
91 93 60
96 95 66
103 99 72
104 102 74
97 95 66
96 98 67
87 92 59
84 89 54
76 86 47
61 79 33
56 76 28
55 75 29
46 68 20
46 70 19
46 71 19
47 74 22
43 69 17
43 68 18
40 68 16
47 72 15
38 58 4
32 50 0
24 38 6
23 38 4
22 39 5
24 38 4
21 37 0
22 38 0
20 34 0
23 40 2
15 27 24
16 29 20
23 40 0
25 43 0
24 42 0
21 40 0
24 43 0
21 41 0
24 43 0
25 43 0
25 44 0
23 40 0
28 43 0
29 46 0
27 44 0
25 43 0
26 43 0
26 44 0
22 39 0
23 39 0
27 41 3
26 42 0
24 41 0
22 38 0
20 34 0
23 38 6
18 31 0
17 32 0
16 35 8
17 34 21
18 35 10
19 36 0
20 37 0
17 32 0
20 36 0
20 34 0
22 35 10
11 25 38
17 28 44
13 26 43
0 7 59
0 4 65
0 0 63
0 0 57
0 0 54
0 0 59
0 0 61
0 0 58
0 0 57
0 0 59
0 0 56
0 0 60
0 3 65
0 0 57
0 0 58
0 0 62
103 111 136
205 221 243
216 233 255
216 233 255
216 233 255
216 233 255
216 233 255
216 233 255
216 233 255
216 233 255
216 233 255
216 233 255
216 233 255
216 233 255
216 233 255
216 233 255
216 233 255
216 233 255
216 233 255
216 233 255
216 233 255
216 233 255
216 233 255
216 233 255
216 233 255
216 233 255
216 233 255
216 233 255
216 233 255
216 233 255
216 233 255
216 233 255
216 233 255
216 233 255
216 233 255
216 233 255
216 233 255
216 233 255
216 233 255
216 233 255
216 233 255
216 233 255
216 233 255
216 233 255
216 233 255
216 233 255
216 233 255
216 233 255
216 233 255
216 233 255
216 233 255
216 233 255
216 233 255
216 233 255
216 233 255
216 233 255
216 233 255
216 233 255
216 233 255
216 233 255
216 233 255
216 233 255
216 233 255
216 233 255
216 233 255
216 233 255
216 233 255
216 233 255
216 233 255
216 233 255
216 233 255
216 233 255
216 233 255
216 233 255
216 233 255
216 233 255
216 233 255
216 233 255
216 233 255
216 233 255
216 233 255
216 233 255
216 233 255
216 233 255
216 233 255
216 233 255
216 233 255
216 233 255
216 233 255
216 233 255
216 233 255
216 233 255
216 233 255
216 233 255
216 233 255
216 233 255
216 233 255
216 233 255
216 233 255
216 233 255
216 233 255
216 233 255
216 233 255
216 233 255
216 233 255
216 233 255
216 233 255
216 233 255
216 233 255
216 233 255
216 233 255
216 233 255
216 233 255
216 233 255
216 233 255
216 233 255
216 233 255
216 233 255
216 233 255
216 233 255
216 233 255
216 233 255
216 233 255
216 233 255
216 233 255
216 233 255
216 233 255
216 233 255
216 233 255
216 233 255
216 233 255
216 233 255
216 233 255
216 233 255
216 233 255
216 233 255
216 233 255
216 233 255
216 233 255
216 233 255
216 233 255
216 233 255
216 233 255
216 233 255
216 233 255
216 233 255
216 233 255
216 233 255
216 233 255
216 233 255
216 233 255
216 233 255
216 233 255
216 233 255
216 233 255
216 233 255
216 233 255
216 233 255
216 233 255
216 233 255
216 233 255
216 233 255
216 233 255
216 233 255
216 233 255
216 233 255
216 233 255
216 233 255
216 233 255
216 233 255
216 233 255
216 233 255
216 233 255
216 233 255
216 233 255
216 233 255
216 233 255
216 233 255
216 233 255
216 233 255
216 233 255
216 233 255
216 233 255
216 233 255
216 233 255
216 233 255
216 233 255
216 233 255
216 233 255
216 233 255
216 233 255
216 233 255
216 233 255
216 233 255
216 233 255
216 233 255
216 233 255
216 233 255
216 233 255
216 233 255
216 233 255
216 233 255
216 233 255
216 233 255
216 233 255
216 233 255
216 233 255
216 233 255
216 233 255
216 233 255
216 233 255
216 233 255
216 233 255
216 233 255
216 233 255
216 233 255
216 233 255
216 233 255
216 233 255
216 233 255
216 233 255
216 233 255
216 233 255
216 233 255
216 233 255
216 233 255
216 233 255
216 233 255
216 233 255
216 233 255
216 233 255
216 233 255
216 233 255
216 233 255
216 233 255
216 233 255
216 233 255
216 233 255
216 233 255
216 233 255
216 233 255
216 233 255
216 233 255
216 233 255
216 233 255
216 233 255
216 233 255
216 233 255
216 233 255
216 233 255
216 233 255
216 233 255
216 233 255
216 233 255
216 233 255
216 233 255
216 233 255
216 233 255
216 233 255
216 233 255
216 233 255
216 233 255
216 233 255
216 233 255
216 233 255
216 233 255
216 233 255
216 233 255
216 233 255
216 233 255
216 233 255
216 233 255
216 233 255
216 233 255
216 233 255
216 233 255
216 233 255
216 233 255
216 233 255
216 233 255
216 233 255
216 233 255
212 228 251
156 168 188
43 46 73
0 0 51
0 0 50
0 0 50
0 0 50
0 0 52
0 0 53
0 0 53
0 0 51
0 0 50
0 0 53
0 0 53
0 0 53
6 16 50
8 24 34
21 39 21
50 67 55
90 113 104
80 96 80
40 51 20
35 45 8
33 45 12
24 41 5
25 42 6
31 44 9
41 53 22
39 50 13
45 55 18
77 85 49
91 96 61
103 103 71
104 102 73
95 94 63
97 95 65
99 99 70
93 94 64
87 91 60
77 84 51
73 83 47
69 81 42
63 78 33
56 74 29
48 71 23
51 76 27
48 73 25
45 69 17
48 73 24
47 73 24
45 70 22
46 67 21
40 59 14
34 53 13
23 37 15
30 49 5
19 36 6
26 43 0
22 37 0
24 38 0
21 38 0
24 44 0
26 49 16
19 39 20
17 33 31
20 37 32
23 43 9
24 42 0
24 42 0
26 47 0
27 49 0
26 45 0
25 47 0
29 49 0
29 47 0
32 52 0
27 48 0
28 50 0
26 46 0
27 44 0
25 42 0
22 37 0
25 43 0
23 44 0
23 45 0
22 43 0
19 37 0
23 39 5
25 44 7
14 36 15
9 35 52
0 23 83
0 18 78
2 18 77
9 25 53
9 19 51
11 24 46
11 20 43
12 22 43
2 4 59
1 3 56
21 40 18
5 16 47
0 4 69
0 0 62
0 0 62
0 0 58
0 0 54
0 0 58
0 0 64
0 0 59
0 0 60
0 0 57
0 0 60
0 0 65
0 0 66
0 0 60
0 0 62
0 0 65
48 52 85
162 174 195
216 233 255
216 233 255
216 233 255
216 233 255
216 233 255
216 233 255
216 233 255
216 233 255
216 233 255
216 233 255
216 233 255
216 233 255
216 233 255
216 233 255
216 233 255
216 233 255
216 233 255
216 233 255
216 233 255
216 233 255
216 233 255
216 233 255
216 233 255
216 233 255
216 233 255
216 233 255
216 233 255
216 233 255
216 233 255
216 233 255
216 233 255
216 233 255
216 233 255
216 233 255
216 233 255
216 233 255
216 233 255
216 233 255
216 233 255
216 233 255
216 233 255
216 233 255
216 233 255
216 233 255
216 233 255
216 233 255
216 233 255
216 233 255
216 233 255
216 233 255
216 233 255
216 233 255
216 233 255
216 233 255
216 233 255
216 233 255
216 233 255
216 233 255
216 233 255
216 233 255
216 233 255
216 233 255
216 233 255
216 233 255
216 233 255
216 233 255
216 233 255
216 233 255
216 233 255
216 233 255
216 233 255
216 233 255
216 233 255
216 233 255
216 233 255
216 233 255
216 233 255
216 233 255
216 233 255
216 233 255
216 233 255
216 233 255
216 233 255
216 233 255
216 233 255
216 233 255
216 233 255
216 233 255
216 233 255
216 233 255
216 233 255
216 233 255
216 233 255
216 233 255
216 233 255
216 233 255
216 233 255
216 233 255
216 233 255
216 233 255
216 233 255
216 233 255
216 233 255
216 233 255
216 233 255
216 233 255
216 233 255
216 233 255
216 233 255
216 233 255
216 233 255
216 233 255
216 233 255
216 233 255
216 233 255
216 233 255
216 233 255
216 233 255
216 233 255
216 233 255
216 233 255
216 233 255
216 233 255
216 233 255
216 233 255
216 233 255
216 233 255
216 233 255
216 233 255
216 233 255
216 233 255
216 233 255
216 233 255
216 233 255
216 233 255
216 233 255
216 233 255
216 233 255
216 233 255
216 233 255
216 233 255
216 233 255
216 233 255
216 233 255
216 233 255
216 233 255
216 233 255
216 233 255
216 233 255
216 233 255
216 233 255
216 233 255
216 233 255
216 233 255
216 233 255
216 233 255
216 233 255
216 233 255
216 233 255
216 233 255
216 233 255
216 233 255
216 233 255
216 233 255
216 233 255
216 233 255
216 233 255
216 233 255
216 233 255
216 233 255
216 233 255
216 233 255
216 233 255
216 233 255
216 233 255
216 233 255
216 233 255
216 233 255
216 233 255
216 233 255
216 233 255
216 233 255
216 233 255
216 233 255
216 233 255
216 233 255
216 233 255
216 233 255
216 233 255
216 233 255
216 233 255
216 233 255
216 233 255
216 233 255
216 233 255
216 233 255
216 233 255
216 233 255
216 233 255
216 233 255
216 233 255
216 233 255
216 233 255
216 233 255
216 233 255
216 233 255
216 233 255
216 233 255
216 233 255
216 233 255
216 233 255
216 233 255
216 233 255
216 233 255
216 233 255
216 233 255
216 233 255
216 233 255
216 233 255
216 233 255
216 233 255
216 233 255
216 233 255
216 233 255
216 233 255
216 233 255
216 233 255
216 233 255
216 233 255
216 233 255
216 233 255
216 233 255
216 233 255
216 233 255
216 233 255
216 233 255
216 233 255
216 233 255
216 233 255
216 233 255
216 233 255
216 233 255
216 233 255
216 233 255
216 233 255
216 233 255
216 233 255
216 233 255
216 233 255
216 233 255
216 233 255
216 233 255
216 233 255
216 233 255
216 233 255
216 233 255
216 233 255
216 233 255
216 233 255
216 233 255
216 233 255
216 233 255
216 233 255
216 233 255
216 233 255
216 233 255
216 233 255
216 233 255
216 233 255
216 233 255
216 233 255
216 233 255
216 233 255
216 233 255
216 233 255
216 233 255
216 233 255
216 233 255
198 213 236
96 104 125
0 0 50
0 0 49
0 0 49
0 0 50
0 0 50
0 0 52
0 0 53
0 0 52
0 0 50
0 0 52
0 0 52
0 0 50
0 0 51
0 0 52
5 17 40
14 35 12
10 32 24
3 25 51
32 54 36
36 54 27
20 39 0
32 42 8
37 48 13
26 42 1
23 41 0
27 45 5
29 44 4
31 45 5
41 56 19
84 86 54
109 106 74
119 114 81
115 112 82
100 101 70
95 96 66
93 94 65
90 91 61
79 85 54
76 84 50
71 80 43
67 78 39
67 79 39
57 74 31
51 74 24
47 73 20
49 72 22
49 72 24
44 67 21
45 70 24
47 72 29
48 70 26
45 67 17
35 56 12
26 46 12
27 49 0
29 52 0
26 46 3
20 38 0
21 40 0
21 38 22
25 43 32
8 15 56
0 0 60
0 0 60
0 3 63
9 23 46
19 36 32
22 41 14
22 41 0
23 43 0
24 44 0
24 45 0
27 47 0
31 51 0
29 50 0
29 49 0
29 50 0
23 45 0
24 43 0
21 39 0
20 37 0
21 39 0
23 43 0
24 43 8
23 41 11
26 46 0
22 43 0
20 52 38
11 58 89
16 44 60
18 45 45
23 44 21
18 43 26
10 34 54
10 20 60
11 23 50
6 14 54
0 0 57
0 0 59
0 4 60
20 37 28
19 38 14
14 28 40
2 11 52
4 11 53
0 2 57
0 0 57
0 0 56
0 0 59
0 0 64
0 0 64
0 1 64
0 3 60
0 0 60
0 2 64
0 0 69
0 3 69
0 3 67
0 4 69
0 0 62
99 106 128
197 212 234
216 233 255
216 233 255
216 233 255
216 233 255
216 233 255
216 233 255
216 233 255
216 233 255
216 233 255
216 233 255
216 233 255
216 233 255
216 233 255
216 233 255
216 233 255
216 233 255
216 233 255
216 233 255
216 233 255
216 233 255
216 233 255
216 233 255
216 233 255
216 233 255
216 233 255
216 233 255
216 233 255
216 233 255
216 233 255
216 233 255
216 233 255
216 233 255
216 233 255
216 233 255
216 233 255
216 233 255
216 233 255
216 233 255
216 233 255
216 233 255
216 233 255
216 233 255
216 233 255
216 233 255
216 233 255
216 233 255
216 233 255
216 233 255
216 233 255
216 233 255
216 233 255
216 233 255
216 233 255
216 233 255
216 233 255
216 233 255
216 233 255
216 233 255
216 233 255
216 233 255
216 233 255
216 233 255
216 233 255
216 233 255
216 233 255
216 233 255
216 233 255
216 233 255
216 233 255
216 233 255
216 233 255
216 233 255
216 233 255
216 233 255
216 233 255
216 233 255
216 233 255
216 233 255
216 233 255
216 233 255
216 233 255
216 233 255
216 233 255
216 233 255
216 233 255
216 233 255
216 233 255
216 233 255
216 233 255
216 233 255
216 233 255
216 233 255
216 233 255
216 233 255
216 233 255
216 233 255
216 233 255
216 233 255
216 233 255
216 233 255
216 233 255
216 233 255
216 233 255
216 233 255
216 233 255
216 233 255
216 233 255
216 233 255
216 233 255
216 233 255
216 233 255
216 233 255
216 233 255
216 233 255
216 233 255
216 233 255
216 233 255
216 233 255
216 233 255
216 233 255
216 233 255
216 233 255
216 233 255
216 233 255
216 233 255
216 233 255
216 233 255
216 233 255
216 233 255
216 233 255
216 233 255
216 233 255
216 233 255
216 233 255
216 233 255
216 233 255
216 233 255
216 233 255
216 233 255
216 233 255
216 233 255
216 233 255
216 233 255
216 233 255
216 233 255
216 233 255
216 233 255
216 233 255
216 233 255
216 233 255
216 233 255
216 233 255
216 233 255
216 233 255
216 233 255
216 233 255
216 233 255
216 233 255
216 233 255
216 233 255
216 233 255
216 233 255
216 233 255
216 233 255
216 233 255
216 233 255
216 233 255
216 233 255
216 233 255
216 233 255
216 233 255
216 233 255
216 233 255
216 233 255
216 233 255
216 233 255
216 233 255
216 233 255
216 233 255
216 233 255
216 233 255
216 233 255
216 233 255
216 233 255
216 233 255
216 233 255
216 233 255
216 233 255
216 233 255
216 233 255
216 233 255
216 233 255
216 233 255
216 233 255
216 233 255
216 233 255
216 233 255
216 233 255
216 233 255
216 233 255
216 233 255
216 233 255
216 233 255
216 233 255
216 233 255
216 233 255
216 233 255
216 233 255
216 233 255
216 233 255
216 233 255
216 233 255
216 233 255
216 233 255
216 233 255
216 233 255
216 233 255
216 233 255
216 233 255
216 233 255
216 233 255
216 233 255
216 233 255
216 233 255
216 233 255
216 233 255
216 233 255
216 233 255
216 233 255
216 233 255
216 233 255
216 233 255
216 233 255
216 233 255
216 233 255
216 233 255
216 233 255
216 233 255
216 233 255
216 233 255
216 233 255
216 233 255
216 233 255
216 233 255
216 233 255
216 233 255
216 233 255
216 233 255
216 233 255
216 233 255
216 233 255
216 233 255
216 233 255
216 233 255
216 233 255
216 233 255
216 233 255
216 233 255
216 233 255
216 233 255
216 233 255
216 233 255
216 233 255
216 233 255
216 233 255
216 233 255
216 233 255
216 233 255
216 233 255
216 233 255
216 233 255
216 233 255
216 233 255
216 233 255
216 233 255
166 179 200
37 40 68
0 0 50
0 0 48
0 0 48
0 0 49
0 0 51
0 0 51
0 0 52
0 0 53
0 0 51
0 0 51
0 0 52
0 0 52
0 0 51
0 0 55
0 0 53
0 9 68
5 25 59
8 35 18
7 38 68
21 58 47
31 52 16
42 51 24
66 70 43
43 52 18
39 53 15
25 42 7
24 41 0
39 52 14
40 53 20
35 46 9
82 87 52
111 109 75
109 106 72
107 105 72
87 88 54
86 86 55
91 93 63
89 93 63
88 92 61
82 89 55
77 86 48
72 83 45
66 78 38
55 70 30
53 72 30
51 72 26
49 71 21
48 72 19
46 71 18
46 71 21
45 70 27
44 70 21
40 65 13
35 56 1
27 50 6
27 49 0
31 54 0
32 51 4
24 47 32
8 26 61
0 10 66
4 9 64
13 39 61
8 32 41
0 7 64
0 0 62
0 0 62
1 5 65
13 34 46
24 46 0
21 42 0
20 40 0
22 41 0
24 43 0
22 43 0
26 50 0
23 45 5
21 42 0
20 41 0
18 39 0
18 39 0
22 45 0
19 41 0
24 45 0
22 42 0
19 44 0
20 38 0
22 46 18
17 68 60
23 58 40
21 50 0
26 49 0
23 54 13
17 55 49
13 38 48
0 15 78
0 5 65
0 7 74
0 6 70
0 4 62
0 2 60
18 33 39
29 46 0
30 44 8
27 45 6
25 43 7
7 16 46
0 0 58
0 0 58
0 0 57
0 8 66
0 14 77
0 8 73
0 10 71
0 1 64
0 0 61
0 4 60
0 5 67
0 4 68
0 1 65
0 0 62
0 0 59
43 46 76
183 197 219
216 233 255
216 233 255
216 233 255
216 233 255
216 233 255
216 233 255
216 233 255
216 233 255
216 233 255
216 233 255
216 233 255
216 233 255
216 233 255
216 233 255
216 233 255
216 233 255
216 233 255
216 233 255
216 233 255
216 233 255
216 233 255
216 233 255
216 233 255
216 233 255
216 233 255
216 233 255
216 233 255
216 233 255
216 233 255
216 233 255
216 233 255
216 233 255
216 233 255
216 233 255
216 233 255
216 233 255
216 233 255
216 233 255
216 233 255
216 233 255
216 233 255
216 233 255
216 233 255
216 233 255
216 233 255
216 233 255
216 233 255
216 233 255
216 233 255
216 233 255
216 233 255
216 233 255
216 233 255
216 233 255
216 233 255
216 233 255
216 233 255
216 233 255
216 233 255
216 233 255
216 233 255
216 233 255
216 233 255
216 233 255
216 233 255
216 233 255
216 233 255
216 233 255
216 233 255
216 233 255
216 233 255
216 233 255
216 233 255
216 233 255
216 233 255
216 233 255
216 233 255
216 233 255
216 233 255
216 233 255
216 233 255
216 233 255
216 233 255
216 233 255
216 233 255
216 233 255
216 233 255
216 233 255
216 233 255
216 233 255
216 233 255
216 233 255
216 233 255
216 233 255
216 233 255
216 233 255
216 233 255
216 233 255
216 233 255
216 233 255
216 233 255
216 233 255
216 233 255
216 233 255
216 233 255
216 233 255
216 233 255
216 233 255
216 233 255
216 233 255
216 233 255
216 233 255
216 233 255
216 233 255
216 233 255
216 233 255
216 233 255
216 233 255
216 233 255
216 233 255
216 233 255
216 233 255
216 233 255
216 233 255
216 233 255
216 233 255
216 233 255
216 233 255
216 233 255
216 233 255
216 233 255
216 233 255
216 233 255
216 233 255
216 233 255
216 233 255
216 233 255
216 233 255
216 233 255
216 233 255
216 233 255
216 233 255
216 233 255
216 233 255
216 233 255
216 233 255
216 233 255
216 233 255
216 233 255
216 233 255
216 233 255
216 233 255
216 233 255
216 233 255
216 233 255
216 233 255
216 233 255
216 233 255
216 233 255
216 233 255
216 233 255
216 233 255
216 233 255
216 233 255
216 233 255
216 233 255
216 233 255
216 233 255
216 233 255
216 233 255
216 233 255
216 233 255
216 233 255
216 233 255
216 233 255
216 233 255
216 233 255
216 233 255
216 233 255
216 233 255
216 233 255
216 233 255
216 233 255
216 233 255
216 233 255
216 233 255
216 233 255
216 233 255
216 233 255
216 233 255
216 233 255
216 233 255
216 233 255
216 233 255
216 233 255
216 233 255
216 233 255
216 233 255
216 233 255
216 233 255
216 233 255
216 233 255
216 233 255
216 233 255
216 233 255
216 233 255
216 233 255
216 233 255
216 233 255
216 233 255
216 233 255
216 233 255
216 233 255
216 233 255
216 233 255
216 233 255
216 233 255
216 233 255
216 233 255
216 233 255
216 233 255
216 233 255
216 233 255
216 233 255
216 233 255
216 233 255
216 233 255
216 233 255
216 233 255
216 233 255
216 233 255
216 233 255
216 233 255
216 233 255
216 233 255
216 233 255
216 233 255
216 233 255
216 233 255
216 233 255
216 233 255
216 233 255
216 233 255
216 233 255
216 233 255
216 233 255
216 233 255
216 233 255
216 233 255
216 233 255
216 233 255
216 233 255
216 233 255
216 233 255
216 233 255
216 233 255
216 233 255
216 233 255
216 233 255
216 233 255
216 233 255
216 233 255
216 233 255
216 233 255
216 233 255
216 233 255
216 233 255
216 233 255
216 233 255
216 233 255
216 233 255
216 233 255
210 226 248
128 137 157
0 0 49
0 0 49
0 0 48
0 0 50
0 0 51
0 0 52
0 0 53
0 0 53
0 0 51
0 0 53
0 0 52
0 0 53
0 0 51
0 0 49
0 0 57
0 0 56
0 0 56
0 5 61
4 27 58
11 36 17
21 45 37
22 45 10
40 51 20
87 87 60
93 94 66
82 84 52
55 66 31
25 42 3
26 43 0
44 56 18
45 57 20
44 54 18
70 76 42
71 75 43
64 68 34
85 91 58
81 86 54
98 101 70
105 105 75
112 112 82
105 107 78
93 96 65
84 91 59
77 84 48
60 74 34
56 72 31
63 77 33
60 77 35
54 73 27
50 72 23
49 72 25
46 69 17
46 70 22
45 68 21
38 62 12
43 65 19
38 58 13
30 51 5
34 57 3
31 55 9
29 57 29
24 55 20
26 52 29
23 49 21
24 53 8
27 49 9
22 46 21
20 37 42
22 40 30
21 43 18
21 46 48
25 57 23
18 46 32
17 42 23
22 42 13
25 48 0
24 47 0
20 39 9
23 46 0
21 46 0
21 45 0
20 45 0
23 47 0
25 49 0
24 48 0
22 46 0
24 46 0
26 50 0
27 52 2
27 62 30
23 59 29
25 50 4
26 54 0
30 56 2
24 49 1
23 47 4
22 51 25
9 39 81
0 18 58
0 0 64
0 0 62
0 3 62
0 0 64
17 33 45
27 43 37
27 39 28
29 41 21
30 44 11
30 47 12
8 20 44
2 6 59
0 0 63
0 1 63
0 11 68
0 11 72
0 3 69
0 3 69
0 9 70
0 0 58
0 0 56
0 0 61
0 0 62
0 0 60
0 0 59
0 0 56
0 0 57
133 143 164
206 222 244
216 233 255
216 233 255
216 233 255
216 233 255
216 233 255
216 233 255
216 233 255
216 233 255
216 233 255
216 233 255
216 233 255
216 233 255
216 233 255
216 233 255
216 233 255
216 233 255
216 233 255
216 233 255
216 233 255
216 233 255
216 233 255
216 233 255
216 233 255
216 233 255
216 233 255
216 233 255
216 233 255
216 233 255
216 233 255
216 233 255
216 233 255
216 233 255
216 233 255
216 233 255
216 233 255
216 233 255
216 233 255
216 233 255
216 233 255
216 233 255
216 233 255
216 233 255
216 233 255
216 233 255
216 233 255
216 233 255
216 233 255
216 233 255
216 233 255
216 233 255
216 233 255
216 233 255
216 233 255
216 233 255
216 233 255
216 233 255
216 233 255
216 233 255
216 233 255
216 233 255
216 233 255
216 233 255
216 233 255
216 233 255
216 233 255
216 233 255
216 233 255
216 233 255
216 233 255
216 233 255
216 233 255
216 233 255
216 233 255
216 233 255
216 233 255
216 233 255
216 233 255
216 233 255
216 233 255
216 233 255
216 233 255
216 233 255
216 233 255
216 233 255
216 233 255
216 233 255
216 233 255
216 233 255
216 233 255
216 233 255
216 233 255
216 233 255
216 233 255
216 233 255
216 233 255
216 233 255
216 233 255
216 233 255
216 233 255
216 233 255
216 233 255
216 233 255
216 233 255
216 233 255
216 233 255
216 233 255
216 233 255
216 233 255
216 233 255
216 233 255
216 233 255
216 233 255
216 233 255
216 233 255
216 233 255
216 233 255
216 233 255
216 233 255
216 233 255
216 233 255
216 233 255
216 233 255
216 233 255
216 233 255
216 233 255
216 233 255
216 233 255
216 233 255
216 233 255
216 233 255
216 233 255
216 233 255
216 233 255
216 233 255
216 233 255
216 233 255
216 233 255
216 233 255
216 233 255
216 233 255
216 233 255
216 233 255
216 233 255
216 233 255
216 233 255
216 233 255
216 233 255
216 233 255
216 233 255
216 233 255
216 233 255
216 233 255
216 233 255
216 233 255
216 233 255
216 233 255
216 233 255
216 233 255
216 233 255
216 233 255
216 233 255
216 233 255
216 233 255
216 233 255
216 233 255
216 233 255
216 233 255
216 233 255
216 233 255
216 233 255
216 233 255
216 233 255
216 233 255
216 233 255
216 233 255
216 233 255
216 233 255
216 233 255
216 233 255
216 233 255
216 233 255
216 233 255
216 233 255
216 233 255
216 233 255
216 233 255
216 233 255
216 233 255
216 233 255
216 233 255
216 233 255
216 233 255
216 233 255
216 233 255
216 233 255
216 233 255
216 233 255
216 233 255
216 233 255
216 233 255
216 233 255
216 233 255
216 233 255
216 233 255
216 233 255
216 233 255
216 233 255
216 233 255
216 233 255
216 233 255
216 233 255
216 233 255
216 233 255
216 233 255
216 233 255
216 233 255
216 233 255
216 233 255
216 233 255
216 233 255
216 233 255
216 233 255
216 233 255
216 233 255
216 233 255
216 233 255
216 233 255
216 233 255
216 233 255
216 233 255
216 233 255
216 233 255
216 233 255
216 233 255
216 233 255
216 233 255
216 233 255
216 233 255
216 233 255
216 233 255
216 233 255
216 233 255
216 233 255
216 233 255
216 233 255
216 233 255
216 233 255
216 233 255
216 233 255
216 233 255
216 233 255
216 233 255
216 233 255
216 233 255
216 233 255
216 233 255
216 233 255
216 233 255
216 233 255
216 233 255
216 233 255
216 233 255
216 233 255
216 233 255
216 233 255
216 233 255
216 233 255
216 233 255
216 233 255
193 208 230
68 73 93
0 0 51
0 0 51
0 0 51
0 0 50
0 0 50
0 0 53
0 0 53
0 0 53
0 0 51
0 0 53
0 0 53
0 0 52
0 0 52
0 0 52
0 0 50
0 0 54
0 0 52
0 0 53
1 13 65
14 43 31
23 46 2
26 46 11
56 58 33
83 85 54
76 84 49
88 89 59
72 79 41
52 66 26
26 47 6
30 47 7
46 56 22
46 56 20
56 64 29
71 77 45
67 77 42
76 82 48
103 102 75
103 103 74
98 100 68
91 95 62
93 94 63
94 95 63
87 92 58
78 86 49
71 81 46
67 79 43
69 80 43
71 81 43
60 74 35
56 72 28
52 72 26
51 72 26
47 68 22
47 70 24
44 66 24
41 65 16
44 66 20
47 68 26
45 66 22
40 61 15
36 58 6
33 58 6
29 56 0
33 58 0
32 52 5
27 53 2
31 51 10
28 54 20
15 43 66
6 23 70
3 16 61
17 39 44
18 40 52
7 21 60
4 23 60
8 32 48
8 25 67
16 34 54
24 48 11
27 50 0
22 46 0
21 46 0
29 54 0
31 55 0
29 53 0
30 54 3
32 54 7
39 62 8
36 62 13
34 59 8
32 56 3
30 53 6
25 51 1
23 51 0
26 55 2
29 53 4
28 51 0
25 48 4
25 56 43
15 56 77
17 38 64
15 25 51
4 6 59
15 36 39
4 12 58
0 0 59
0 0 65
0 0 59
5 12 59
16 31 37
11 23 46
21 36 27
3 7 62
0 0 66
0 11 69
0 11 72
0 2 62
0 7 70
0 17 80
0 12 75
0 1 63
0 0 59
0 0 59
0 0 60
0 0 62
0 0 65
0 0 60
0 0 58
86 93 117
198 213 236
216 233 255
216 233 255
216 233 255
216 233 255
216 233 255
216 233 255
216 233 255
216 233 255
216 233 255
216 233 255
216 233 255
216 233 255
216 233 255
216 233 255
216 233 255
216 233 255
216 233 255
216 233 255
216 233 255
216 233 255
216 233 255
216 233 255
216 233 255
216 233 255
216 233 255
216 233 255
216 233 255
216 233 255
216 233 255
216 233 255
216 233 255
216 233 255
216 233 255
216 233 255
216 233 255
216 233 255
216 233 255
216 233 255
216 233 255
216 233 255
216 233 255
216 233 255
216 233 255
216 233 255
216 233 255
216 233 255
216 233 255
216 233 255
216 233 255
216 233 255
216 233 255
216 233 255
216 233 255
216 233 255
216 233 255
216 233 255
216 233 255
216 233 255
216 233 255
216 233 255
216 233 255
216 233 255
216 233 255
216 233 255
216 233 255
216 233 255
216 233 255
216 233 255
216 233 255
216 233 255
216 233 255
216 233 255
216 233 255
216 233 255
216 233 255
216 233 255
216 233 255
216 233 255
216 233 255
216 233 255
216 233 255
216 233 255
216 233 255
216 233 255
216 233 255
216 233 255
216 233 255
216 233 255
216 233 255
216 233 255
216 233 255
216 233 255
216 233 255
216 233 255
216 233 255
216 233 255
216 233 255
216 233 255
216 233 255
216 233 255
216 233 255
216 233 255
216 233 255
216 233 255
216 233 255
216 233 255
216 233 255
216 233 255
216 233 255
216 233 255
216 233 255
216 233 255
216 233 255
216 233 255
216 233 255
216 233 255
216 233 255
216 233 255
216 233 255
216 233 255
216 233 255
216 233 255
216 233 255
216 233 255
216 233 255
216 233 255
216 233 255
216 233 255
216 233 255
216 233 255
216 233 255
216 233 255
216 233 255
216 233 255
216 233 255
216 233 255
216 233 255
216 233 255
216 233 255
216 233 255
216 233 255
216 233 255
216 233 255
216 233 255
216 233 255
216 233 255
216 233 255
216 233 255
216 233 255
216 233 255
216 233 255
216 233 255
216 233 255
216 233 255
216 233 255
216 233 255
216 233 255
216 233 255
216 233 255
216 233 255
216 233 255
216 233 255
216 233 255
216 233 255
216 233 255
216 233 255
216 233 255
216 233 255
216 233 255
216 233 255
216 233 255
216 233 255
216 233 255
216 233 255
216 233 255
216 233 255
216 233 255
216 233 255
216 233 255
216 233 255
216 233 255
216 233 255
216 233 255
216 233 255
216 233 255
216 233 255
216 233 255
216 233 255
216 233 255
216 233 255
216 233 255
216 233 255
216 233 255
216 233 255
216 233 255
216 233 255
216 233 255
216 233 255
216 233 255
216 233 255
216 233 255
216 233 255
216 233 255
216 233 255
216 233 255
216 233 255
216 233 255
216 233 255
216 233 255
216 233 255
216 233 255
216 233 255
216 233 255
216 233 255
216 233 255
216 233 255
216 233 255
216 233 255
216 233 255
216 233 255
216 233 255
216 233 255
216 233 255
216 233 255
216 233 255
216 233 255
216 233 255
216 233 255
216 233 255
216 233 255
216 233 255
216 233 255
216 233 255
216 233 255
216 233 255
216 233 255
216 233 255
216 233 255
216 233 255
216 233 255
216 233 255
216 233 255
216 233 255
216 233 255
216 233 255
216 233 255
216 233 255
216 233 255
216 233 255
216 233 255
216 233 255
216 233 255
216 233 255
216 233 255
216 233 255
216 233 255
216 233 255
216 233 255
216 233 255
216 233 255
216 233 255
216 233 255
216 233 255
216 233 255
216 233 255
216 233 255
216 233 255
157 169 189
21 23 55
0 0 51
0 0 52
0 0 52
0 0 50
0 0 50
0 0 52
0 0 53
0 0 52
0 0 50
0 0 52
0 0 54
0 0 53
0 0 52
0 0 52
0 0 53
0 0 52
0 0 52
0 0 49
0 4 60
7 36 65
23 49 10
18 42 0
45 51 24
85 81 55
88 87 57
68 76 42
46 57 22
58 64 27
43 54 16
28 43 7
40 48 15
50 57 24
69 74 41
70 75 40
60 66 33
53 61 28
67 70 40
98 101 71
101 101 67
82 87 53
87 91 61
91 91 61
96 97 64
82 87 48
83 91 49
80 89 51
80 85 49
80 84 49
69 77 43
63 75 38
63 79 38
57 75 30
56 75 32
49 71 27
48 71 27
46 70 26
40 65 17
39 64 17
39 62 16
43 63 20
45 65 20
40 65 12
39 65 11
37 63 5
41 67 10
38 61 12
34 61 6
39 62 20
28 72 60
7 29 69
10 24 73
25 44 38
33 56 19
34 58 0
32 51 27
0 9 71
0 0 62
4 18 59
16 31 51
13 27 61
25 49 19
26 48 4
25 49 0
28 51 0
30 54 0
39 65 11
42 66 13
38 61 11
41 64 14
38 62 6
31 57 0
27 53 0
25 50 5
28 52 0
27 53 0
26 51 0
23 48 0
24 52 7
24 51 20
27 52 36
22 58 50
25 55 38
26 48 47
14 31 52
20 44 31
13 34 32
2 11 55
0 0 63
0 0 63
0 0 64
0 0 64
0 6 69
8 20 60
5 14 59
0 0 67
0 0 61
0 7 67
0 10 69
0 7 68
0 17 79
0 14 76
0 11 72
0 0 63
0 0 59
0 0 56
0 0 60
0 0 62
0 0 65
0 2 61
0 0 58
30 33 71
167 180 202
216 233 255
216 233 255
216 233 255
216 233 255
216 233 255
216 233 255
216 233 255
216 233 255
216 233 255
216 233 255
216 233 255
216 233 255
216 233 255
216 233 255
216 233 255
216 233 255
216 233 255
216 233 255
216 233 255
216 233 255
216 233 255
216 233 255
216 233 255
216 233 255
216 233 255
216 233 255
216 233 255
216 233 255
216 233 255
216 233 255
216 233 255
216 233 255
216 233 255
216 233 255
216 233 255
216 233 255
216 233 255
216 233 255
216 233 255
216 233 255
216 233 255
216 233 255
216 233 255
216 233 255
216 233 255
216 233 255
216 233 255
216 233 255
216 233 255
216 233 255
216 233 255
216 233 255
216 233 255
216 233 255
216 233 255
216 233 255
216 233 255
216 233 255
216 233 255
216 233 255
216 233 255
216 233 255
216 233 255
216 233 255
216 233 255
216 233 255
216 233 255
216 233 255
216 233 255
216 233 255
216 233 255
216 233 255
216 233 255
216 233 255
216 233 255
216 233 255
216 233 255
216 233 255
216 233 255
216 233 255
216 233 255
216 233 255
216 233 255
216 233 255
216 233 255
216 233 255
216 233 255
216 233 255
216 233 255
216 233 255
216 233 255
216 233 255
216 233 255
216 233 255
216 233 255
216 233 255
216 233 255
216 233 255
216 233 255
216 233 255
216 233 255
216 233 255
216 233 255
216 233 255
216 233 255
216 233 255
216 233 255
216 233 255
216 233 255
216 233 255
216 233 255
216 233 255
216 233 255
216 233 255
216 233 255
216 233 255
216 233 255
216 233 255
216 233 255
216 233 255
216 233 255
216 233 255
216 233 255
216 233 255
216 233 255
216 233 255
216 233 255
216 233 255
216 233 255
216 233 255
216 233 255
216 233 255
216 233 255
217 233 255
217 233 255
217 233 255
217 233 255
217 233 255
217 233 255
217 233 255
217 233 255
217 233 255
217 233 255
217 233 255
217 233 255
217 233 255
217 233 255
217 233 255
217 233 255
217 233 255
217 233 255
217 233 255
217 233 255
217 233 255
217 233 255
217 233 255
217 233 255
216 233 255
216 233 255
216 233 255
216 233 255
216 233 255
216 233 255
216 233 255
216 233 255
216 233 255
216 233 255
216 233 255
216 233 255
216 233 255
216 233 255
216 233 255
216 233 255
216 233 255
216 233 255
216 233 255
216 233 255
216 233 255
216 233 255
216 233 255
216 233 255
216 233 255
216 233 255
216 233 255
216 233 255
216 233 255
216 233 255
216 233 255
216 233 255
216 233 255
216 233 255
216 233 255
216 233 255
216 233 255
216 233 255
216 233 255
216 233 255
216 233 255
216 233 255
216 233 255
216 233 255
216 233 255
216 233 255
216 233 255
216 233 255
216 233 255
216 233 255
216 233 255
216 233 255
216 233 255
216 233 255
216 233 255
216 233 255
216 233 255
216 233 255
216 233 255
216 233 255
216 233 255
216 233 255
216 233 255
216 233 255
216 233 255
216 233 255
216 233 255
216 233 255
216 233 255
216 233 255
216 233 255
216 233 255
216 233 255
216 233 255
216 233 255
216 233 255
216 233 255
216 233 255
216 233 255
216 233 255
216 233 255
216 233 255
216 233 255
216 233 255
216 233 255
216 233 255
216 233 255
216 233 255
216 233 255
216 233 255
216 233 255
216 233 255
216 233 255
216 233 255
216 233 255
216 233 255
216 233 255
216 233 255
216 233 255
216 233 255
216 233 255
216 233 255
216 233 255
216 233 255
216 233 255
216 233 255
216 233 255
215 232 254
147 158 177
0 0 52
0 0 50
0 0 50
0 0 50
0 0 48
0 0 48
0 0 49
0 0 53
0 0 52
0 0 51
0 0 52
0 0 54
0 0 54
0 0 54
0 0 51
0 0 52
0 0 53
0 0 51
0 0 51
0 0 47
6 15 55
28 48 25
32 51 10
51 56 31
86 83 59
85 82 57
59 63 30
54 60 29
54 62 27
50 59 23
45 53 20
54 57 27
68 68 39
73 75 45
76 80 49
58 65 31
47 54 23
50 52 27
71 72 45
130 127 94
144 141 108
72 72 41
104 105 71
106 105 71
93 94 60
69 75 36
48 56 21
75 82 46
79 85 48
74 83 46
69 79 41
65 78 38
63 79 38
60 76 35
58 75 33
52 72 32
46 68 27
43 68 24
38 63 16
38 62 16
37 60 16
40 62 16
42 65 17
41 65 16
39 62 12
38 61 11
38 61 5
38 61 12
42 62 18
44 65 15
29 58 51
0 17 80
20 43 58
36 54 0
38 60 9
39 56 0
25 68 60
22 40 73
14 17 66
24 40 54
42 66 21
40 61 25
40 61 18
39 61 22
37 59 25
35 55 28
35 57 25
31 51 34
37 59 8
27 49 0
25 48 3
27 51 7
28 53 0
26 51 0
28 51 6
27 55 7
30 55 0
26 54 10
23 50 18
20 42 43
10 40 83
7 33 78
21 51 57
24 53 31
26 51 17
28 46 19
12 28 36
4 12 55
0 0 58
0 0 58
0 0 60
0 0 65
0 0 67
0 0 65
0 1 62
0 0 56
0 0 54
0 0 57
0 0 60
0 0 63
0 0 67
0 11 72
0 13 78
0 13 77
0 6 68
0 0 58
0 0 54
0 0 53
0 0 55
0 0 59
0 2 62
0 0 60
0 0 57
0 3 66
130 140 163
216 233 255
216 233 255
216 233 255
216 233 255
216 233 255
216 233 255
216 233 255
216 233 255
216 233 255
216 233 255
216 233 255
216 233 255
216 233 255
216 233 255
216 233 255
216 233 255
216 233 255
216 233 255
216 233 255
216 233 255
216 233 255
216 233 255
216 233 255
216 233 255
216 233 255
216 233 255
216 233 255
216 233 255
216 233 255
216 233 255
216 233 255
216 233 255
216 233 255
216 233 255
216 233 255
216 233 255
216 233 255
216 233 255
216 233 255
216 233 255
216 233 255
216 233 255
216 233 255
216 233 255
216 233 255
216 233 255
216 233 255
216 233 255
216 233 255
216 233 255
216 233 255
216 233 255
216 233 255
216 233 255
216 233 255
216 233 255
216 233 255
216 233 255
216 233 255
216 233 255
216 233 255
216 233 255
216 233 255
216 233 255
216 233 255
216 233 255
216 233 255
216 233 255
216 233 255
216 233 255
216 233 255
216 233 255
216 233 255
216 233 255
216 233 255
216 233 255
216 233 255
216 233 255
216 233 255
216 233 255
216 233 255
216 233 255
216 233 255
216 233 255
216 233 255
216 233 255
216 233 255
216 233 255
216 233 255
216 233 255
216 233 255
216 233 255
216 233 255
216 233 255
216 233 255
216 233 255
216 233 255
216 233 255
216 233 255
216 233 255
216 233 255
216 233 255
216 233 255
216 233 255
216 233 255
216 233 255
216 233 255
216 233 255
217 233 255
217 233 255
217 233 255
217 233 255
217 233 255
217 233 255
217 233 255
217 233 255
217 233 255
217 233 255
217 233 255
217 233 255
217 233 255
217 233 255
217 233 255
217 233 255
217 233 255
217 233 255
217 233 255
217 233 255
217 233 255
217 233 255
217 233 255
217 233 255
217 233 255
217 233 255
217 233 255
217 233 255
217 233 255
217 233 255
217 233 255
217 233 255
217 233 255
217 233 255
217 233 255
217 233 255
217 233 255
217 233 255
217 233 255
217 233 255
217 233 255
217 233 255
217 233 255
217 233 255
217 233 255
217 233 255
217 233 255
217 233 255
217 233 255
217 233 255
217 233 255
217 233 255
217 233 255
217 233 255
217 233 255
217 233 255
217 233 255
217 233 255
217 233 255
217 233 255
217 233 255
217 233 255
217 233 255
217 233 255
217 233 255
217 233 255
217 233 255
217 233 255
217 233 255
217 233 255
217 233 255
217 233 255
217 233 255
217 233 255
217 233 255
217 233 255
217 233 255
217 233 255
217 233 255
217 233 255
217 233 255
217 233 255
216 233 255
216 233 255
216 233 255
216 233 255
216 233 255
216 233 255
216 233 255
216 233 255
216 233 255
216 233 255
216 233 255
216 233 255
216 233 255
216 233 255
216 233 255
216 233 255
216 233 255
216 233 255
216 233 255
216 233 255
216 233 255
216 233 255
216 233 255
216 233 255
216 233 255
216 233 255
216 233 255
216 233 255
216 233 255
216 233 255
216 233 255
216 233 255
216 233 255
216 233 255
216 233 255
216 233 255
216 233 255
216 233 255
216 233 255
216 233 255
216 233 255
216 233 255
216 233 255
216 233 255
216 233 255
216 233 255
216 233 255
216 233 255
216 233 255
216 233 255
216 233 255
216 233 255
216 233 255
216 233 255
216 233 255
216 233 255
216 233 255
216 233 255
216 233 255
216 233 255
216 233 255
216 233 255
216 233 255
216 233 255
216 233 255
216 233 255
216 233 255
216 233 255
216 233 255
216 233 255
216 233 255
216 233 255
209 225 247
106 114 133
0 0 52
0 0 50
0 0 51
0 0 49
0 0 48
0 0 48
0 0 51
0 0 53
0 0 53
0 0 53
0 0 53
0 0 53
0 0 54
0 0 54
0 0 51
0 0 49
0 0 52
0 0 50
0 0 49
0 0 48
2 10 55
23 44 19
30 52 13
38 46 19
78 76 51
72 70 45
61 63 35
60 62 35
87 85 59
82 85 53
57 65 31
57 64 32
67 68 41
86 84 59
95 92 62
81 87 52
62 70 36
51 59 29
58 61 35
94 91 66
128 122 89
124 121 87
97 98 63
112 110 74
106 104 69
100 101 64
92 96 57
67 75 37
84 93 53
82 91 50
75 87 44
67 81 37
63 79 35
57 77 34
51 73 29
53 71 31
48 68 29
45 68 26
38 64 17
38 62 16
40 62 16
35 59 16
38 63 16
39 64 16
44 67 21
41 63 15
37 60 5
37 61 7
39 58 7
43 66 19
45 66 19
24 44 70
0 25 89
21 48 62
41 60 7
40 66 10
46 67 22
52 70 39
50 69 29
32 47 53
35 51 54
51 70 20
51 71 26
47 71 32
26 40 70
18 36 62
19 35 60
14 28 63
17 41 56
28 55 7
27 50 0
26 49 0
28 53 4
28 52 0
25 53 0
26 51 0
29 55 3
22 47 31
12 31 55
0 21 77
1 15 77
0 5 63
8 22 65
26 47 12
13 36 35
0 11 61
0 4 62
0 0 63
0 0 58
0 0 59
0 0 57
0 0 57
0 0 59
0 0 63
0 0 69
0 0 58
0 0 54
0 0 57
0 0 53
0 0 55
0 0 63
0 0 69
0 0 64
0 8 68
0 10 72
0 9 67
0 0 54
0 0 52
0 0 49
0 0 53
0 0 52
0 0 60
0 0 60
0 0 57
0 0 57
0 17 78
96 105 134
206 222 245
216 233 255
216 233 255
216 233 255
216 233 255
216 233 255
216 233 255
216 233 255
216 233 255
216 233 255
216 233 255
216 233 255
216 233 255
216 233 255
216 233 255
216 233 255
216 233 255
216 233 255
216 233 255
216 233 255
216 233 255
216 233 255
216 233 255
216 233 255
216 233 255
216 233 255
216 233 255
216 233 255
216 233 255
216 233 255
216 233 255
216 233 255
216 233 255
216 233 255
216 233 255
216 233 255
216 233 255
216 233 255
216 233 255
216 233 255
216 233 255
216 233 255
216 233 255
216 233 255
216 233 255
216 233 255
216 233 255
216 233 255
216 233 255
216 233 255
216 233 255
216 233 255
216 233 255
216 233 255
216 233 255
216 233 255
216 233 255
216 233 255
216 233 255
216 233 255
216 233 255
216 233 255
216 233 255
216 233 255
216 233 255
216 233 255
216 233 255
216 233 255
216 233 255
216 233 255
216 233 255
216 233 255
216 233 255
216 233 255
217 233 255
216 233 255
217 233 255
217 233 255
217 233 255
217 233 255
217 233 255
217 233 255
217 233 255
217 233 255
217 233 255
217 233 255
217 233 255
217 233 255
217 233 255
217 233 255
217 233 255
217 233 255
217 233 255
217 233 255
217 233 255
217 233 255
217 233 255
217 233 255
217 233 255
217 233 255
217 233 255
217 233 255
217 233 255
217 233 255
217 233 255
217 233 255
217 233 255
217 233 255
217 233 255
217 233 255
217 233 255
217 233 255
217 233 255
217 233 255
217 233 255
217 233 255
217 233 255
217 233 255
217 233 255
217 233 255
217 233 255
217 233 255
217 233 255
217 233 255
217 233 255
217 233 255
217 233 255
217 233 255
217 233 255
217 233 255
217 233 255
217 233 255
217 233 255
217 233 255
217 233 255
217 233 255
217 233 255
217 233 255
217 233 255
217 233 255
217 233 255
217 233 255
217 233 255
217 233 255
217 233 255
217 233 255
217 233 255
217 233 255
217 233 255
217 233 255
217 233 255
217 233 255
217 233 255
217 233 255
217 233 255
217 233 255
217 233 255
217 233 255
217 233 255
217 233 255
217 233 255
217 233 255
217 233 255
217 233 255
217 233 255
217 233 255
217 233 255
217 233 255
217 233 255
217 233 255
217 233 255
217 233 255
217 233 255
217 233 255
217 233 255
217 233 255
217 233 255
217 233 255
217 233 255
217 233 255
217 233 255
217 233 255
217 233 255
217 233 255
217 233 255
217 233 255
217 233 255
217 233 255
217 233 255
217 233 255
217 233 255
217 233 255
217 233 255
217 233 255
217 233 255
217 233 255
217 233 255
217 233 255
217 233 255
217 233 255
217 233 255
217 233 255
217 233 255
217 233 255
217 233 255
217 233 255
217 233 255
217 233 255
217 233 255
217 233 255
217 233 255
217 233 255
217 233 255
217 233 255
217 233 255
217 233 255
217 233 255
217 233 255
217 233 255
217 233 255
217 233 255
217 233 255
217 233 255
217 233 255
217 233 255
217 233 255
217 233 255
217 233 255
217 233 255
216 233 255
216 233 255
216 233 255
216 233 255
216 233 255
216 233 255
216 233 255
216 233 255
216 233 255
216 233 255
216 233 255
216 233 255
216 233 255
216 233 255
216 233 255
216 233 255
216 233 255
216 233 255
216 233 255
216 233 255
216 233 255
216 233 255
216 233 255
216 233 255
216 233 255
216 233 255
216 233 255
216 233 255
216 233 255
216 233 255
216 233 255
195 210 231
71 77 98
0 0 51
0 0 50
0 0 50
0 0 48
0 0 48
0 0 50
0 0 51
0 0 53
0 0 53
0 0 53
0 0 55
0 0 53
0 0 53
0 0 52
0 0 51
0 0 48
0 0 50
0 0 51
0 0 52
0 0 49
0 6 56
10 34 45
24 47 7
24 36 10
66 65 42
94 90 68
85 81 59
82 80 58
90 88 62
92 88 60
100 98 70
85 84 56
84 84 54
84 85 58
90 88 58
87 87 56
69 79 43
51 61 27
71 74 44
80 80 54
104 103 77
128 125 95
132 126 95
117 113 79
96 95 60
99 101 69
95 98 64
88 91 54
78 85 47
73 81 43
78 87 51
80 90 55
76 87 50
69 81 45
61 77 37
57 76 33
52 73 32
47 67 24
44 66 21
41 66 16
39 65 16
38 63 16
36 60 16
38 62 16
38 64 16
38 64 15
39 64 14
42 66 15
42 67 15
43 66 18
44 65 13
43 65 17
24 37 61
0 26 91
6 30 78
41 65 10
39 62 7
45 64 16
41 65 13
49 67 24
38 63 44
47 67 33
35 56 61
35 57 65
27 45 71
24 46 63
37 65 13
40 67 9
39 63 12
37 62 13
33 58 2
34 60 0
34 60 0
34 59 0
30 57 0
24 52 0
29 53 0
30 55 12
8 20 64
0 0 59
0 0 59
0 0 61
0 0 64
0 6 68
7 20 63
4 12 62
0 0 59
0 0 58
0 0 61
0 0 58
0 0 57
0 0 57
0 0 58
0 0 60
0 0 59
0 0 64
0 0 66
0 0 61
0 0 62
0 0 61
0 0 57
0 0 56
0 0 61
0 0 68
0 2 65
0 9 72
0 3 69
0 0 62
0 0 58
0 0 50
0 0 52
0 0 55
0 0 55
0 0 61
0 0 62
0 0 60
0 3 62
0 18 78
81 89 122
194 208 231
216 233 255
216 233 255
216 233 255
216 233 255
216 233 255
216 233 255
216 233 255
216 233 255
216 233 255
216 233 255
216 233 255
216 233 255
216 233 255
216 233 255
216 233 255
216 233 255
216 233 255
216 233 255
216 233 255
216 233 255
216 233 255
216 233 255
216 233 255
216 233 255
216 233 255
216 233 255
216 233 255
216 233 255
216 233 255
217 233 255
217 233 255
216 233 255
217 233 255
217 233 255
217 233 255
217 233 255
217 233 255
217 233 255
217 233 255
217 233 255
217 233 255
217 233 255
217 233 255
217 233 255
217 233 255
217 233 255
217 233 255
217 233 255
217 233 255
217 233 255
217 233 255
217 233 255
217 233 255
217 233 255
217 233 255
217 233 255
217 233 255
217 233 255
217 233 255
217 233 255
217 233 255
217 233 255
217 233 255
217 233 255
217 233 255
217 233 255
217 233 255
217 233 255
217 233 255
217 233 255
217 233 255
217 233 255
217 233 255
217 233 255
217 233 255
217 233 255
217 233 255
217 233 255
217 233 255
217 233 255
217 233 255
217 233 255
217 233 255
217 233 255
217 233 255
217 233 255
217 233 255
217 233 255
217 233 255
217 233 255
217 233 255
217 233 255
217 233 255
217 233 255
217 233 255
217 233 255
217 233 255
217 233 255
217 233 255
217 233 255
217 233 255
217 233 255
217 233 255
217 233 255
217 233 255
217 233 255
217 233 255
217 233 255
217 233 255
217 233 255
217 233 255
217 233 255
217 233 255
217 233 255
217 233 255
217 233 255
217 233 255
217 233 255
217 233 255
217 233 255
217 233 255
217 233 255
217 233 255
217 233 255
217 233 255
217 233 255
217 233 255
217 233 255
217 233 255
217 233 255
217 233 255
217 233 255
217 233 255
217 233 255
217 233 255
217 233 255
217 233 255
217 233 255
217 233 255
217 233 255
217 233 255
217 233 255
217 233 255
217 233 255
217 233 255
217 233 255
217 233 255
217 233 255
217 233 255
217 233 255
217 233 255
217 233 255
217 233 255
217 233 255
217 233 255
217 233 255
217 233 255
217 233 255
217 233 255
217 233 255
217 233 255
217 233 255
217 233 255
217 233 255
217 233 255
217 233 255
217 233 255
217 233 255
217 233 255
217 233 255
217 233 255
217 233 255
217 233 255
217 233 255
217 233 255
217 233 255
217 233 255
217 233 255
217 233 255
217 233 255
217 233 255
217 233 255
217 233 255
217 233 255
217 233 255
217 233 255
217 233 255
217 233 255
217 233 255
217 233 255
217 233 255
217 233 255
217 233 255
217 233 255
217 233 255
217 233 255
217 233 255
217 233 255
217 233 255
217 233 255
217 233 255
217 233 255
217 233 255
217 233 255
217 233 255
217 233 255
217 233 255
217 233 255
217 233 255
217 233 255
217 233 255
217 233 255
217 233 255
217 233 255
217 233 255
217 233 255
217 233 255
217 233 255
217 233 255
217 233 255
217 233 255
217 233 255
217 233 255
217 233 255
217 233 255
217 233 255
217 233 255
217 233 255
217 233 255
217 233 255
217 233 255
217 233 255
217 233 255
217 233 255
217 233 255
217 233 255
217 233 255
217 233 255
217 233 255
217 233 255
217 233 255
217 233 255
217 233 255
217 233 255
217 233 255
217 233 255
217 233 255
217 233 255
217 233 255
217 233 255
217 233 255
217 233 255
217 233 255
217 233 255
217 233 255
217 233 255
217 233 255
189 203 224
61 66 87
0 0 50
0 0 48
0 0 49
0 0 48
0 0 48
0 0 50
0 0 52
0 0 52
0 0 53
0 0 51
0 0 51
0 0 53
0 0 53
0 0 53
0 0 52
0 0 52
0 0 52
0 0 52
0 0 52
0 0 52
0 4 56
11 31 43
21 44 0
22 34 4
50 54 30
81 78 55
98 92 70
97 90 66
93 87 64
99 94 69
92 85 58
108 100 75
104 100 73
89 90 55
92 95 58
90 92 61
78 84 54
67 75 46
74 75 49
128 122 96
122 117 94
127 123 92
137 132 96
122 122 85
110 109 73
99 99 62
84 86 52
94 100 63
89 96 58
84 91 56
86 92 60
89 95 65
85 91 59
81 86 55
80 87 56
72 82 47
64 77 39
49 69 28
46 67 24
42 65 19
42 64 16
43 64 21
43 64 20
43 64 19
42 65 17
42 65 16
42 65 16
42 64 16
41 64 14
40 63 0
38 60 10
36 62 11
47 66 10
47 63 43
14 30 75
29 53 42
41 66 13
40 63 14
43 64 13
46 65 22
40 71 54
18 54 85
18 42 94
11 43 89
16 48 78
24 53 44
29 53 16
27 51 5
28 54 1
30 58 0
33 59 0
33 61 0
32 59 0
29 54 0
30 54 2
29 56 0
30 55 8
30 51 2
33 54 13
16 33 58
0 5 60
0 0 60
0 0 63
0 3 62
0 3 65
0 0 62
0 0 58
0 0 57
0 0 62
0 0 55
0 0 60
0 0 58
0 0 58
0 0 58
0 0 58
0 0 57
0 0 58
0 0 64
0 0 64
0 0 63
0 0 63
0 0 61
0 0 57
0 0 56
0 0 61
0 0 65
0 4 69
0 10 72
0 0 62
0 0 58
0 0 54
0 0 52
0 0 54
0 0 61
0 0 61
0 0 61
0 0 63
0 0 64
0 3 63
0 13 75
57 63 102
187 202 224
217 233 255
217 233 255
217 233 255
217 233 255
217 233 255
217 233 255
217 233 255
217 233 255
217 233 255
217 233 255
217 233 255
217 233 255
217 233 255
217 233 255
217 233 255
217 233 255
217 233 255
217 233 255
217 233 255
217 233 255
217 233 255
217 233 255
217 233 255
217 233 255
217 233 255
217 233 255
217 233 255
217 233 255
217 233 255
217 233 255
217 233 255
217 233 255
217 233 255
217 233 255
217 233 255
217 233 255
217 233 255
217 233 255
217 233 255
217 233 255
217 233 255
217 233 255
217 233 255
217 233 255
217 233 255
217 233 255
217 233 255
217 233 255
217 233 255
217 233 255
217 233 255
217 233 255
217 233 255
217 233 255
217 233 255
217 233 255
217 233 255
217 233 255
217 233 255
217 233 255
217 233 255
217 233 255
217 233 255
217 233 255
217 233 255
217 233 255
217 233 255
217 233 255
217 233 255
217 233 255
217 233 255
217 233 255
217 233 255
217 233 255
217 233 255
217 233 255
217 233 255
217 233 255
217 233 255
217 233 255
217 233 255
217 233 255
217 233 255
217 233 255
217 233 255
217 233 255
217 233 255
217 233 255
217 233 255
217 233 255
217 233 255
217 233 255
217 233 255
217 233 255
217 233 255
217 233 255
217 233 255
217 233 255
217 233 255
217 233 255
217 233 255
217 233 255
217 233 255
217 233 255
217 233 255
217 233 255
217 233 255
217 233 255
217 233 255
217 233 255
217 233 255
217 233 255
217 233 255
217 233 255
217 233 255
217 233 255
217 233 255
217 233 255
217 233 255
217 233 255
217 233 255
217 233 255
217 233 255
217 233 255
217 233 255
217 233 255
217 233 255
217 233 255
217 233 255
217 233 255
217 233 255
217 233 255
217 233 255
217 233 255
217 233 255
217 233 255
217 233 255
217 233 255
217 233 255
217 233 255
217 233 255
217 233 255
217 233 255
217 233 255
217 233 255
217 233 255
217 233 255
217 233 255
217 233 255
217 233 255
217 233 255
217 233 255
217 233 255
217 233 255
217 233 255
217 233 255
217 233 255
217 233 255
217 233 255
217 233 255
217 233 255
217 233 255
217 233 255
217 233 255
217 233 255
217 233 255
217 233 255
217 233 255
217 233 255
217 233 255
217 233 255
217 233 255
217 233 255
217 233 255
217 233 255
217 233 255
217 233 255
217 233 255
217 233 255
217 233 255
217 233 255
217 233 255
217 233 255
217 233 255
217 233 255
217 233 255
217 233 255
217 233 255
217 233 255
217 233 255
217 233 255
217 233 255
217 233 255
217 233 255
217 233 255
217 233 255
217 233 255
217 233 255
217 233 255
217 233 255
217 233 255
217 233 255
217 233 255
217 233 255
217 233 255
217 233 255
217 233 255
217 233 255
217 233 255
217 233 255
217 233 255
217 233 255
217 233 255
217 233 255
217 233 255
217 233 255
217 233 255
217 233 255
217 233 255
217 233 255
217 233 255
217 233 255
217 233 255
217 233 255
217 233 255
217 233 255
217 233 255
217 233 255
217 233 255
217 233 255
217 233 255
217 233 255
217 233 255
217 233 255
217 233 255
217 233 255
217 233 255
217 233 255
217 233 255
217 233 255
217 233 255
217 233 255
217 233 255
217 233 255
217 233 255
217 233 255
217 233 255
217 233 255
217 233 255
217 233 255
217 233 255
217 233 255
217 233 255
217 233 255
217 233 255
159 171 191
48 52 76
0 0 48
0 0 48
0 0 49
0 0 48
0 0 48
0 0 49
0 0 52
0 0 53
0 0 53
0 0 52
0 0 51
0 0 51
0 0 51
0 0 52
0 0 51
0 0 52
0 0 53
0 0 53
0 0 52
0 0 51
0 0 58
7 18 55
17 37 1
36 50 17
47 53 27
68 66 42
70 68 44
99 92 67
104 96 70
107 99 73
103 96 71
96 91 64
89 85 59
101 91 64
98 96 69
110 110 82
108 103 72
75 82 50
82 85 56
126 119 90
143 140 107
131 128 94
138 138 100
124 120 86
103 102 75
78 78 47
96 99 66
91 95 67
92 99 67
89 97 66
87 93 64
86 93 66
82 90 61
79 88 55
67 77 42
62 75 38
59 76 38
56 74 32
46 65 26
46 65 26
49 68 28
50 67 25
43 63 19
46 69 22
45 68 21
44 67 20
42 64 16
44 66 16
42 66 16
39 62 12
38 61 0
37 60 11
32 59 0
37 59 0
41 64 3
38 64 12
41 62 3
39 62 6
39 65 14
45 69 16
50 70 23
46 67 25
37 60 47
37 63 42
38 68 22
38 63 10
36 59 7
30 54 0
28 52 8
28 52 0
28 53 0
35 57 0
32 57 0
31 57 2
32 52 3
33 53 7
32 54 11
29 59 32
28 53 30
25 48 37
17 43 40
5 30 70
0 13 68
0 4 71
0 15 79
0 13 77
0 0 68
0 0 63
0 0 58
0 0 56
0 0 58
0 0 63
0 0 64
0 0 59
0 0 59
0 0 61
0 0 56
0 0 52
0 0 53
0 0 61
0 0 64
0 0 61
0 0 60
0 0 60
0 0 56
0 0 60
0 0 63
0 0 66
0 2 68
0 0 59
0 0 50
0 0 49
0 0 50
0 0 52
0 0 54
0 0 57
0 0 60
0 0 57
0 0 59
0 0 63
0 1 60
0 6 68
30 35 82
187 202 224
217 233 255
217 233 255
217 233 255
217 233 255
217 233 255
217 233 255
217 233 255
217 233 255
217 233 255
217 233 255
217 233 255
217 233 255
217 233 255
217 233 255
217 233 255
217 233 255
217 233 255
217 233 255
217 233 255
217 233 255
217 233 255
217 233 255
217 233 255
217 233 255
217 233 255
217 233 255
217 233 255
217 233 255
217 233 255
217 233 255
217 233 255
217 233 255
217 233 255
217 233 255
217 233 255
217 233 255
217 233 255
217 233 255
217 233 255
217 233 255
217 233 255
217 233 255
217 233 255
217 233 255
217 233 255
217 233 255
217 233 255
217 233 255
217 233 255
217 233 255
217 233 255
217 233 255
217 233 255
217 233 255
217 233 255
217 233 255
217 233 255
217 233 255
217 233 255
217 233 255
217 233 255
217 233 255
217 233 255
217 233 255
217 233 255
217 233 255
217 233 255
217 233 255
217 233 255
217 233 255
217 233 255
217 233 255
217 233 255
217 233 255
217 233 255
217 233 255
217 233 255
217 233 255
217 233 255
217 233 255
217 233 255
217 233 255
217 233 255
217 233 255
217 233 255
217 233 255
217 233 255
217 233 255
217 233 255
217 233 255
217 233 255
217 233 255
217 233 255
217 233 255
217 233 255
217 233 255
217 233 255
217 233 255
217 233 255
217 233 255
217 233 255
217 233 255
217 233 255
217 233 255
217 233 255
217 233 255
217 233 255
217 233 255
217 233 255
217 233 255
217 233 255
217 233 255
217 233 255
217 233 255
217 233 255
217 233 255
217 233 255
217 233 255
217 233 255
217 233 255
217 233 255
217 233 255
217 233 255
217 233 255
217 233 255
217 233 255
217 233 255
217 233 255
217 233 255
217 233 255
217 233 255
217 233 255
217 233 255
217 233 255
217 233 255
217 233 255
217 233 255
217 233 255
217 233 255
217 233 255
217 233 255
217 233 255
217 233 255
217 233 255
217 233 255
217 233 255
217 233 255
217 233 255
217 233 255
217 233 255
217 233 255
217 233 255
217 233 255
217 233 255
217 233 255
217 233 255
217 233 255
217 233 255
217 233 255
217 233 255
217 233 255
217 233 255
217 233 255
217 233 255
217 233 255
217 233 255
217 233 255
217 233 255
217 233 255
217 233 255
217 233 255
217 233 255
217 233 255
217 233 255
217 233 255
217 233 255
217 233 255
217 233 255
217 233 255
217 233 255
217 233 255
217 233 255
217 233 255
217 233 255
217 233 255
217 233 255
217 233 255
217 233 255
217 233 255
217 233 255
217 233 255
217 233 255
217 233 255
217 233 255
217 233 255
217 233 255
217 233 255
217 233 255
217 233 255
217 233 255
217 233 255
217 233 255
217 233 255
217 233 255
217 233 255
217 233 255
217 233 255
217 233 255
217 233 255
217 233 255
217 233 255
217 233 255
217 233 255
217 233 255
217 233 255
217 233 255
217 233 255
217 233 255
217 233 255
217 233 255
217 233 255
217 233 255
217 233 255
217 233 255
217 233 255
217 233 255
217 233 255
217 233 255
217 233 255
217 233 255
217 233 255
217 233 255
217 233 255
217 233 255
217 233 255
217 233 255
217 233 255
217 233 255
217 233 255
217 233 255
217 233 255
217 233 255
217 233 255
217 233 255
217 233 255
217 233 255
217 233 255
217 233 255
217 233 255
217 233 255
217 233 255
217 233 255
217 233 255
163 176 196
0 0 51
0 0 49
0 0 50
0 0 49
0 0 48
0 0 48
0 0 51
0 0 52
0 0 53
0 0 53
0 0 53
0 0 50
0 0 51
0 0 50
0 0 51
0 0 49
0 0 49
0 0 50
0 0 52
0 0 50
0 0 50
0 0 54
0 3 62
12 32 40
34 42 11
56 58 32
66 65 42
79 74 51
103 95 74
117 114 90
123 116 92
113 104 76
103 95 67
97 93 65
97 98 73
111 108 80
159 164 161
147 154 145
62 77 42
67 75 41
69 73 42
74 74 45
98 95 68
112 106 79
121 117 87
82 88 50
46 56 17
63 69 38
59 64 35
87 93 64
89 95 65
84 91 63
85 92 64
82 89 58
76 86 52
77 89 50
66 80 40
57 72 30
47 66 22
51 71 28
46 64 23
50 69 30
50 70 28
45 66 21
41 65 17
46 69 22
43 67 17
43 68 16
42 66 16
44 66 16
42 65 16
40 63 8
40 63 0
39 65 11
36 61 7
38 64 5
37 63 15
36 64 14
36 64 9
36 62 0
36 64 3
43 64 12
47 64 16
42 63 17
41 65 10
38 65 4
41 64 11
38 61 7
36 58 5
37 59 0
33 56 0
30 54 0
31 55 0
37 56 0
36 57 5
32 56 6
32 60 10
32 55 9
39 77 57
16 63 77
3 46 77
2 21 72
0 8 78
0 15 78
0 15 76
0 8 74
0 13 76
0 10 72
0 0 68
0 0 65
0 0 64
0 0 66
0 0 64
0 0 65
0 0 64
0 0 60
0 0 55
0 0 55
0 0 55
0 0 53
0 0 51
0 0 55
0 0 57
0 0 60
0 0 56
0 0 58
0 0 57
0 0 59
0 0 62
0 0 62
0 0 65
0 0 59
0 0 51
0 0 46
0 0 46
0 0 51
0 0 53
0 0 53
0 0 57
0 0 58
0 0 58
0 0 61
0 0 62
0 0 61
0 1 66
0 5 66
158 169 191
217 233 255
217 233 255
217 233 255
217 233 255
217 233 255
217 233 255
217 233 255
217 233 255
217 233 255
217 233 255
217 233 255
217 233 255
217 233 255
217 233 255
217 233 255
217 233 255
217 233 255
217 233 255
217 233 255
217 233 255
217 233 255
217 233 255
217 233 255
217 233 255
217 233 255
217 233 255
217 233 255
217 233 255
217 233 255
217 233 255
217 233 255
217 233 255
217 233 255
217 233 255
217 233 255
217 233 255
217 233 255
217 233 255
217 233 255
217 233 255
217 233 255
217 233 255
217 233 255
217 233 255
217 233 255
217 233 255
217 233 255
217 233 255
217 233 255
217 233 255
217 233 255
217 233 255
217 233 255
217 233 255
217 233 255
217 233 255
217 233 255
217 233 255
217 233 255
217 233 255
217 233 255
217 233 255
217 233 255
217 233 255
217 233 255
217 233 255
217 233 255
217 233 255
217 233 255
217 233 255
217 233 255
217 233 255
217 233 255
217 233 255
217 233 255
217 233 255
217 233 255
217 233 255
217 233 255
217 233 255
217 233 255
217 233 255
217 233 255
217 233 255
217 233 255
217 233 255
217 233 255
217 233 255
217 233 255
217 233 255
217 233 255
217 233 255
217 233 255
217 233 255
217 233 255
217 233 255
217 233 255
217 233 255
217 233 255
217 233 255
217 233 255
217 233 255
217 233 255
217 233 255
217 233 255
217 233 255
217 233 255
217 233 255
217 233 255
217 233 255
217 233 255
217 233 255
217 233 255
217 233 255
217 233 255
217 233 255
217 233 255
217 233 255
217 233 255
217 233 255
217 233 255
217 233 255
217 233 255
217 233 255
217 233 255
217 233 255
217 233 255
217 233 255
217 233 255
217 233 255
217 233 255
217 233 255
217 233 255
217 233 255
217 233 255
217 233 255
217 233 255
217 233 255
217 233 255
217 233 255
217 233 255
217 233 255
217 233 255
217 233 255
217 233 255
217 233 255
217 233 255
217 233 255
217 233 255
217 233 255
217 233 255
217 233 255
217 233 255
217 233 255
217 233 255
217 233 255
217 233 255
217 233 255
217 233 255
217 233 255
217 233 255
217 233 255
217 233 255
217 233 255
217 233 255
217 233 255
217 233 255
217 233 255
217 233 255
217 233 255
217 233 255
217 233 255
217 233 255
217 233 255
217 233 255
217 233 255
217 233 255
217 233 255
217 233 255
217 233 255
217 233 255
217 233 255
217 233 255
217 233 255
217 233 255
217 233 255
217 233 255
217 233 255
217 233 255
217 233 255
217 233 255
217 233 255
217 233 255
217 233 255
217 233 255
217 233 255
217 233 255
217 233 255
217 233 255
217 233 255
217 233 255
217 233 255
217 233 255
217 233 255
217 233 255
217 233 255
217 233 255
217 233 255
217 233 255
217 233 255
217 233 255
217 233 255
217 233 255
217 233 255
217 233 255
217 233 255
217 233 255
217 233 255
217 233 255
217 233 255
217 233 255
217 233 255
217 233 255
217 233 255
217 233 255
217 233 255
217 233 255
217 233 255
217 233 255
217 233 255
217 233 255
217 233 255
217 233 255
217 233 255
217 233 255
217 233 255
217 233 255
217 233 255
217 233 255
217 233 255
217 233 255
217 233 255
217 233 255
217 233 255
217 233 255
217 233 255
217 233 255
217 233 255
217 233 255
217 233 255
217 233 255
162 174 194
0 0 51
0 0 51
0 0 52
0 0 49
0 0 48
0 0 49
0 0 53
0 0 53
0 0 52
0 0 53
0 0 55
0 0 54
0 0 50
0 0 49
0 0 49
0 0 50
0 0 48
0 0 45
0 0 47
0 0 50
0 0 52
0 0 54
0 0 64
6 23 63
22 38 8
38 48 13
37 45 15
64 64 41
89 84 62
124 117 95
134 130 104
115 107 79
117 108 80
108 102 74
105 100 72
118 109 78
138 137 106
188 199 196
125 118 92
94 96 66
61 69 34
86 88 59
118 109 87
130 124 96
96 99 67
72 78 49
51 62 29
51 59 22
46 52 18
61 69 34
85 93 60
88 95 65
84 91 59
86 92 60
86 93 61
85 92 56
80 90 52
77 88 47
75 87 43
72 85 42
68 81 42
64 76 37
60 74 37
52 70 27
45 68 23
43 65 17
44 68 18
44 70 18
42 68 16
43 67 16
44 68 16
42 66 14
40 63 6
39 62 0
37 62 12
36 60 5
35 61 9
35 62 3
37 60 11
41 66 4
45 68 0
38 64 0
37 63 4
42 66 10
37 64 12
49 68 21
34 61 4
32 57 5
31 58 0
33 58 0
34 58 0
31 55 0
30 54 0
31 55 2
42 62 11
40 61 13
40 64 13
42 62 17
42 57 13
18 46 61
0 13 78
0 6 67
0 2 67
0 6 68
0 8 71
0 5 65
0 7 66
0 0 63
0 0 57
0 0 59
0 0 63
0 0 66
0 0 64
0 0 66
0 0 65
0 0 59
0 0 55
0 0 51
0 0 51
0 0 49
0 0 52
0 0 52
0 0 49
0 0 53
0 0 54
0 0 52
0 0 52
0 0 54
0 0 54
0 0 55
0 0 56
0 0 60
0 0 61
0 0 54
0 0 49
0 0 46
0 0 48
0 0 52
0 0 53
0 0 55
0 0 58
0 0 56
0 0 58
0 0 62
0 0 60
0 0 62
0 0 66
0 0 60
158 169 190
217 233 255
217 233 255
217 233 255
217 233 255
217 233 255
217 233 255
217 233 255
217 233 255
217 233 255
217 233 255
217 233 255
217 233 255
217 233 255
217 233 255
217 233 255
217 233 255
217 233 255
217 233 255
217 233 255
217 233 255
217 233 255
217 233 255
217 233 255
217 233 255
217 233 255
217 233 255
217 233 255
217 233 255
217 233 255
217 233 255
217 233 255
217 233 255
217 233 255
217 233 255
217 233 255
217 233 255
217 233 255
217 233 255
217 233 255
217 233 255
217 233 255
217 233 255
217 233 255
217 233 255
217 233 255
217 233 255
217 233 255
217 233 255
217 233 255
217 233 255
217 233 255
217 233 255
217 233 255
217 233 255
217 233 255
217 233 255
217 233 255
217 233 255
217 233 255
217 233 255
217 233 255
217 233 255
217 233 255
217 233 255
217 233 255
217 233 255
217 233 255
217 233 255
217 233 255
217 233 255
217 233 255
217 233 255
217 233 255
217 233 255
217 233 255
217 233 255
217 233 255
217 233 255
217 233 255
217 233 255
217 233 255
217 233 255
217 233 255
217 233 255
217 233 255
217 233 255
217 233 255
217 233 255
217 233 255
217 233 255
217 233 255
217 233 255
217 233 255
217 233 255
217 233 255
217 233 255
217 233 255
217 233 255
217 233 255
217 233 255
217 233 255
217 233 255
217 233 255
217 233 255
217 233 255
217 233 255
217 233 255
217 233 255
217 233 255
217 233 255
217 233 255
217 233 255
217 233 255
217 233 255
217 233 255
217 233 255
217 233 255
217 233 255
217 233 255
217 233 255
217 233 255
217 233 255
217 233 255
217 233 255
217 233 255
217 233 255
217 233 255
217 233 255
217 233 255
217 233 255
217 233 255
217 233 255
217 233 255
217 233 255
217 233 255
217 233 255
217 233 255
217 233 255
217 233 255
217 233 255
217 233 255
217 233 255
217 233 255
217 233 255
217 233 255
217 233 255
217 233 255
217 233 255
217 233 255
217 233 255
217 233 255
217 233 255
217 233 255
217 233 255
217 233 255
217 233 255
217 233 255
217 233 255
217 233 255
217 233 255
217 233 255
217 233 255
217 233 255
217 233 255
217 233 255
217 233 255
217 233 255
217 233 255
217 233 255
217 233 255
217 233 255
217 233 255
217 233 255
217 233 255
217 233 255
217 233 255
217 233 255
217 233 255
217 233 255
217 233 255
217 233 255
217 233 255
217 233 255
217 233 255
217 233 255
217 233 255
217 233 255
217 233 255
217 233 255
217 233 255
217 233 255
217 233 255
217 233 255
217 233 255
217 233 255
217 233 255
217 233 255
217 233 255
217 233 255
217 233 255
217 233 255
217 233 255
217 233 255
217 233 255
217 233 255
217 233 255
217 233 255
217 233 255
217 233 255
217 233 255
217 233 255
217 233 255
217 233 255
217 233 255
217 233 255
217 233 255
217 233 255
217 233 255
217 233 255
217 233 255
217 233 255
217 233 255
217 233 255
217 233 255
217 233 255
217 233 255
217 233 255
217 233 255
217 233 255
217 233 255
217 233 255
217 233 255
217 233 255
217 233 255
217 233 255
217 233 255
217 233 255
217 233 255
217 233 255
217 233 255
217 233 255
217 233 255
217 233 255
217 233 255
217 233 255
217 233 255
217 233 255
217 233 255
217 233 255
148 160 179
0 0 50
0 0 51
0 0 51
0 0 49
0 0 49
0 0 49
0 0 55
0 0 56
0 0 54
0 0 54
0 0 56
0 0 54
0 0 51
0 0 48
0 0 48
0 0 48
0 0 47
0 0 43
0 0 46
0 0 49
0 0 50
0 0 53
0 0 55
0 8 70
24 41 18
48 51 21
81 78 45
43 47 14
65 65 40
111 101 79
130 125 98
134 126 97
118 112 85
110 103 76
109 106 78
103 102 75
109 103 75
134 128 99
148 147 122
129 120 91
94 94 63
96 97 71
106 103 77
108 108 80
103 99 75
78 82 51
59 66 33
49 60 22
52 57 26
60 62 35
57 62 32
82 90 60
85 92 59
86 91 59
88 93 63
89 94 63
86 92 60
81 89 51
81 89 49
82 90 47
72 85 41
70 83 41
66 82 39
61 77 34
54 72 28
48 68 23
46 67 22
47 70 20
42 66 16
44 67 19
42 66 12
41 67 11
40 64 10
40 63 4
41 64 13
40 62 9
41 64 14
40 64 15
39 64 10
39 65 8
37 62 2
35 59 0
35 60 0
38 64 3
40 63 5
38 62 3
33 56 5
30 56 1
31 56 0
31 56 0
29 55 0
30 56 0
30 54 0
30 54 0
37 58 7
38 62 9
38 61 24
28 80 48
34 69 50
27 67 50
7 33 73
0 10 71
0 0 64
0 0 68
0 0 62
0 0 56
0 0 50
0 0 50
0 0 49
0 0 47
0 0 43
0 0 48
0 0 55
0 0 58
0 0 57
0 0 57
0 0 53
0 0 50
0 0 51
0 0 51
0 0 47
0 0 45
0 0 47
0 0 48
0 0 51
0 0 54
0 0 50
0 0 49
0 0 51
0 0 52
0 0 55
0 0 54
0 0 54
0 0 58
0 0 56
0 0 52
0 0 50
0 0 48
0 0 50
0 0 53
0 0 52
0 0 54
0 0 57
0 0 56
0 0 57
0 0 60
0 0 57
0 0 61
0 0 63
0 0 57
145 156 177
217 233 255
217 233 255
217 233 255
217 233 255
217 233 255
217 233 255
217 233 255
217 233 255
217 233 255
217 233 255
217 233 255
217 233 255
217 233 255
217 233 255
217 233 255
217 233 255
217 233 255
217 233 255
217 233 255
217 233 255
217 233 255
217 233 255
217 233 255
217 233 255
217 233 255
217 233 255
217 233 255
217 233 255
217 233 255
217 233 255
217 233 255
217 233 255
217 233 255
217 233 255
217 233 255
217 233 255
217 233 255
217 233 255
217 233 255
217 233 255
217 233 255
217 233 255
217 233 255
217 233 255
217 233 255
217 233 255
217 233 255
217 233 255
217 233 255
217 233 255
217 233 255
217 233 255
217 233 255
217 233 255
217 233 255
217 233 255
217 233 255
217 233 255
217 233 255
217 233 255
217 233 255
217 233 255
217 233 255
217 233 255
217 233 255
217 233 255
217 233 255
217 233 255
217 233 255
217 233 255
217 233 255
217 233 255
217 233 255
217 233 255
217 233 255
217 233 255
217 233 255
217 233 255
217 233 255
217 233 255
217 233 255
217 233 255
217 233 255
217 233 255
217 233 255
217 233 255
217 233 255
217 233 255
217 233 255
217 233 255
217 233 255
217 233 255
217 233 255
217 233 255
217 233 255
217 233 255
217 233 255
217 233 255
217 233 255
217 233 255
217 233 255
217 233 255
217 233 255
217 233 255
217 233 255
217 233 255
217 233 255
217 233 255
217 233 255
217 233 255
217 233 255
217 233 255
217 233 255
217 233 255
217 233 255
217 233 255
217 233 255
217 233 255
217 233 255
217 233 255
217 233 255
217 233 255
217 233 255
217 233 255
217 233 255
217 233 255
217 233 255
217 233 255
217 233 255
217 233 255
217 233 255
217 233 255
217 233 255
217 233 255
217 233 255
217 233 255
217 233 255
217 233 255
217 233 255
217 233 255
217 233 255
217 233 255
217 233 255
217 233 255
217 233 255
217 233 255
217 233 255
217 233 255
217 233 255
217 233 255
217 233 255
217 233 255
217 233 255
217 233 255
217 233 255
217 233 255
217 233 255
217 233 255
217 233 255
217 233 255
217 233 255
217 233 255
217 233 255
217 233 255
217 233 255
217 233 255
217 233 255
217 233 255
217 233 255
217 233 255
217 233 255
217 233 255
217 233 255
217 233 255
217 233 255
217 233 255
217 233 255
217 233 255
217 233 255
217 233 255
217 233 255
217 233 255
217 233 255
217 233 255
217 233 255
217 233 255
217 233 255
217 233 255
217 233 255
217 233 255
217 233 255
217 233 255
217 233 255
217 233 255
217 233 255
217 233 255
217 233 255
217 233 255
217 233 255
217 233 255
217 233 255
217 233 255
217 233 255
217 233 255
217 233 255
217 233 255
217 233 255
217 233 255
217 233 255
217 233 255
217 233 255
217 233 255
217 233 255
217 233 255
217 233 255
217 233 255
217 233 255
217 233 255
217 233 255
217 233 255
217 233 255
217 233 255
217 233 255
217 233 255
217 233 255
217 233 255
217 233 255
217 233 255
217 233 255
217 233 255
217 233 255
217 233 255
217 233 255
217 233 255
217 233 255
217 233 255
217 233 255
217 233 255
217 233 255
217 233 255
217 233 255
217 233 255
217 233 255
217 233 255
217 233 255
217 233 255
217 233 255
144 154 173
0 0 49
0 0 50
0 0 49
0 0 49
0 0 50
0 0 50
0 0 57
0 0 58
0 0 54
0 0 52
0 0 55
0 0 53
0 0 50
0 0 47
0 0 46
0 0 47
0 0 46
0 0 45
0 0 45
0 0 48
0 0 50
0 0 52
0 0 54
0 5 65
2 12 67
33 46 19
65 68 34
73 76 37
35 46 14
61 62 37
118 109 86
141 134 107
119 112 86
111 106 79
108 101 74
116 109 82
102 97 70
120 110 79
144 138 114
144 137 110
102 99 68
107 101 74
147 134 107
158 137 112
132 117 96
94 88 65
87 87 57
58 64 29
52 62 28
63 65 34
70 72 45
73 78 52
98 103 71
96 101 65
96 101 66
96 102 65
92 97 61
84 91 55
87 93 56
89 94 57
84 90 53
77 85 47
74 83 44
70 81 41
63 78 35
53 74 29
51 71 27
48 68 23
46 68 20
44 68 17
39 63 13
40 61 2
41 62 0
40 60 0
39 58 0
44 63 11
41 65 15
43 66 13
44 68 16
41 65 14
39 64 4
35 61 0
36 60 0
37 63 0
35 62 0
38 67 0
37 64 0
29 53 0
32 57 0
32 56 0
31 57 0
29 56 0
28 53 0
28 53 0
33 57 0
33 60 0
31 59 11
32 55 14
26 102 70
32 64 23
17 56 76
0 16 78
0 0 60
0 0 67
0 0 66
0 0 59
0 0 50
0 0 46
0 0 47
0 0 47
0 0 45
0 0 42
0 0 42
0 0 45
0 0 50
0 0 53
0 0 50
0 0 49
0 0 47
0 0 46
0 0 47
0 0 45
0 0 45
0 0 45
0 0 44
0 0 48
0 0 51
0 0 50
0 0 46
0 0 46
0 0 49
0 0 56
0 0 57
0 0 51
0 0 52
0 0 55
0 0 53
0 0 53
0 0 52
0 0 50
0 0 52
0 0 52
0 0 49
0 0 53
0 0 56
0 0 53
0 0 52
0 0 53
0 0 53
0 0 58
0 0 57
0 0 58
155 166 187
217 233 255
217 233 255
217 233 255
217 233 255
217 233 255
217 233 255
217 233 255
217 233 255
217 233 255
217 233 255
217 233 255
217 233 255
217 233 255
217 233 255
217 233 255
217 233 255
217 233 255
217 233 255
217 233 255
217 233 255
217 233 255
217 233 255
217 233 255
217 233 255
217 233 255
217 233 255
217 233 255
217 233 255
217 233 255
217 233 255
217 233 255
217 233 255
217 233 255
217 233 255
217 233 255
217 233 255
217 233 255
217 233 255
217 233 255
217 233 255
217 233 255
217 233 255
217 233 255
217 233 255
217 233 255
217 233 255
217 233 255
217 233 255
217 233 255
217 233 255
217 233 255
217 233 255
217 233 255
217 233 255
217 233 255
217 233 255
217 233 255
217 233 255
217 233 255
217 233 255
217 233 255
217 233 255
217 233 255
217 233 255
217 233 255
217 233 255
217 233 255
217 233 255
217 233 255
217 233 255
217 233 255
217 233 255
217 233 255
217 233 255
217 233 255
217 233 255
217 233 255
217 233 255
217 233 255
217 233 255
217 233 255
217 233 255
217 233 255
217 233 255
217 233 255
217 233 255
217 233 255
217 233 255
217 233 255
217 233 255
217 233 255
217 233 255
217 233 255
217 233 255
217 233 255
217 233 255
217 233 255
217 233 255
217 233 255
217 233 255
217 233 255
217 233 255
217 233 255
217 233 255
217 233 255
217 233 255
217 233 255
217 233 255
217 233 255
217 233 255
217 233 255
217 233 255
217 233 255
217 233 255
217 233 255
217 233 255
217 233 255
217 233 255
217 233 255
217 233 255
217 233 255
217 233 255
217 233 255
217 233 255
217 233 255
217 233 255
217 233 255
217 233 255
217 233 255
217 233 255
217 233 255
217 233 255
217 233 255
217 233 255
217 233 255
217 233 255
217 233 255
217 233 255
217 233 255
217 233 255
217 233 255
217 233 255
217 233 255
217 233 255
217 233 255
217 233 255
217 233 255
217 233 255
217 233 255
217 233 255
217 233 255
217 233 255
217 233 255
217 233 255
217 233 255
217 233 255
217 233 255
217 233 255
217 233 255
217 233 255
217 233 255
217 233 255
217 233 255
217 233 255
217 233 255
217 233 255
217 233 255
217 233 255
217 233 255
217 233 255
217 233 255
217 233 255
217 233 255
217 233 255
217 233 255
217 233 255
217 233 255
217 233 255
217 233 255
217 233 255
217 233 255
217 233 255
217 233 255
217 233 255
217 233 255
217 233 255
217 233 255
217 233 255
217 233 255
217 233 255
217 233 255
217 233 255
217 233 255
217 233 255
217 233 255
217 233 255
217 233 255
217 233 255
217 233 255
217 233 255
217 233 255
217 233 255
217 233 255
217 233 255
217 233 255
217 233 255
217 233 255
217 233 255
217 233 255
217 233 255
217 233 255
217 233 255
217 233 255
217 233 255
217 233 255
217 233 255
217 233 255
217 233 255
217 233 255
217 233 255
217 233 255
217 233 255
217 233 255
217 233 255
217 233 255
217 233 255
217 233 255
217 233 255
217 233 255
217 233 255
217 233 255
217 233 255
217 233 255
217 233 255
217 233 255
217 233 255
217 233 255
217 233 255
217 233 255
217 233 255
217 233 255
217 233 255
217 233 255
217 233 255
217 233 255
155 166 186
0 0 48
0 0 51
0 0 50
0 0 49
0 0 49
0 0 50
0 0 56
0 0 53
0 0 50
0 0 49
0 0 52
0 0 54
0 0 50
0 0 47
0 0 45
0 0 45
0 0 45
0 0 45
0 0 46
0 0 49
0 0 52
0 0 52
0 0 51
0 0 56
0 2 61
13 23 54
49 57 24
78 79 41
78 84 39
39 48 14
66 67 45
112 111 84
131 124 100
119 112 84
118 111 82
126 121 95
125 120 94
104 100 72
108 102 72
127 117 90
84 80 56
73 72 45
127 113 87
165 139 113
147 120 96
113 96 78
78 79 56
57 64 31
53 60 27
57 61 30
75 79 51
63 67 39
90 93 66
106 108 75
97 99 61
96 100 59
89 96 53
85 92 50
77 85 47
81 89 52
87 95 57
81 88 49
80 86 48
81 84 45
76 84 41
60 78 31
54 77 27
56 75 29
51 72 26
46 69 20
41 64 14
38 61 8
41 63 8
40 62 6
35 56 0
31 54 0
36 58 0
39 64 4
38 62 4
42 65 8
41 65 10
41 66 3
37 62 0
38 64 0
39 65 0
39 67 3
43 73 8
35 62 0
31 58 0
31 55 0
32 56 0
31 57 0
31 57 0
30 55 0
31 55 0
32 56 0
34 58 0
34 55 0
30 66 18
24 95 83
23 100 94
16 43 77
0 13 70
0 0 67
0 0 61
0 0 57
0 0 53
0 0 49
0 0 45
0 0 43
0 0 43
0 0 43
0 0 42
0 0 43
0 0 46
0 0 48
0 0 50
0 0 48
0 0 47
0 0 45
0 0 45
0 0 45
0 0 44
0 0 44
0 0 45
0 0 46
0 0 46
0 0 45
0 0 45
0 0 46
0 0 46
0 0 47
0 0 49
0 0 57
0 0 54
0 0 49
0 0 51
0 0 53
0 0 53
0 0 54
0 0 52
0 0 51
0 0 52
0 0 48
0 0 48
0 0 50
0 0 53
0 0 48
0 0 49
0 0 50
0 0 53
0 0 55
0 0 55
0 0 58
152 163 184
217 233 255
217 233 255
217 233 255
217 233 255
217 233 255
217 233 255
217 233 255
217 233 255
217 233 255
217 233 255
217 233 255
217 233 255
217 233 255
217 233 255
217 233 255
217 233 255
217 233 255
217 233 255
217 233 255
217 233 255
217 233 255
217 233 255
217 233 255
217 233 255
217 233 255
217 233 255
217 233 255
217 233 255
217 233 255
217 233 255
217 233 255
217 233 255
217 233 255
217 233 255
217 233 255
217 233 255
217 233 255
217 233 255
217 233 255
217 233 255
217 233 255
217 233 255
217 233 255
217 233 255
217 233 255
217 233 255
217 233 255
217 233 255
217 233 255
217 233 255
217 233 255
217 233 255
217 233 255
217 233 255
217 233 255
217 233 255
217 233 255
217 233 255
217 233 255
217 233 255
217 233 255
217 233 255
217 233 255
217 233 255
217 233 255
217 233 255
217 233 255
217 233 255
217 233 255
217 233 255
217 233 255
217 233 255
217 233 255
217 233 255
217 233 255
217 233 255
217 233 255
217 233 255
217 233 255
217 233 255
217 233 255
217 233 255
217 233 255
217 233 255
217 233 255
217 233 255
217 233 255
217 233 255
217 233 255
217 233 255
217 233 255
217 233 255
217 233 255
217 233 255
217 233 255
217 233 255
217 233 255
217 233 255
217 233 255
217 233 255
217 233 255
217 233 255
217 233 255
217 233 255
217 233 255
217 233 255
217 233 255
217 233 255
217 233 255
217 233 255
217 233 255
217 233 255
217 233 255
217 233 255
217 233 255
217 233 255
217 233 255
217 233 255
217 233 255
217 233 255
217 233 255
217 233 255
217 233 255
217 233 255
217 233 255
217 233 255
217 233 255
217 233 255
217 233 255
217 233 255
217 233 255
217 233 255
217 233 255
217 233 255
217 233 255
217 233 255
217 233 255
217 233 255
217 233 255
217 233 255
217 233 255
217 233 255
217 233 255
217 233 255
217 233 255
217 233 255
217 233 255
217 233 255
217 233 255
217 233 255
217 233 255
217 233 255
217 233 255
217 233 255
217 233 255
217 233 255
217 233 255
217 233 255
217 233 255
217 233 255
217 233 255
217 233 255
217 233 255
217 233 255
217 233 255
217 233 255
217 233 255
217 233 255
217 233 255
217 233 255
217 233 255
217 233 255
217 233 255
217 233 255
217 233 255
217 233 255
217 233 255
217 233 255
217 233 255
217 233 255
217 233 255
217 233 255
217 233 255
217 233 255
217 233 255
217 233 255
217 233 255
217 233 255
217 233 255
217 233 255
217 233 255
217 233 255
217 233 255
217 233 255
217 233 255
217 233 255
217 233 255
217 233 255
217 233 255
217 233 255
217 233 255
217 233 255
217 233 255
217 233 255
217 233 255
217 233 255
217 233 255
217 233 255
217 233 255
217 233 255
217 233 255
217 233 255
217 233 255
217 233 255
217 233 255
217 233 255
217 233 255
217 233 255
217 233 255
217 233 255
217 233 255
217 233 255
217 233 255
217 233 255
217 233 255
217 233 255
217 233 255
217 233 255
217 233 255
217 233 255
217 233 255
217 233 255
217 233 255
217 233 255
217 233 255
217 233 255
217 233 255
217 233 255
217 233 255
217 233 255
217 233 255
217 233 255
217 233 255
175 188 208
0 0 48
0 0 47
0 0 49
0 0 50
0 0 48
0 0 50
0 0 51
0 0 46
0 0 46
0 0 47
0 0 49
0 0 51
0 0 50
0 0 46
0 0 45
0 0 46
0 0 46
0 0 45
0 0 47
0 0 48
0 0 50
0 0 51
0 0 51
0 0 51
0 0 56
0 0 63
19 27 69
66 72 37
84 83 47
92 85 49
48 53 19
81 80 56
102 102 78
124 119 96
140 133 106
130 122 95
124 117 90
121 110 85
104 99 77
101 93 66
96 92 68
91 89 65
110 105 75
157 127 109
156 122 108
123 106 84
118 102 82
68 70 41
48 57 22
46 53 21
51 56 25
85 87 60
61 62 37
79 82 55
102 105 74
88 91 57
94 98 59
92 96 55
83 86 46
79 85 47
84 91 50
85 93 49
82 89 45
80 87 42
84 87 42
76 84 39
58 81 30
55 79 27
59 77 27
56 76 26
48 71 23
48 71 23
42 64 14
44 65 15
41 63 10
36 57 0
29 53 0
34 59 8
43 70 15
41 66 9
40 64 10
37 60 0
40 64 6
41 65 6
40 66 0
39 65 0
36 64 0
37 65 0
34 61 0
35 62 0
32 60 0
33 61 0
31 58 0
31 58 0
32 56 0
33 58 0
33 58 0
30 55 0
31 56 6
31 56 8
25 76 51
12 98 115
1 31 85
0 8 59
0 0 57
0 0 54
0 0 50
0 0 46
0 0 45
0 0 43
0 0 42
0 0 42
0 0 42
0 0 42
0 0 44
0 0 47
0 0 48
0 0 47
0 0 45
0 0 43
0 0 42
0 0 43
0 0 45
0 0 45
0 0 43
0 0 45
0 0 47
0 0 50
0 0 50
0 0 48
0 0 47
0 0 47
0 0 47
0 0 48
0 0 51
0 0 53
0 0 51
0 0 50
0 0 50
0 0 49
0 0 49
0 0 52
0 0 51
0 0 50
0 0 47
0 0 46
0 0 45
0 0 45
0 0 47
0 0 48
0 0 46
0 0 48
0 0 51
0 0 52
0 0 54
0 0 55
162 174 195
217 233 255
217 233 255
217 233 255
217 233 255
217 233 255
217 233 255
217 233 255
217 233 255
217 233 255
217 233 255
217 233 255
217 233 255
217 233 255
217 233 255
217 233 255
217 233 255
217 233 255
217 233 255
217 233 255
217 233 255
217 233 255
217 233 255
217 233 255
217 233 255
217 233 255
217 233 255
217 233 255
217 233 255
217 233 255
217 233 255
217 233 255
217 233 255
217 233 255
217 233 255
217 233 255
217 233 255
217 233 255
217 233 255
217 233 255
217 233 255
217 233 255
217 233 255
217 233 255
217 233 255
217 233 255
217 233 255
217 233 255
217 233 255
217 233 255
217 233 255
217 233 255
217 233 255
217 233 255
217 233 255
217 233 255
217 233 255
217 233 255
217 233 255
217 233 255
217 233 255
217 233 255
217 233 255
217 233 255
217 233 255
217 233 255
217 233 255
217 233 255
217 233 255
217 233 255
217 233 255
217 233 255
217 233 255
217 233 255
217 233 255
217 233 255
217 233 255
217 233 255
217 233 255
217 233 255
217 233 255
217 233 255
217 233 255
217 233 255
217 233 255
217 233 255
217 233 255
217 233 255
217 233 255
217 233 255
217 233 255
217 233 255
217 233 255
217 233 255
217 233 255
217 233 255
217 233 255
217 233 255
217 233 255
217 233 255
217 233 255
217 233 255
217 233 255
217 233 255
217 233 255
217 233 255
217 233 255
217 233 255
217 233 255
217 233 255
217 233 255
217 233 255
217 233 255
217 233 255
217 233 255
217 233 255
217 233 255
217 233 255
217 233 255
217 233 255
217 233 255
217 233 255
217 233 255
217 233 255
217 233 255
217 233 255
217 233 255
217 233 255
217 233 255
217 233 255
217 233 255
217 233 255
217 233 255
217 233 255
217 233 255
217 233 255
217 233 255
217 233 255
217 233 255
217 233 255
217 233 255
217 233 255
217 233 255
217 233 255
217 233 255
217 233 255
217 233 255
217 233 255
217 233 255
217 233 255
217 233 255
217 233 255
217 233 255
217 233 255
217 233 255
217 233 255
217 233 255
217 233 255
217 233 255
217 233 255
217 233 255
217 233 255
217 233 255
217 233 255
217 233 255
217 233 255
217 233 255
217 233 255
217 233 255
217 233 255
217 233 255
217 233 255
217 233 255
217 233 255
217 233 255
217 233 255
217 233 255
217 233 255
217 233 255
217 233 255
217 233 255
217 233 255
217 233 255
217 233 255
217 233 255
217 233 255
217 233 255
217 233 255
217 233 255
217 233 255
217 233 255
217 233 255
217 233 255
217 233 255
217 233 255
217 233 255
217 233 255
217 233 255
217 233 255
217 233 255
217 233 255
217 233 255
217 233 255
217 233 255
217 233 255
217 233 255
217 233 255
217 233 255
217 233 255
217 233 255
217 233 255
217 233 255
217 233 255
217 233 255
217 233 255
217 233 255
217 233 255
217 233 255
217 233 255
217 233 255
217 233 255
217 233 255
217 233 255
217 233 255
217 233 255
217 233 255
217 233 255
217 233 255
217 233 255
217 233 255
217 233 255
217 233 255
217 233 255
217 233 255
217 233 255
217 233 255
217 233 255
217 233 255
217 233 255
217 233 255
217 233 255
217 233 255
168 180 200
21 23 54
0 0 47
0 0 47
0 0 48
0 0 46
0 0 46
0 0 47
0 0 42
0 0 45
0 0 46
0 0 48
0 0 50
0 0 49
0 0 45
0 0 45
0 0 45
0 0 45
0 0 45
0 0 45
0 0 47
0 0 46
0 0 48
0 0 49
0 0 51
0 0 55
0 3 59
0 16 72
1 41 99
61 70 41
91 86 53
91 91 51
67 62 32
75 74 49
115 110 87
122 115 87
129 118 91
121 111 85
129 120 95
127 114 89
123 110 84
121 104 83
118 101 79
126 106 82
163 134 111
145 116 93
176 136 113
174 136 113
171 154 130
117 111 83
91 93 65
65 69 42
62 66 36
79 78 52
58 60 34
75 80 54
91 92 64
91 95 64
94 98 59
90 95 57
87 90 54
94 96 60
91 95 56
86 91 45
85 91 41
81 87 35
80 86 34
76 85 33
59 80 27
52 75 21
53 73 23
48 69 18
43 64 10
39 60 9
38 60 0
40 59 0
43 63 14
40 61 10
40 62 13
48 75 23
49 74 26
41 65 12
41 66 13
30 55 0
38 64 8
41 66 10
40 65 1
37 63 0
33 60 0
30 57 0
35 60 0
36 63 0
38 68 0
36 65 0
32 59 0
34 61 0
34 59 0
34 58 0
34 58 0
30 56 0
30 58 0
36 61 0
33 62 19
29 66 53
0 23 73
0 0 60
0 0 53
0 0 50
0 0 45
0 0 42
0 0 42
0 0 41
0 0 40
0 0 41
0 0 44
0 0 45
0 0 45
0 0 46
0 0 45
0 0 43
0 0 42
0 0 42
0 0 44
0 0 44
0 0 45
0 0 45
0 0 44
0 0 45
0 0 45
0 0 52
0 0 53
0 0 49
0 0 47
0 0 48
0 0 49
0 0 50
0 0 51
0 0 52
0 0 50
0 0 48
0 0 48
0 0 49
0 0 48
0 0 49
0 0 50
0 0 50
0 0 47
0 0 45
0 0 43
0 0 43
0 0 44
0 0 46
0 0 47
0 0 44
0 0 46
0 0 49
0 0 52
0 0 52
21 23 58
184 198 219
217 233 255
217 233 255
217 233 255
217 233 255
217 233 255
217 233 255
217 233 255
217 233 255
217 233 255
217 233 255
217 233 255
217 233 255
217 233 255
217 233 255
217 233 255
217 233 255
217 233 255
217 233 255
217 233 255
217 233 255
217 233 255
217 233 255
217 233 255
217 233 255
217 233 255
217 233 255
217 233 255
217 233 255
217 233 255
217 233 255
217 233 255
217 233 255
217 233 255
217 233 255
217 233 255
217 233 255
217 233 255
217 233 255
217 233 255
217 233 255
217 233 255
217 233 255
217 233 255
217 233 255
217 233 255
217 233 255
217 233 255
217 233 255
217 233 255
217 233 255
217 233 255
217 233 255
217 233 255
217 233 255
217 233 255
217 233 255
217 233 255
217 233 255
217 233 255
217 233 255
217 233 255
217 233 255
217 233 255
217 233 255
217 233 255
217 233 255
217 233 255
217 233 255
217 233 255
217 233 255
217 233 255
217 233 255
217 233 255
217 233 255
217 233 255
217 233 255
217 233 255
217 233 255
217 233 255
217 233 255
217 233 255
217 233 255
217 233 255
217 233 255
217 233 255
217 233 255
217 233 255
217 233 255
217 233 255
217 233 255
217 233 255
217 233 255
217 233 255
217 233 255
217 233 255
217 233 255
217 233 255
217 233 255
217 233 255
217 233 255
217 233 255
217 233 255
217 233 255
217 233 255
217 233 255
217 233 255
217 233 255
217 233 255
217 233 255
217 233 255
217 233 255
217 233 255
217 233 255
217 233 255
217 233 255
217 233 255
217 233 255
217 233 255
217 233 255
217 233 255
217 233 255
217 233 255
217 233 255
217 233 255
217 233 255
217 233 255
217 233 255
217 233 255
217 233 255
217 233 255
217 233 255
217 233 255
217 233 255
217 233 255
217 233 255
217 233 255
217 233 255
217 233 255
217 233 255
217 233 255
217 233 255
217 233 255
217 233 255
217 233 255
217 233 255
217 233 255
217 233 255
217 233 255
217 233 255
217 233 255
217 233 255
217 233 255
217 233 255
217 233 255
217 233 255
217 233 255
217 233 255
217 233 255
217 233 255
217 233 255
217 233 255
217 233 255
217 233 255
217 233 255
217 233 255
217 233 255
217 233 255
217 233 255
217 233 255
217 233 255
217 233 255
217 233 255
217 233 255
217 233 255
217 233 255
217 233 255
217 233 255
217 233 255
217 233 255
217 233 255
217 233 255
217 233 255
217 233 255
217 233 255
217 233 255
217 233 255
217 233 255
217 233 255
217 233 255
217 233 255
217 233 255
217 233 255
217 233 255
217 233 255
217 233 255
217 233 255
217 233 255
217 233 255
217 233 255
217 233 255
217 233 255
217 233 255
217 233 255
217 233 255
217 233 255
217 233 255
217 233 255
217 233 255
217 233 255
217 233 255
217 233 255
217 233 255
217 233 255
217 233 255
217 233 255
217 233 255
217 233 255
217 233 255
217 233 255
217 233 255
217 233 255
217 233 255
217 233 255
217 233 255
217 233 255
217 233 255
217 233 255
217 233 255
217 233 255
217 233 255
217 233 255
217 233 255
217 233 255
217 233 255
217 233 255
217 233 255
217 233 255
217 233 255
217 233 255
195 210 231
0 0 47
0 0 46
0 0 48
0 0 45
0 0 45
0 0 44
0 0 42
0 0 42
0 0 43
0 0 45
0 0 50
0 0 51
0 0 48
0 0 45
0 0 46
0 0 46
0 0 45
0 0 45
0 0 45
0 0 45
0 0 45
0 0 47
0 0 49
0 0 49
0 0 51
0 0 56
0 7 62
0 14 75
3 19 75
59 65 50
100 92 59
89 94 55
89 90 62
73 76 45
123 119 92
131 123 98
139 129 106
131 121 97
133 123 98
145 132 104
127 112 85
120 104 83
115 100 80
124 108 81
180 140 116
144 126 100
135 118 92
128 104 90
144 137 106
150 144 111
126 116 91
68 69 44
82 81 56
58 59 33
68 73 46
92 92 70
105 103 77
98 98 66
87 91 54
87 93 54
86 92 52
88 93 52
84 89 49
79 85 41
78 85 35
80 87 36
79 87 38
64 76 29
53 70 22
53 73 21
53 73 24
42 61 0
42 62 11
35 56 0
35 55 0
36 56 0
36 55 2
45 66 18
52 74 27
53 77 27
51 74 23
50 73 21
41 65 8
30 55 0
33 58 0
39 65 0
39 65 0
37 62 0
33 59 0
33 60 0
36 64 0
31 60 0
32 60 0
29 55 0
34 58 0
37 60 0
40 64 0
39 63 0
34 57 0
38 58 0
37 65 5
40 69 9
35 64 11
29 82 55
13 66 83
0 10 61
0 0 51
0 0 45
0 0 41
0 0 42
0 0 42
0 0 42
0 0 42
0 0 45
0 0 45
0 0 45
0 0 45
0 0 44
0 0 42
0 0 41
0 0 42
0 0 43
0 0 46
0 0 47
0 0 47
0 0 45
0 0 45
0 0 45
0 0 46
0 0 48
0 0 50
0 0 47
0 0 46
0 0 48
0 0 50
0 0 51
0 0 52
0 0 54
0 0 52
0 0 48
0 0 48
0 0 48
0 0 48
0 0 49
0 0 48
0 0 48
0 0 47
0 0 45
0 0 44
0 0 42
0 0 43
0 0 45
0 0 47
0 0 46
0 0 45
0 0 46
0 0 49
0 0 50
0 0 47
21 23 57
185 199 220
217 233 255
217 233 255
217 233 255
217 233 255
217 233 255
217 233 255
217 233 255
217 233 255
217 233 255
217 233 255
217 233 255
217 233 255
217 233 255
217 233 255
217 233 255
217 233 255
217 233 255
217 233 255
217 233 255
217 233 255
217 233 255
217 233 255
217 233 255
217 233 255
217 233 255
217 233 255
217 233 255
217 233 255
217 233 255
217 233 255
217 233 255
217 233 255
217 233 255
217 233 255
217 233 255
217 233 255
217 233 255
217 233 255
217 233 255
217 233 255
217 233 255
217 233 255
217 233 255
217 233 255
217 233 255
217 233 255
217 233 255
217 233 255
217 233 255
217 233 255
217 233 255
217 233 255
217 233 255
217 233 255
217 233 255
217 233 255
217 233 255
217 233 255
217 233 255
217 233 255
217 233 255
217 233 255
217 233 255
217 233 255
217 233 255
217 233 255
217 233 255
217 233 255
217 233 255
217 233 255
217 233 255
217 233 255
217 233 255
217 233 255
217 233 255
217 233 255
217 233 255
217 233 255
217 233 255
217 233 255
217 233 255
217 233 255
217 233 255
217 233 255
217 233 255
217 233 255
217 233 255
217 233 255
217 233 255
217 233 255
217 233 255
217 233 255
217 233 255
217 233 255
217 233 255
217 233 255
217 233 255
217 233 255
217 233 255
217 233 255
217 233 255
217 233 255
217 233 255
217 233 255
217 233 255
217 233 255
217 233 255
217 233 255
217 233 255
217 233 255
217 233 255
217 233 255
217 233 255
217 233 255
217 233 255
217 233 255
217 233 255
217 233 255
217 233 255
217 233 255
217 233 255
217 233 255
217 233 255
217 233 255
217 233 255
217 233 255
217 233 255
217 233 255
217 233 255
217 233 255
217 233 255
217 233 255
217 233 255
217 233 255
217 233 255
217 233 255
217 233 255
217 233 255
217 233 255
217 233 255
217 233 255
217 233 255
217 233 255
217 233 255
217 233 255
217 233 255
217 233 255
217 233 255
217 233 255
217 233 255
217 233 255
217 233 255
217 233 255
217 233 255
217 233 255
217 233 255
217 233 255
217 233 255
217 233 255
217 233 255
217 233 255
217 233 255
217 233 255
217 233 255
217 233 255
217 233 255
217 233 255
217 233 255
217 233 255
217 233 255
217 233 255
217 233 255
217 233 255
217 233 255
217 233 255
217 233 255
217 233 255
217 233 255
217 233 255
217 233 255
217 233 255
217 233 255
217 233 255
217 233 255
217 233 255
217 233 255
217 233 255
217 233 255
217 233 255
217 233 255
217 233 255
217 233 255
217 233 255
217 233 255
217 233 255
217 233 255
217 233 255
217 233 255
217 233 255
217 233 255
217 233 255
217 233 255
217 233 255
217 233 255
217 233 255
217 233 255
217 233 255
217 233 255
217 233 255
217 233 255
217 233 255
217 233 255
217 233 255
217 233 255
217 233 255
217 233 255
217 233 255
217 233 255
217 233 255
217 233 255
217 233 255
217 233 255
217 233 255
217 233 255
217 233 255
217 233 255
217 233 255
217 233 255
217 233 255
217 233 255
217 233 255
217 233 255
217 233 255
217 233 255
217 233 255
217 233 255
217 233 255
198 212 234
43 46 70
0 0 47
0 0 48
0 0 44
0 0 42
0 0 42
0 0 42
0 0 42
0 0 42
0 0 44
0 0 46
0 0 48
0 0 47
0 0 45
0 0 45
0 0 46
0 0 45
0 0 45
0 0 45
0 0 45
0 0 44
0 0 47
0 0 49
0 0 50
0 0 47
0 0 48
0 0 52
0 0 62
0 7 69
8 12 62
67 68 47
97 89 60
93 99 63
92 98 59
78 75 49
142 134 103
138 127 100
143 133 108
136 128 101
134 120 91
132 118 91
113 100 76
109 97 75
114 104 86
112 98 75
171 139 118
149 132 105
132 112 93
103 96 73
117 112 86
131 122 93
125 120 89
106 103 76
97 94 71
71 68 44
89 87 65
100 94 76
111 105 81
108 107 74
92 96 56
90 97 54
83 87 45
87 91 50
87 90 46
83 87 41
83 86 38
78 84 36
76 87 39
60 74 26
54 73 23
50 69 19
49 68 16
51 70 19
49 69 16
41 61 8
39 59 8
40 60 8
47 68 18
49 71 22
50 71 19
50 72 19
49 70 16
43 63 8
36 57 0
33 57 0
37 63 8
41 68 0
38 64 0
35 60 0
36 62 0
34 60 0
29 57 0
29 58 0
29 57 0
33 56 0
41 63 0
42 62 4
43 64 10
36 57 0
38 59 5
41 66 15
43 69 17
41 68 12
31 57 9
22 97 73
12 110 123
0 23 62
0 0 45
0 0 42
0 0 40
0 0 42
0 0 42
0 0 42
0 0 42
0 0 42
0 0 42
0 0 43
0 0 43
0 0 42
0 0 42
0 0 42
0 0 42
0 0 42
0 0 47
0 0 46
0 0 48
0 0 46
0 0 47
0 0 47
0 0 47
0 0 48
0 0 47
0 0 48
0 0 47
0 0 46
0 0 49
0 0 49
0 0 50
0 0 53
0 0 53
0 0 48
0 0 47
0 0 48
0 0 48
0 0 48
0 0 48
0 0 47
0 0 46
0 0 45
0 0 45
0 0 43
0 0 42
0 0 43
0 0 45
0 0 45
0 0 43
0 0 44
0 0 46
0 0 44
0 0 50
0 0 45
53 57 79
200 215 236
217 233 255
217 233 255
217 233 255
217 233 255
217 233 255
217 233 255
217 233 255
217 233 255
217 233 255
217 233 255
217 233 255
217 233 255
217 233 255
217 233 255
217 233 255
217 233 255
217 233 255
217 233 255
217 233 255
217 233 255
217 233 255
217 233 255
217 233 255
217 233 255
217 233 255
217 233 255
217 233 255
217 233 255
217 233 255
217 233 255
217 233 255
217 233 255
217 233 255
217 233 255
217 233 255
217 233 255
217 233 255
217 233 255
217 233 255
217 233 255
217 233 255
217 233 255
217 233 255
217 233 255
217 233 255
217 233 255
217 233 255
217 233 255
217 233 255
217 233 255
217 233 255
217 233 255
217 233 255
217 233 255
217 233 255
217 233 255
217 233 255
217 233 255
217 233 255
217 233 255
217 233 255
217 233 255
217 233 255
217 233 255
217 233 255
217 233 255
217 233 255
217 233 255
217 233 255
217 233 255
217 233 255
217 233 255
217 233 255
217 233 255
217 233 255
217 233 255
217 233 255
217 233 255
217 233 255
217 233 255
217 233 255
217 233 255
217 233 255
217 233 255
217 233 255
217 233 255
217 233 255
217 233 255
217 233 255
217 233 255
217 233 255
217 233 255
217 233 255
217 233 255
217 233 255
217 233 255
217 233 255
217 233 255
217 233 255
217 233 255
217 233 255
217 233 255
217 233 255
217 233 255
217 233 255
217 233 255
217 233 255
217 233 255
217 233 255
217 233 255
217 233 255
217 233 255
217 233 255
217 233 255
217 233 255
217 233 255
217 233 255
217 233 255
217 233 255
217 233 255
217 233 255
217 233 255
217 233 255
217 233 255
217 233 255
217 233 255
217 233 255
217 233 255
217 233 255
217 233 255
217 233 255
217 233 255
217 233 255
217 233 255
217 233 255
217 233 255
217 233 255
217 233 255
217 233 255
217 233 255
217 233 255
217 233 255
217 233 255
217 233 255
217 233 255
217 233 255
217 233 255
217 233 255
217 233 255
217 233 255
217 233 255
217 233 255
217 233 255
217 233 255
217 233 255
217 233 255
217 233 255
217 233 255
217 233 255
217 233 255
217 233 255
217 233 255
217 233 255
217 233 255
217 233 255
217 233 255
217 233 255
217 233 255
217 233 255
217 233 255
217 233 255
217 233 255
217 233 255
217 233 255
217 233 255
217 233 255
217 233 255
217 233 255
217 233 255
217 233 255
217 233 255
217 233 255
217 233 255
217 233 255
217 233 255
217 233 255
217 233 255
217 233 255
217 233 255
217 233 255
217 233 255
217 233 255
217 233 255
217 233 255
217 233 255
217 233 255
217 233 255
217 233 255
217 233 255
217 233 255
217 233 255
217 233 255
217 233 255
217 233 255
217 233 255
217 233 255
217 233 255
217 233 255
217 233 255
217 233 255
217 233 255
217 233 255
217 233 255
217 233 255
217 233 255
217 233 255
217 233 255
217 233 255
217 233 255
217 233 255
217 233 255
217 233 255
217 233 255
217 233 255
217 233 255
217 233 255
217 233 255
217 233 255
217 233 255
217 233 255
217 233 255
217 233 255
217 233 255
217 233 255
217 233 255
200 215 236
48 52 76
0 0 49
0 0 48
0 0 44
0 0 42
0 0 42
0 0 42
0 0 42
0 0 42
0 0 42
0 0 42
0 0 42
0 0 45
0 0 45
0 0 46
0 0 45
0 0 45
0 0 45
0 0 45
0 0 45
0 0 45
0 0 45
0 0 48
0 0 48
0 0 48
0 0 45
0 0 46
0 0 50
0 0 59
0 0 60
0 5 64
46 53 54
101 93 56
117 107 77
103 98 68
132 121 91
168 152 117
163 147 118
161 149 121
143 131 102
136 122 95
129 116 90
111 101 76
100 91 69
78 72 50
77 71 49
152 125 104
161 131 114
151 127 110
117 104 80
88 85 61
106 97 74
133 118 97
107 98 75
112 107 86
105 97 76
108 99 81
106 98 78
104 99 74
91 92 60
86 90 52
84 89 49
81 83 46
87 87 52
89 89 50
87 88 47
88 87 46
82 86 41
72 82 34
60 76 26
54 73 20
49 68 16
43 60 11
39 57 7
38 58 5
36 55 0
33 54 0
38 57 4
46 68 18
44 68 16
49 72 18
46 69 16
42 64 11
37 59 1
37 60 0
35 59 0
40 65 11
42 70 0
39 66 0
37 62 0
38 62 0
33 56 0
34 59 0
32 57 0
34 59 0
42 64 9
38 58 0
39 58 0
41 61 7
39 61 4
43 66 9
40 66 9
36 60 0
35 60 0
25 47 22
15 52 69
0 30 57
0 0 43
0 0 40
0 0 41
0 0 42
0 0 42
0 0 42
0 0 42
0 0 42
0 0 42
0 0 42
0 0 42
0 0 42
0 0 42
0 0 42
0 0 42
0 0 42
0 0 42
0 0 44
0 0 45
0 0 45
0 0 45
0 0 45
0 0 45
0 0 45
0 0 45
0 0 45
0 0 47
0 0 48
0 0 47
0 0 50
0 0 50
0 0 50
0 0 51
0 0 52
0 0 49
0 0 48
0 0 48
0 0 48
0 0 48
0 0 48
0 0 47
0 0 46
0 0 45
0 0 45
0 0 43
0 0 42
0 0 42
0 0 42
0 0 45
0 0 43
0 0 41
0 0 42
0 0 42
0 0 41
0 0 45
0 0 45
78 84 102
212 227 249
217 233 255
217 233 255
217 233 255
217 233 255
217 233 255
217 233 255
217 233 255
217 233 255
217 233 255
217 233 255
217 233 255
217 233 255
217 233 255
217 233 255
217 233 255
217 233 255
217 233 255
217 233 255
217 233 255
217 233 255
217 233 255
217 233 255
217 233 255
217 233 255
217 233 255
217 233 255
217 233 255
217 233 255
217 233 255
217 233 255
217 233 255
217 233 255
217 233 255
217 233 255
217 233 255
217 233 255
217 233 255
217 233 255
217 233 255
217 233 255
217 233 255
217 233 255
217 233 255
217 233 255
217 233 255
217 233 255
217 233 255
217 233 255
217 233 255
217 233 255
217 233 255
217 233 255
217 233 255
217 233 255
217 233 255
217 233 255
217 233 255
217 233 255
217 233 255
217 233 255
217 233 255
217 233 255
217 233 255
217 233 255
217 233 255
217 233 255
217 233 255
217 233 255
217 233 255
217 233 255
217 233 255
217 233 255
217 233 255
217 233 255
217 233 255
217 233 255
217 233 255
217 233 255
217 233 255
217 233 255
217 233 255
217 233 255
217 233 255
217 233 255
217 233 255
217 233 255
217 233 255
217 233 255
217 233 255
217 233 255
217 233 255
217 233 255
217 233 255
217 233 255
217 233 255
217 233 255
217 233 255
217 233 255
217 233 255
217 233 255
217 233 255
217 233 255
217 233 255
217 233 255
217 233 255
217 233 255
217 233 255
217 233 255
217 233 255
217 233 255
217 233 255
217 233 255
217 233 255
217 233 255
217 233 255
217 233 255
217 233 255
217 233 255
217 233 255
217 233 255
217 233 255
217 233 255
217 233 255
217 233 255
217 233 255
217 233 255
217 233 255
217 233 255
217 233 255
217 233 255
217 233 255
217 233 255
217 233 255
217 233 255
217 233 255
217 233 255
217 233 255
217 233 255
217 233 255
217 233 255
217 233 255
217 233 255
217 233 255
217 233 255
217 233 255
217 233 255
217 233 255
217 233 255
217 233 255
217 233 255
217 233 255
217 233 255
217 233 255
217 233 255
217 233 255
217 233 255
217 233 255
217 233 255
217 233 255
217 233 255
217 233 255
217 233 255
217 233 255
217 233 255
217 233 255
217 233 255
217 233 255
217 233 255
217 233 255
217 233 255
217 233 255
217 233 255
217 233 255
217 233 255
217 233 255
217 233 255
217 233 255
217 233 255
217 233 255
217 233 255
217 233 255
217 233 255
217 233 255
217 233 255
217 233 255
217 233 255
217 233 255
217 233 255
217 233 255
217 233 255
217 233 255
217 233 255
217 233 255
217 233 255
217 233 255
217 233 255
217 233 255
217 233 255
217 233 255
217 233 255
217 233 255
217 233 255
217 233 255
217 233 255
217 233 255
217 233 255
217 233 255
217 233 255
217 233 255
217 233 255
217 233 255
217 233 255
217 233 255
217 233 255
217 233 255
217 233 255
217 233 255
217 233 255
217 233 255
217 233 255
217 233 255
217 233 255
217 233 255
217 233 255
217 233 255
217 233 255
217 233 255
217 233 255
217 233 255
217 233 255
217 233 255
217 233 255
217 233 255
209 225 247
92 99 117
0 0 49
0 0 46
0 0 43
0 0 42
0 0 42
0 0 42
0 0 42
0 0 42
0 0 42
0 0 42
0 0 42
0 0 45
0 0 45
0 0 47
0 0 47
0 0 45
0 0 45
0 0 45
0 0 45
0 0 45
0 0 44
0 0 46
0 0 47
0 0 47
0 0 45
0 0 43
0 0 44
0 0 50
0 0 57
0 0 50
0 7 66
43 54 84
79 76 43
96 93 60
104 97 66
167 154 120
170 153 121
168 152 123
167 154 125
163 154 128
139 127 100
137 123 95
110 99 73
91 81 56
82 83 57
65 65 37
88 75 54
106 94 76
117 102 79
107 104 79
95 92 68
108 101 80
129 111 93
115 103 80
108 100 79
120 108 89
120 111 87
114 105 84
109 101 77
103 97 70
98 93 65
99 95 70
96 92 66
97 93 64
97 94 60
101 96 60
100 96 59
91 91 54
76 83 40
58 75 26
54 73 23
52 71 23
45 65 12
41 60 5
39 58 3
38 58 0
33 54 0
31 49 0
38 59 10
42 67 12
43 70 10
45 73 17
37 61 0
38 62 0
40 66 3
37 61 2
40 64 0
38 65 0
39 65 0
40 64 0
36 59 0
38 60 0
41 61 0
40 60 0
36 57 0
31 53 0
34 56 0
38 57 0
40 60 5
45 69 14
40 64 2
40 64 0
31 52 18
15 30 40
3 9 40
0 1 43
0 0 40
0 0 45
0 0 39
0 0 43
0 0 42
0 0 38
0 0 42
0 0 42
0 0 42
0 0 42
0 0 42
0 0 42
0 0 42
0 0 42
0 0 42
0 0 42
0 0 42
0 0 42
0 0 43
0 0 44
0 0 45
0 0 45
0 0 44
0 0 45
0 0 45
0 0 45
0 0 45
0 0 45
0 0 46
0 0 47
0 0 49
0 0 50
0 0 50
0 0 50
0 0 52
0 0 50
0 0 47
0 0 46
0 0 46
0 0 47
0 0 47
0 0 47
0 0 47
0 0 46
0 0 45
0 0 43
0 0 42
0 0 42
0 0 42
0 0 43
0 0 43
0 0 42
0 0 40
0 0 41
0 0 42
0 0 45
0 3 45
0 0 45
81 87 104
207 223 244
217 233 255
217 233 255
217 233 255
217 233 255
217 233 255
217 233 255
217 233 255
217 233 255
217 233 255
217 233 255
217 233 255
217 233 255
217 233 255
217 233 255
217 233 255
217 233 255
217 233 255
217 233 255
217 233 255
217 233 255
217 233 255
217 233 255
217 233 255
217 233 255
217 233 255
217 233 255
217 233 255
217 233 255
217 233 255
217 233 255
217 233 255
217 233 255
217 233 255
217 233 255
217 233 255
217 233 255
217 233 255
217 233 255
217 233 255
217 233 255
217 233 255
217 233 255
217 233 255
217 233 255
217 233 255
217 233 255
217 233 255
217 233 255
217 233 255
217 233 255
217 233 255
217 233 255
217 233 255
217 233 255
217 233 255
217 233 255
217 233 255
217 233 255
217 233 255
217 233 255
217 233 255
217 233 255
217 233 255
217 233 255
217 233 255
217 233 255
217 233 255
217 233 255
217 233 255
217 233 255
217 233 255
217 233 255
217 233 255
217 233 255
217 233 255
217 233 255
217 233 255
217 233 255
217 233 255
217 233 255
217 233 255
217 233 255
217 233 255
217 233 255
217 233 255
217 233 255
217 233 255
217 233 255
217 233 255
217 233 255
217 233 255
217 233 255
217 233 255
217 233 255
217 233 255
217 233 255
217 233 255
217 233 255
217 233 255
217 233 255
217 233 255
217 233 255
217 233 255
217 233 255
217 233 255
217 233 255
217 233 255
217 233 255
217 233 255
217 233 255
217 233 255
217 233 255
217 233 255
217 233 255
217 233 255
217 233 255
217 233 255
217 233 255
217 233 255
217 233 255
217 233 255
217 233 255
217 233 255
217 233 255
217 233 255
217 233 255
217 233 255
217 233 255
217 233 255
217 233 255
217 233 255
217 233 255
217 233 255
217 233 255
217 233 255
217 233 255
217 233 255
217 233 255
217 233 255
217 233 255
217 233 255
217 233 255
217 233 255
217 233 255
217 233 255
217 233 255
217 233 255
217 233 255
217 233 255
217 233 255
217 233 255
217 233 255
217 233 255
217 233 255
217 233 255
217 233 255
217 233 255
217 233 255
217 233 255
217 233 255
217 233 255
217 233 255
217 233 255
217 233 255
217 233 255
217 233 255
217 233 255
217 233 255
217 233 255
217 233 255
217 233 255
217 233 255
217 233 255
217 233 255
217 233 255
217 233 255
217 233 255
217 233 255
217 233 255
217 233 255
217 233 255
217 233 255
217 233 255
217 233 255
217 233 255
217 233 255
217 233 255
217 233 255
217 233 255
217 233 255
217 233 255
217 233 255
217 233 255
217 233 255
217 233 255
217 233 255
217 233 255
217 233 255
217 233 255
217 233 255
217 233 255
217 233 255
217 233 255
217 233 255
217 233 255
217 233 255
217 233 255
217 233 255
217 233 255
217 233 255
217 233 255
217 233 255
217 233 255
217 233 255
217 233 255
217 233 255
217 233 255
217 233 255
217 233 255
217 233 255
217 233 255
217 233 255
217 233 255
217 233 255
217 233 255
217 233 255
217 233 255
217 233 255
217 233 255
217 233 255
217 233 255
215 231 253
115 123 141
0 0 48
0 0 45
0 0 42
0 0 42
0 0 42
0 0 42
0 0 42
0 0 42
0 0 42
0 0 42
0 0 42
0 0 45
0 0 45
0 0 45
0 0 46
0 0 45
0 0 45
0 0 45
0 0 45
0 0 45
0 0 43
0 0 43
0 0 45
0 0 46
0 0 45
0 0 42
0 0 42
0 0 44
0 0 48
0 0 50
0 0 58
0 9 62
21 27 73
31 34 54
52 59 47
79 85 56
91 88 56
103 96 66
159 152 125
170 165 137
170 165 140
149 139 112
148 133 106
140 124 97
116 103 78
102 93 63
80 77 49
73 71 48
52 55 25
52 57 28
63 64 35
94 90 66
106 98 72
132 114 91
118 107 83
88 86 61
124 112 93
123 112 88
114 106 84
110 100 81
112 100 80
120 104 81
115 101 80
101 95 71
99 90 66
106 97 67
99 95 54
90 90 48
77 86 39
75 85 38
71 84 36
67 82 34
58 75 27
49 70 16
44 65 7
42 63 9
39 59 8
27 48 0
27 48 0
29 49 6
44 68 13
45 73 8
42 72 10
37 61 0
36 60 0
42 68 12
34 59 6
33 58 0
38 61 0
36 60 0
33 59 0
37 60 0
40 60 0
41 61 0
35 56 0
32 52 0
36 57 0
41 62 0
45 64 12
40 62 12
35 56 3
37 60 5
22 46 47
6 16 49
3 8 48
0 0 43
0 0 41
0 0 41
0 0 43
0 0 40
0 0 41
0 0 44
0 0 42
0 0 42
0 0 42
0 0 42
0 0 42
0 0 42
0 0 42
0 0 42
0 0 42
0 0 42
0 0 42
0 0 42
0 0 42
0 0 42
0 0 42
0 0 42
0 0 42
0 0 42
0 0 44
0 0 45
0 0 45
0 0 45
0 0 45
0 0 43
0 0 43
0 0 45
0 0 49
0 0 49
0 0 48
0 0 49
0 0 51
0 0 47
0 0 45
0 0 44
0 0 44
0 0 45
0 0 45
0 0 45
0 0 45
0 0 44
0 0 43
0 0 42
0 0 42
0 0 42
0 0 42
0 0 42
0 0 42
0 0 42
0 0 41
0 0 41
0 0 41
0 0 42
0 0 43
0 0 44
113 121 138
216 232 254
217 233 255
217 233 255
217 233 255
217 233 255
217 233 255
217 233 255
217 233 255
217 233 255
217 233 255
217 233 255
217 233 255
217 233 255
217 233 255
217 233 255
217 233 255
217 233 255
217 233 255
217 233 255
217 233 255
217 233 255
217 233 255
217 233 255
217 233 255
217 233 255
217 233 255
217 233 255
217 233 255
217 233 255
217 233 255
217 233 255
217 233 255
217 233 255
217 233 255
217 233 255
217 233 255
217 233 255
217 233 255
217 233 255
217 233 255
217 233 255
217 233 255
217 233 255
217 233 255
217 233 255
217 233 255
217 233 255
217 233 255
217 233 255
217 233 255
217 233 255
217 233 255
217 233 255
217 233 255
217 233 255
217 233 255
217 233 255
217 233 255
217 233 255
217 233 255
217 233 255
217 233 255
217 233 255
217 233 255
217 233 255
217 233 255
217 233 255
217 233 255
217 233 255
217 233 255
217 233 255
217 233 255
217 233 255
217 233 255
217 233 255
217 233 255
217 233 255
217 233 255
217 233 255
217 233 255
217 233 255
217 233 255
217 233 255
217 233 255
217 233 255
217 233 255
217 233 255
217 233 255
217 233 255
217 233 255
217 233 255
217 233 255
217 233 255
217 233 255
217 233 255
217 233 255
217 233 255
217 233 255
217 233 255
217 233 255
217 233 255
217 233 255
217 233 255
217 233 255
217 233 255
217 233 255
217 233 255
217 233 255
217 233 255
217 233 255
217 233 255
217 233 255
217 233 255
217 233 255
217 233 255
217 233 255
217 233 255
217 233 255
217 233 255
217 233 255
217 233 255
217 233 255
217 233 255
217 233 255
217 233 255
217 233 255
217 233 255
217 233 255
217 233 255
217 233 255
217 233 255
217 233 255
217 233 255
217 233 255
217 233 255
217 233 255
217 233 255
217 233 255
217 233 255
217 233 255
217 233 255
217 233 255
217 233 255
217 233 255
217 233 255
217 233 255
217 233 255
217 233 255
217 233 255
217 233 255
217 233 255
217 233 255
217 233 255
217 233 255
217 233 255
217 233 255
217 233 255
217 233 255
217 233 255
217 233 255
217 233 255
217 233 255
217 233 255
217 233 255
217 233 255
217 233 255
217 233 255
217 233 255
217 233 255
217 233 255
217 233 255
217 233 255
217 233 255
217 233 255
217 233 255
217 233 255
217 233 255
217 233 255
217 233 255
217 233 255
217 233 255
217 233 255
217 233 255
217 233 255
217 233 255
217 233 255
217 233 255
217 233 255
217 233 255
217 233 255
217 233 255
217 233 255
217 233 255
217 233 255
217 233 255
217 233 255
217 233 255
217 233 255
217 233 255
217 233 255
217 233 255
217 233 255
217 233 255
217 233 255
217 233 255
217 233 255
217 233 255
217 233 255
217 233 255
217 233 255
217 233 255
217 233 255
217 233 255
217 233 255
217 233 255
217 233 255
217 233 255
217 233 255
217 233 255
217 233 255
217 233 255
217 233 255
217 233 255
217 233 255
217 233 255
217 233 255
217 233 255
217 233 255
217 233 255
217 233 255
217 233 255
158 170 189
0 0 45
0 0 43
0 0 42
0 0 42
0 0 42
0 0 42
0 0 42
0 0 42
0 0 42
0 0 42
0 0 41
0 0 43
0 0 45
0 0 45
0 0 45
0 0 45
0 0 45
0 0 45
0 0 45
0 0 45
0 0 43
0 0 43
0 0 45
0 0 45
0 0 45
0 0 43
0 0 41
0 0 42
0 0 48
0 0 45
0 0 49
0 0 52
0 0 59
0 5 60
0 5 53
9 5 47
40 44 59
77 75 49
98 97 70
130 126 109
147 142 114
144 132 112
143 124 105
144 129 104
148 132 102
140 130 96
127 115 86
95 88 58
95 90 64
93 85 60
80 76 49
68 69 41
73 71 42
131 114 90
146 131 108
148 137 118
69 68 43
138 126 103
137 121 99
126 112 89
119 106 86
121 105 84
125 106 83
115 101 80
107 96 77
103 92 70
104 97 68
87 89 47
78 83 38
76 84 40
77 88 42
79 93 45
67 82 36
56 72 27
46 65 18
40 58 8
35 52 2
36 54 8
29 49 0
30 51 0
39 61 11
46 70 15
39 65 2
39 65 6
37 60 0
35 58 0
36 60 3
31 55 2
34 59 0
36 59 0
39 63 0
33 58 0
36 59 0
37 57 0
39 57 3
40 58 6
40 59 0
42 62 3
43 62 11
39 58 7
33 55 5
32 52 20
25 47 37
10 22 53
0 0 49
0 0 43
0 0 42
0 0 42
0 0 42
0 0 42
0 0 42
0 0 42
0 0 42
0 0 42
0 0 42
0 0 42
0 0 42
0 0 42
0 0 42
0 0 42
0 0 42
0 0 42
0 0 42
0 0 42
0 0 42
0 0 42
0 0 42
0 0 42
0 0 42
0 0 42
0 0 42
0 0 42
0 0 43
0 0 43
0 0 43
0 0 43
0 0 42
0 0 42
0 0 42
0 0 43
0 0 43
0 0 45
0 0 46
0 0 48
0 0 48
0 0 44
0 0 43
0 0 42
0 0 42
0 0 42
0 0 43
0 0 43
0 0 42
0 0 42
0 0 42
0 0 42
0 0 42
0 0 42
0 0 42
0 0 42
0 0 42
0 0 42
0 0 42
0 0 42
0 0 42
0 0 42
0 0 43
0 0 42
142 153 170
217 233 255
217 233 255
217 233 255
217 233 255
217 233 255
217 233 255
217 233 255
217 233 255
217 233 255
217 233 255
217 233 255
217 233 255
217 233 255
217 233 255
217 233 255
217 233 255
217 233 255
217 233 255
217 233 255
217 233 255
217 233 255
217 233 255
217 233 255
217 233 255
217 233 255
217 233 255
217 233 255
217 233 255
217 233 255
217 233 255
217 233 255
217 233 255
217 233 255
217 233 255
217 233 255
217 233 255
217 233 255
217 233 255
217 233 255
217 233 255
217 233 255
217 233 255
217 233 255
217 233 255
217 233 255
217 233 255
217 233 255
217 233 255
217 233 255
217 233 255
217 233 255
217 233 255
217 233 255
217 233 255
217 233 255
217 233 255
217 233 255
217 233 255
217 233 255
217 233 255
217 233 255
217 233 255
217 233 255
217 233 255
217 233 255
217 233 255
217 233 255
217 233 255
217 233 255
217 233 255
217 233 255
217 233 255
217 233 255
217 233 255
217 233 255
217 233 255
217 233 255
217 233 255
217 233 255
217 233 255
217 233 255
217 233 255
217 233 255
217 233 255
217 233 255
217 233 255
217 233 255
217 233 255
217 233 255
217 233 255
217 233 255
217 233 255
217 233 255
217 233 255
217 233 255
217 233 255
217 233 255
217 233 255
217 233 255
217 233 255
217 233 255
217 233 255
217 233 255
217 233 255
217 233 255
217 233 255
217 233 255
217 233 255
217 233 255
217 233 255
217 233 255
217 233 255
217 233 255
217 233 255
217 233 255
218 233 255
218 233 255
218 233 255
218 233 255
218 233 255
218 233 255
218 233 255
218 233 255
218 233 255
218 233 255
218 233 255
218 233 255
218 233 255
218 233 255
218 233 255
218 233 255
218 233 255
218 233 255
218 233 255
218 233 255
218 233 255
218 233 255
218 233 255
218 233 255
218 233 255
218 233 255
218 233 255
217 233 255
218 233 255
217 233 255
217 233 255
217 233 255
217 233 255
217 233 255
217 233 255
217 233 255
217 233 255
217 233 255
217 233 255
217 233 255
217 233 255
217 233 255
217 233 255
217 233 255
217 233 255
217 233 255
217 233 255
217 233 255
217 233 255
217 233 255
217 233 255
217 233 255
217 233 255
217 233 255
217 233 255
217 233 255
217 233 255
217 233 255
217 233 255
217 233 255
217 233 255
217 233 255
217 233 255
217 233 255
217 233 255
217 233 255
217 233 255
217 233 255
217 233 255
217 233 255
217 233 255
217 233 255
217 233 255
217 233 255
217 233 255
217 233 255
217 233 255
217 233 255
217 233 255
217 233 255
217 233 255
217 233 255
217 233 255
217 233 255
217 233 255
217 233 255
217 233 255
217 233 255
217 233 255
217 233 255
217 233 255
217 233 255
217 233 255
217 233 255
217 233 255
217 233 255
217 233 255
217 233 255
217 233 255
217 233 255
217 233 255
217 233 255
217 233 255
217 233 255
217 233 255
217 233 255
217 233 255
217 233 255
217 233 255
217 233 255
217 233 255
217 233 255
217 233 255
217 233 255
187 201 221
21 23 52
0 0 43
0 0 42
0 0 42
0 0 42
0 0 42
0 0 42
0 0 42
0 0 42
0 0 42
0 0 42
0 0 42
0 0 45
0 0 45
0 0 45
0 0 45
0 0 45
0 0 45
0 0 45
0 0 45
0 0 44
0 0 44
0 0 43
0 0 43
0 0 42
0 0 42
0 0 42
0 0 42
0 0 44
0 0 45
0 0 43
0 0 45
0 0 54
0 0 53
0 0 52
0 0 56
0 0 48
4 1 45
62 60 58
108 107 80
163 167 136
154 147 110
153 142 111
171 153 122
182 151 129
142 130 97
146 129 102
137 124 98
99 91 62
101 92 64
119 108 82
127 112 86
125 109 86
129 114 90
143 125 100
157 136 111
151 131 107
135 125 96
135 124 91
153 131 103
134 115 93
126 108 88
125 106 84
127 109 87
114 100 82
111 100 81
101 93 71
93 91 58
84 90 49
80 89 48
79 87 46
76 85 38
73 86 37
59 74 26
52 68 22
46 64 15
41 58 8
35 52 3
39 58 11
28 48 0
27 47 0
44 66 16
42 65 15
31 54 1
35 57 5
31 52 0
29 52 0
29 52 0
28 52 0
35 60 0
38 62 0
41 66 0
36 60 0
37 59 0
40 59 2
45 62 12
49 68 17
43 63 3
38 58 0
45 62 12
36 56 9
32 53 25
15 32 54
0 8 50
0 0 44
0 0 43
0 0 39
0 0 42
0 0 42
0 0 42
0 0 42
0 0 42
0 0 42
0 0 42
0 0 42
0 0 42
0 0 42
0 0 42
0 0 42
0 0 42
0 0 42
0 0 42
0 0 42
0 0 42
0 0 42
0 0 42
0 0 42
0 0 42
0 0 42
0 0 42
0 0 42
0 0 42
0 0 42
0 0 42
0 0 42
0 0 42
0 0 42
0 0 42
0 0 42
0 0 42
0 0 42
0 0 42
0 0 42
0 0 42
0 0 42
0 0 42
0 0 42
0 0 42
0 0 42
0 0 42
0 0 42
0 0 42
0 0 42
0 0 42
0 0 42
0 0 42
0 0 42
0 0 42
0 0 42
0 0 42
0 0 42
0 0 42
0 0 42
0 0 42
0 0 42
0 0 42
0 0 42
0 0 42
0 0 42
0 0 42
180 194 213
217 233 255
217 233 255
217 233 255
217 233 255
217 233 255
217 233 255
217 233 255
217 233 255
217 233 255
217 233 255
217 233 255
217 233 255
217 233 255
217 233 255
217 233 255
217 233 255
217 233 255
217 233 255
217 233 255
217 233 255
217 233 255
217 233 255
217 233 255
217 233 255
217 233 255
217 233 255
217 233 255
217 233 255
217 233 255
217 233 255
217 233 255
217 233 255
217 233 255
217 233 255
217 233 255
217 233 255
217 233 255
217 233 255
217 233 255
217 233 255
217 233 255
217 233 255
217 233 255
217 233 255
217 233 255
217 233 255
217 233 255
217 233 255
217 233 255
217 233 255
217 233 255
217 233 255
217 233 255
217 233 255
217 233 255
217 233 255
217 233 255
217 233 255
217 233 255
217 233 255
217 233 255
217 233 255
217 233 255
217 233 255
217 233 255
217 233 255
217 233 255
217 233 255
217 233 255
217 233 255
217 233 255
217 233 255
217 233 255
217 233 255
217 233 255
217 233 255
217 233 255
217 233 255
217 233 255
217 233 255
217 233 255
217 233 255
217 233 255
217 233 255
218 233 255
217 233 255
217 233 255
218 233 255
218 233 255
218 233 255
218 233 255
218 233 255
218 233 255
218 233 255
218 233 255
218 233 255
218 233 255
218 233 255
218 233 255
218 233 255
218 233 255
218 233 255
218 233 255
218 233 255
218 233 255
218 233 255
218 233 255
218 233 255
218 233 255
218 233 255
218 233 255
218 233 255
218 233 255
218 233 255
218 233 255
218 233 255
218 233 255
218 233 255
218 233 255
218 233 255
218 233 255
218 233 255
218 233 255
218 233 255
218 233 255
218 233 255
218 233 255
218 233 255
218 233 255
218 233 255
218 233 255
218 233 255
218 233 255
218 233 255
218 233 255
218 233 255
218 233 255
218 233 255
218 233 255
218 233 255
218 233 255
218 233 255
218 233 255
218 233 255
218 233 255
218 233 255
218 233 255
218 233 255
218 233 255
218 233 255
218 233 255
218 233 255
218 233 255
218 233 255
218 233 255
218 233 255
218 233 255
218 233 255
218 233 255
218 233 255
218 233 255
218 233 255
218 233 255
218 233 255
218 233 255
218 233 255
218 233 255
218 233 255
218 233 255
218 233 255
218 233 255
218 233 255
218 233 255
218 233 255
218 233 255
218 233 255
218 233 255
218 233 255
218 233 255
218 233 255
218 233 255
218 233 255
218 233 255
217 233 255
217 233 255
218 233 255
217 233 255
217 233 255
217 233 255
217 233 255
217 233 255
217 233 255
217 233 255
217 233 255
217 233 255
217 233 255
217 233 255
217 233 255
217 233 255
217 233 255
217 233 255
217 233 255
217 233 255
217 233 255
217 233 255
217 233 255
217 233 255
217 233 255
217 233 255
217 233 255
217 233 255
217 233 255
217 233 255
217 233 255
217 233 255
217 233 255
217 233 255
217 233 255
217 233 255
217 233 255
217 233 255
217 233 255
217 233 255
217 233 255
217 233 255
217 233 255
217 233 255
204 219 240
72 77 94
0 0 42
0 0 42
0 0 42
0 0 42
0 0 42
0 0 42
0 0 42
0 0 42
0 0 42
0 0 42
0 0 42
0 0 43
0 0 45
0 0 45
0 0 45
0 0 45
0 0 45
0 0 45
0 0 45
0 0 45
0 0 45
0 0 44
0 0 42
0 0 42
0 0 42
0 0 42
0 0 42
0 0 43
0 0 45
0 0 42
0 0 43
0 0 48
0 0 51
0 0 47
0 0 52
0 0 55
0 0 47
5 4 48
76 72 59
101 95 71
164 157 135
151 143 109
197 190 154
172 167 136
160 139 117
146 128 105
133 114 89
125 116 88
103 98 70
117 107 79
108 97 67
140 126 101
141 124 100
157 137 114
172 142 118
161 138 110
161 139 112
161 146 115
147 133 96
171 151 122
157 137 112
148 128 104
149 128 101
149 133 108
121 110 85
107 100 76
104 100 75
88 91 56
79 86 46
83 91 53
81 87 45
74 81 32
73 84 33
56 71 20
45 64 12
36 54 0
35 52 0
29 48 0
24 44 0
30 52 0
28 49 0
36 59 0
31 55 0
27 50 0
28 50 0
31 53 0
30 52 0
27 50 0
25 47 0
31 55 0
34 57 0
35 58 0
39 61 5
41 62 10
44 64 12
46 65 13
49 70 15
46 67 8
42 63 0
40 60 0
31 53 16
15 35 67
0 5 59
0 0 45
0 0 40
0 0 44
0 0 40
0 0 42
0 0 42
0 0 42
0 0 42
0 0 42
0 0 42
0 0 42
0 0 42
0 0 42
0 0 42
0 0 42
0 0 42
0 0 42
0 0 42
0 0 42
0 0 42
0 0 42
0 0 42
0 0 42
0 0 42
0 0 42
0 0 42
0 0 42
0 0 42
0 0 42
0 0 42
0 0 42
0 0 42
0 0 42
0 0 42
0 0 42
0 0 42
0 0 42
0 0 42
0 0 42
0 0 42
0 0 42
0 0 42
0 0 42
0 0 42
0 0 42
0 0 42
0 0 42
0 0 42
0 0 42
0 0 42
0 0 42
0 0 42
0 0 42
0 0 42
0 0 42
0 0 42
0 0 42
0 0 42
0 0 42
0 0 42
0 0 42
0 0 42
0 0 42
0 0 42
0 0 42
0 0 42
0 0 42
48 52 70
199 214 235
217 233 255
217 233 255
217 233 255
217 233 255
217 233 255
217 233 255
217 233 255
217 233 255
217 233 255
217 233 255
217 233 255
217 233 255
217 233 255
217 233 255
217 233 255
217 233 255
217 233 255
217 233 255
217 233 255
217 233 255
217 233 255
217 233 255
217 233 255
217 233 255
217 233 255
217 233 255
217 233 255
217 233 255
217 233 255
217 233 255
217 233 255
217 233 255
217 233 255
217 233 255
217 233 255
217 233 255
217 233 255
217 233 255
217 233 255
217 233 255
217 233 255
217 233 255
218 233 255
217 233 255
218 233 255
218 233 255
218 233 255
218 233 255
218 233 255
218 233 255
218 233 255
218 233 255
218 233 255
218 233 255
218 233 255
218 233 255
218 233 255
218 233 255
218 233 255
218 233 255
218 233 255
218 233 255
218 233 255
218 233 255
218 233 255
218 233 255
218 233 255
218 233 255
218 233 255
218 233 255
218 233 255
218 233 255
218 233 255
218 233 255
218 233 255
218 233 255
218 233 255
218 233 255
218 233 255
218 233 255
218 233 255
218 233 255
218 233 255
218 233 255
218 233 255
218 233 255
218 233 255
218 233 255
218 233 255
218 233 255
218 233 255
218 233 255
218 233 255
218 233 255
218 233 255
218 233 255
218 233 255
218 233 255
218 233 255
218 233 255
218 233 255
218 233 255
218 233 255
218 233 255
218 233 255
218 233 255
218 233 255
218 233 255
218 233 255
218 233 255
218 233 255
218 233 255
218 233 255
218 234 255
218 234 255
218 234 255
218 234 255
218 234 255
218 234 255
218 234 255
218 234 255
218 234 255
218 234 255
218 234 255
218 234 255
218 234 255
218 234 255
218 234 255
218 234 255
218 234 255
218 234 255
218 234 255
218 234 255
218 234 255
218 234 255
218 234 255
218 234 255
218 234 255
218 234 255
218 234 255
218 234 255
218 234 255
218 234 255
218 234 255
218 234 255
218 234 255
218 233 255
218 233 255
218 233 255
218 233 255
218 233 255
218 233 255
218 233 255
218 233 255
218 233 255
218 233 255
218 233 255
218 233 255
218 233 255
218 233 255
218 233 255
218 233 255
218 233 255
218 233 255
218 233 255
218 233 255
218 233 255
218 233 255
218 233 255
218 233 255
218 233 255
218 233 255
218 233 255
218 233 255
218 233 255
218 233 255
218 233 255
218 233 255
218 233 255
218 233 255
218 233 255
218 233 255
218 233 255
218 233 255
218 233 255
218 233 255
218 233 255
218 233 255
218 233 255
218 233 255
218 233 255
218 233 255
218 233 255
218 233 255
218 233 255
218 233 255
218 233 255
218 233 255
218 233 255
218 233 255
218 233 255
218 233 255
218 233 255
218 233 255
218 233 255
218 233 255
218 233 255
218 233 255
218 233 255
218 233 255
218 233 255
218 233 255
218 233 255
218 233 255
218 233 255
218 233 255
218 233 255
218 233 255
218 233 255
218 233 255
218 233 255
218 233 255
218 233 255
218 233 255
218 233 255
216 232 254
102 109 126
0 0 42
0 0 42
0 0 42
0 0 42
0 0 42
0 0 42
0 0 42
0 0 42
0 0 42
0 0 42
0 0 42
0 0 42
0 0 45
0 0 45
0 0 45
0 0 45
0 0 45
0 0 45
0 0 45
0 0 45
0 0 44
0 0 44
0 0 42
0 0 42
0 0 42
0 0 42
0 0 42
0 0 42
0 0 42
0 0 42
0 0 40
0 0 44
0 0 45
0 0 44
0 0 43
0 0 48
0 0 50
0 0 46
0 0 47
51 50 53
102 94 66
151 137 111
113 113 113
134 146 127
163 156 129
169 151 117
138 121 97
117 107 83
86 86 57
86 83 52
108 102 73
99 92 66
119 107 82
137 125 98
153 141 115
200 181 154
161 153 120
148 133 103
162 138 112
159 142 113
166 145 111
174 156 124
164 146 113
167 149 112
155 139 101
119 111 77
104 101 71
98 97 68
86 89 52
75 81 43
77 83 45
80 87 44
80 89 39
70 81 31
55 68 18
45 65 13
32 50 5
29 48 0
27 44 0
30 48 0
26 48 0
34 56 0
39 65 0
31 56 0
28 53 0
35 55 0
30 52 0
35 54 0
33 51 0
31 54 6
34 60 0
34 59 5
40 62 8
45 67 13
50 71 19
47 68 15
45 66 7
46 68 10
41 63 8
36 57 0
36 57 0
26 54 40
6 27 77
0 0 43
0 0 46
0 0 46
0 0 39
0 0 41
0 0 43
0 0 42
0 0 42
0 0 40
0 0 42
0 0 42
0 0 42
0 0 42
0 0 42
0 0 42
0 0 42
0 0 42
0 0 42
0 0 42
0 0 42
0 0 42
0 0 42
0 0 42
0 0 42
0 0 42
0 0 42
0 0 42
0 0 42
0 0 42
0 0 42
0 0 42
0 0 42
0 0 42
0 0 42
0 0 42
0 0 42
0 0 42
0 0 42
0 0 42
0 0 42
0 0 42
0 0 42
0 0 42
0 0 42
0 0 42
0 0 42
0 0 42
0 0 42
0 0 42
0 0 42
0 0 42
0 0 42
0 0 42
0 0 42
0 0 42
0 0 42
0 0 42
0 0 42
0 0 42
0 0 42
0 0 42
0 0 42
0 0 42
0 0 42
0 0 42
0 0 42
0 0 42
0 0 42
0 0 42
109 116 133
213 229 250
218 233 255
218 233 255
218 233 255
218 233 255
218 233 255
218 233 255
218 233 255
218 233 255
218 233 255
218 233 255
218 233 255
218 233 255
218 233 255
218 233 255
218 233 255
218 233 255
218 233 255
218 233 255
218 233 255
218 233 255
218 233 255
218 233 255
218 233 255
218 233 255
218 233 255
218 233 255
218 233 255
218 233 255
218 233 255
218 233 255
218 233 255
218 233 255
218 233 255
218 233 255
218 233 255
218 233 255
218 233 255
218 233 255
218 233 255
218 233 255
218 233 255
218 233 255
218 233 255
218 233 255
218 233 255
218 233 255
218 233 255
218 233 255
218 233 255
218 233 255
218 233 255
218 233 255
218 233 255
218 233 255
218 233 255
218 233 255
218 233 255
218 233 255
218 233 255
218 233 255
218 233 255
218 233 255
218 233 255
218 233 255
218 233 255
218 233 255
218 233 255
218 233 255
218 233 255
218 233 255
218 233 255
218 233 255
218 233 255
218 233 255
218 233 255
218 233 255
218 234 255
218 233 255
218 233 255
218 234 255
218 234 255
218 234 255
218 234 255
218 234 255
218 234 255
218 234 255
218 234 255
218 234 255
218 234 255
218 234 255
218 234 255
218 234 255
218 234 255
218 234 255
218 234 255
218 234 255
218 234 255
218 234 255
218 234 255
218 234 255
218 234 255
218 234 255
218 234 255
218 234 255
218 234 255
218 234 255
218 234 255
218 234 255
218 234 255
218 234 255
218 234 255
218 234 255
218 234 255
218 234 255
218 234 255
218 234 255
218 234 255
218 234 255
218 234 255
218 234 255
218 234 255
218 234 255
218 234 255
218 234 255
218 234 255
218 234 255
218 234 255
218 234 255
218 234 255
218 234 255
218 234 255
218 234 255
218 234 255
218 234 255
218 234 255
218 234 255
218 234 255
218 234 255
218 234 255
218 234 255
218 234 255
218 234 255
218 234 255
218 234 255
218 234 255
218 234 255
218 234 255
218 234 255
218 234 255
218 234 255
218 234 255
218 234 255
218 234 255
218 234 255
218 234 255
218 234 255
218 234 255
218 234 255
218 234 255
218 234 255
218 234 255
218 234 255
218 234 255
218 234 255
218 234 255
218 234 255
218 234 255
218 234 255
218 234 255
218 234 255
218 234 255
218 234 255
218 234 255
218 234 255
218 234 255
218 234 255
218 234 255
218 234 255
218 234 255
218 234 255
218 234 255
218 234 255
218 234 255
218 234 255
218 234 255
218 234 255
218 234 255
218 234 255
218 234 255
218 234 255
218 234 255
218 234 255
218 234 255
218 234 255
218 233 255
218 234 255
218 233 255
218 233 255
218 233 255
218 233 255
218 233 255
218 233 255
218 233 255
218 233 255
218 233 255
218 233 255
218 233 255
218 233 255
218 233 255
218 233 255
218 233 255
218 233 255
218 233 255
218 233 255
218 233 255
218 233 255
218 233 255
218 233 255
218 233 255
218 233 255
218 233 255
218 233 255
218 233 255
218 233 255
160 171 190
0 0 42
0 0 42
0 0 42
0 0 42
0 0 42
0 0 42
0 0 42
0 0 42
0 0 42
0 0 42
0 0 42
0 0 42
0 0 42
0 0 44
0 0 44
0 0 43
0 0 44
0 0 45
0 0 45
0 0 43
0 0 42
0 0 42
0 0 42
0 0 42
0 0 42
0 0 42
0 0 42
0 0 42
0 0 42
0 0 42
0 0 40
0 0 42
0 0 42
0 0 41
0 0 42
0 0 42
0 0 45
0 0 43
0 0 43
0 0 54
39 39 61
97 89 67
153 147 122
45 47 85
0 0 49
77 71 88
158 141 112
129 114 91
105 97 73
79 86 56
78 82 42
92 96 64
88 88 60
112 105 78
122 110 84
143 126 101
165 153 125
147 130 104
138 124 99
133 120 97
128 115 91
108 96 72
137 126 97
149 134 97
129 118 85
107 106 74
100 97 64
96 94 61
89 88 55
79 81 47
72 79 43
72 78 35
73 78 39
67 83 33
62 76 20
59 71 24
35 56 0
35 51 9
32 52 0
31 53 1
34 53 0
42 68 10
52 75 21
45 67 5
37 66 13
33 62 4
28 76 42
32 64 26
31 82 48
27 78 66
34 102 74
37 73 40
30 50 36
34 51 43
37 55 24
42 63 6
38 59 8
34 59 0
37 60 8
41 61 8
34 54 3
37 56 0
34 56 36
6 21 60
0 0 47
0 0 44
0 0 41
0 0 43
0 0 42
0 0 42
0 0 42
0 0 42
0 0 42
0 0 42
0 0 42
0 0 42
0 0 42
0 0 42
0 0 42
0 0 42
0 0 42
0 0 42
0 0 42
0 0 42
0 0 42
0 0 42
0 0 42
0 0 42
0 0 42
0 0 42
0 0 42
0 0 42
0 0 42
0 0 42
0 0 42
0 0 42
0 0 42
0 0 42
0 0 42
0 0 42
0 0 42
0 0 42
0 0 42
0 0 42
0 0 42
0 0 42
0 0 42
0 0 42
0 0 42
0 0 42
0 0 42
0 0 42
0 0 42
0 0 42
0 0 42
0 0 42
0 0 42
0 0 42
0 0 42
0 0 42
0 0 42
0 0 42
0 0 42
0 0 42
0 0 42
0 0 42
0 0 42
0 0 42
0 0 42
0 0 42
0 0 42
0 0 42
0 0 42
0 0 42
137 147 165
218 233 255
218 233 255
218 233 255
218 233 255
218 233 255
218 233 255
218 233 255
218 233 255
218 233 255
218 233 255
218 233 255
218 233 255
218 233 255
218 233 255
218 233 255
218 233 255
218 233 255
218 233 255
218 233 255
218 233 255
218 233 255
218 233 255
218 233 255
218 233 255
218 233 255
218 233 255
218 233 255
218 233 255
218 233 255
218 233 255
218 233 255
218 234 255
218 233 255
218 234 255
218 234 255
218 234 255
218 234 255
218 234 255
218 234 255
218 234 255
218 234 255
218 234 255
218 234 255
218 234 255
218 234 255
218 234 255
218 234 255
218 234 255
218 234 255
218 234 255
218 234 255
218 234 255
218 234 255
218 234 255
218 234 255
218 234 255
218 234 255
218 234 255
218 234 255
218 234 255
218 234 255
218 234 255
218 234 255
218 234 255
218 234 255
218 234 255
218 234 255
218 234 255
218 234 255
218 234 255
218 234 255
218 234 255
218 234 255
218 234 255
218 234 255
218 234 255
218 234 255
218 234 255
218 234 255
218 234 255
218 234 255
218 234 255
218 234 255
218 234 255
218 234 255
218 234 255
218 234 255
218 234 255
218 234 255
218 234 255
218 234 255
218 234 255
218 234 255
218 234 255
218 234 255
218 234 255
218 234 255
218 234 255
218 234 255
218 234 255
218 234 255
218 234 255
218 234 255
218 234 255
218 234 255
218 234 255
218 234 255
218 234 255
218 234 255
218 234 255
218 234 255
218 234 255
218 234 255
218 234 255
218 234 255
218 234 255
218 234 255
218 234 255
218 234 255
218 234 255
218 234 255
218 234 255
218 234 255
218 234 255
218 234 255
218 234 255
218 234 255
218 234 255
218 234 255
218 234 255
218 234 255
218 234 255
218 234 255
218 234 255
218 234 255
218 234 255
218 234 255
218 234 255
218 234 255
218 234 255
218 234 255
218 234 255
218 234 255
218 234 255
218 234 255
218 234 255
218 234 255
218 234 255
218 234 255
218 234 255
218 234 255
218 234 255
218 234 255
218 234 255
218 234 255
218 234 255
218 234 255
218 234 255
218 234 255
218 234 255
218 234 255
218 234 255
218 234 255
218 234 255
218 234 255
218 234 255
218 234 255
218 234 255
218 234 255
218 234 255
218 234 255
218 234 255
218 234 255
218 234 255
218 234 255
218 234 255
218 234 255
218 234 255
218 234 255
218 234 255
218 234 255
218 234 255
218 234 255
218 234 255
218 234 255
218 234 255
218 234 255
218 234 255
218 234 255
218 234 255
218 234 255
218 234 255
218 234 255
218 234 255
218 234 255
218 234 255
218 234 255
218 234 255
218 234 255
218 234 255
218 234 255
218 234 255
218 234 255
218 234 255
218 234 255
218 234 255
218 234 255
218 234 255
218 234 255
218 234 255
218 234 255
218 234 255
218 234 255
218 234 255
218 234 255
218 234 255
218 234 255
218 234 255
218 234 255
218 234 255
218 234 255
218 234 255
218 234 255
191 205 225
0 0 42
0 0 42
0 0 42
0 0 42
0 0 42
0 0 42
0 0 42
0 0 42
0 0 42
0 0 42
0 0 42
0 0 42
0 0 42
0 0 42
0 0 42
0 0 42
0 0 42
0 0 45
0 0 45
0 0 44
0 0 42
0 0 42
0 0 42
0 0 42
0 0 42
0 0 42
0 0 42
0 0 42
0 0 42
0 0 42
0 0 42
0 0 42
0 0 42
0 0 41
0 0 43
0 0 44
0 0 45
0 0 43
0 0 46
0 0 50
0 0 46
22 21 56
96 87 67
129 121 102
42 40 70
0 0 55
46 46 70
144 131 102
117 113 87
113 111 77
81 85 51
64 78 29
71 78 39
64 69 34
73 72 41
112 104 78
132 117 94
132 117 91
130 117 91
153 137 110
130 124 96
120 107 80
123 111 85
129 117 83
129 118 83
131 122 90
117 110 76
99 96 65
91 93 60
76 84 48
68 78 38
71 79 38
70 78 35
69 80 27
59 74 23
62 73 26
58 71 21
63 80 26
46 64 21
42 63 16
39 71 38
34 68 52
45 69 32
43 72 25
38 79 43
41 59 19
37 62 6
36 79 55
27 89 67
11 143 160
0 70 121
0 31 81
0 9 60
0 0 51
0 0 44
2 5 58
17 34 46
23 50 34
14 46 54
20 54 60
42 61 25
45 70 20
40 63 6
40 55 18
16 33 47
0 0 47
0 0 44
0 0 42
0 0 40
0 0 42
0 0 42
0 0 42
0 0 42
0 0 42
0 0 42
0 0 42
0 0 42
0 0 42
0 0 42
0 0 42
0 0 42
0 0 42
0 0 42
0 0 42
0 0 42
0 0 42
0 0 42
0 0 42
0 0 42
0 0 42
0 0 42
0 0 42
0 0 42
0 0 42
0 0 42
0 0 42
0 0 42
0 0 42
0 0 42
0 0 42
0 0 42
0 0 42
0 0 42
0 0 42
0 0 42
0 0 42
0 0 42
0 0 42
0 0 42
0 0 42
0 0 42
0 0 42
0 0 42
0 0 42
0 0 42
0 0 42
0 0 42
0 0 42
0 0 42
0 0 42
0 0 42
0 0 42
0 0 42
0 0 42
0 0 42
0 0 42
0 0 42
0 0 42
0 0 42
0 0 42
0 0 42
0 0 42
0 0 42
0 0 42
0 0 42
0 0 42
192 206 226
218 234 255
218 234 255
218 234 255
218 234 255
218 234 255
218 234 255
218 234 255
218 234 255
218 234 255
218 234 255
218 234 255
218 234 255
218 234 255
218 234 255
218 234 255
218 234 255
218 234 255
218 234 255
218 234 255
218 234 255
218 234 255
218 234 255
218 234 255
218 234 255
218 234 255
218 234 255
218 234 255
218 234 255
218 234 255
218 234 255
218 234 255
218 234 255
218 234 255
218 234 255
218 234 255
218 234 255
218 234 255
218 234 255
218 234 255
218 234 255
218 234 255
218 234 255
218 234 255
218 234 255
218 234 255
218 234 255
218 234 255
218 234 255
218 234 255
218 234 255
218 234 255
218 234 255
218 234 255
218 234 255
218 234 255
218 234 255
218 234 255
218 234 255
218 234 255
218 234 255
218 234 255
218 234 255
218 234 255
218 234 255
218 234 255
218 234 255
218 234 255
218 234 255
218 234 255
218 234 255
218 234 255
218 234 255
218 234 255
218 234 255
218 234 255
218 234 255
218 234 255
218 234 255
218 234 255
218 234 255
218 234 255
218 234 255
218 234 255
218 234 255
218 234 255
218 234 255
218 234 255
218 234 255
218 234 255
218 234 255
218 234 255
218 234 255
218 234 255
218 234 255
218 234 255
218 234 255
218 234 255
218 234 255
218 234 255
218 234 255
218 234 255
218 234 255
218 234 255
218 234 255
218 234 255
218 234 255
218 234 255
218 234 255
218 234 255
218 234 255
218 234 255
218 234 255
218 234 255
218 234 255
218 234 255
218 234 255
218 234 255
218 234 255
218 234 255
218 234 255
218 234 255
218 234 255
218 234 255
218 234 255
218 234 255
218 234 255
218 234 255
218 234 255
218 234 255
218 234 255
218 234 255
218 234 255
218 234 255
218 234 255
218 234 255
218 234 255
218 234 255
218 234 255
218 234 255
218 234 255
218 234 255
218 234 255
218 234 255
218 234 255
218 234 255
218 234 255
218 234 255
218 234 255
218 234 255
218 234 255
218 234 255
218 234 255
218 234 255
218 234 255
218 234 255
218 234 255
218 234 255
218 234 255
218 234 255
218 234 255
218 234 255
218 234 255
218 234 255
218 234 255
218 234 255
218 234 255
218 234 255
218 234 255
218 234 255
218 234 255
218 234 255
218 234 255
218 234 255
218 234 255
218 234 255
218 234 255
218 234 255
218 234 255
218 234 255
218 234 255
218 234 255
218 234 255
218 234 255
218 234 255
218 234 255
218 234 255
218 234 255
218 234 255
218 234 255
218 234 255
218 234 255
218 234 255
218 234 255
218 234 255
218 234 255
218 234 255
218 234 255
218 234 255
218 234 255
218 234 255
218 234 255
218 234 255
218 234 255
218 234 255
218 234 255
218 234 255
218 234 255
218 234 255
218 234 255
218 234 255
218 234 255
218 234 255
218 234 255
218 234 255
218 234 255
218 234 255
218 234 255
218 234 255
218 234 255
218 234 255
218 234 255
212 228 249
87 93 109
0 0 42
0 0 42
0 0 42
0 0 42
0 0 42
0 0 42
0 0 42
0 0 42
0 0 42
0 0 42
0 0 42
0 0 42
0 0 42
0 0 42
0 0 42
0 0 43
0 0 43
0 0 45
0 0 45
0 0 42
0 0 42
0 0 42
0 0 42
0 0 42
0 0 42
0 0 42
0 0 42
0 0 42
0 0 42
0 0 42
0 0 42
0 0 42
0 0 42
0 0 42
0 0 41
0 0 41
0 0 42
0 0 41
0 0 43
0 0 49
0 0 49
18 15 62
115 103 79
129 115 94
60 59 80
0 8 61
36 42 74
126 117 100
118 113 89
107 102 73
79 87 45
62 80 39
59 73 30
51 62 23
50 56 24
83 80 54
95 85 62
107 95 75
135 122 94
133 119 84
131 122 91
129 118 90
136 124 96
128 120 86
113 107 75
116 109 79
128 121 87
105 103 74
84 88 55
69 80 41
66 77 35
72 81 37
74 84 37
73 78 32
71 77 41
56 75 24
52 72 14
55 72 20
39 72 64
17 52 87
13 54 87
2 37 83
12 42 91
16 96 116
16 128 141
16 98 112
29 67 54
22 65 61
23 91 88
21 119 121
0 60 107
0 2 61
0 0 48
0 0 50
0 0 46
0 0 38
3 8 48
6 16 53
0 9 49
3 18 58
18 55 78
44 63 33
49 69 19
36 55 7
24 39 32
7 12 43
0 0 40
0 0 43
0 0 39
0 0 42
0 0 42
0 0 42
0 0 42
0 0 42
0 0 42
0 0 42
0 0 42
0 0 42
0 0 42
0 0 42
0 0 42
0 0 42
0 0 42
0 0 42
0 0 42
0 0 42
0 0 42
0 0 42
0 0 42
0 0 42
0 0 42
0 0 42
0 0 42
0 0 42
0 0 42
0 0 42
0 0 42
0 0 42
0 0 42
0 0 42
0 0 42
0 0 42
0 0 42
0 0 42
0 0 42
0 0 42
0 0 42
0 0 42
0 0 42
0 0 42
0 0 42
0 0 42
0 0 42
0 0 42
0 0 42
0 0 42
0 0 42
0 0 42
0 0 42
0 0 42
0 0 42
0 0 42
0 0 42
0 0 42
0 0 42
0 0 42
0 0 42
0 0 42
0 0 42
0 0 42
0 0 42
0 0 42
0 0 42
0 0 42
0 0 42
0 0 42
78 84 99
208 223 244
218 234 255
218 234 255
218 234 255
218 234 255
218 234 255
218 234 255
218 234 255
218 234 255
218 234 255
218 234 255
218 234 255
218 234 255
218 234 255
218 234 255
218 234 255
218 234 255
218 234 255
218 234 255
218 234 255
218 234 255
218 234 255
218 234 255
218 234 255
218 234 255
218 234 255
218 234 255
218 234 255
218 234 255
218 234 255
218 234 255
218 234 255
218 234 255
218 234 255
218 234 255
218 234 255
218 234 255
218 234 255
218 234 255
218 234 255
218 234 255
218 234 255
218 234 255
218 234 255
218 234 255
218 234 255
218 234 255
218 234 255
218 234 255
218 234 255
218 234 255
218 234 255
218 234 255
218 234 255
218 234 255
218 234 255
218 234 255
218 234 255
218 234 255
218 234 255
218 234 255
218 234 255
218 234 255
218 234 255
218 234 255
218 234 255
218 234 255
218 234 255
218 234 255
218 234 255
218 234 255
218 234 255
218 234 255
218 234 255
218 234 255
218 234 255
218 234 255
218 234 255
218 234 255
218 234 255
218 234 255
218 234 255
218 234 255
218 234 255
218 234 255
218 234 255
218 234 255
218 234 255
218 234 255
218 234 255
218 234 255
218 234 255
218 234 255
218 234 255
218 234 255
218 234 255
218 234 255
218 234 255
218 234 255
218 234 255
218 234 255
218 234 255
218 234 255
218 234 255
218 234 255
218 234 255
218 234 255
218 234 255
218 234 255
218 234 255
218 234 255
218 234 255
218 234 255
218 234 255
218 234 255
218 234 255
218 234 255
218 234 255
218 234 255
218 234 255
218 234 255
218 234 255
218 234 255
218 234 255
218 234 255
218 234 255
218 234 255
218 234 255
218 234 255
218 234 255
218 234 255
218 234 255
218 234 255
218 234 255
218 234 255
218 234 255
218 234 255
218 234 255
218 234 255
218 234 255
218 234 255
218 234 255
218 234 255
218 234 255
218 234 255
218 234 255
218 234 255
218 234 255
218 234 255
218 234 255
218 234 255
218 234 255
218 234 255
218 234 255
218 234 255
218 234 255
218 234 255
218 234 255
218 234 255
218 234 255
218 234 255
218 234 255
218 234 255
218 234 255
218 234 255
218 234 255
218 234 255
218 234 255
218 234 255
218 234 255
218 234 255
218 234 255
218 234 255
218 234 255
218 234 255
218 234 255
218 234 255
218 234 255
218 234 255
218 234 255
218 234 255
218 234 255
218 234 255
218 234 255
218 234 255
218 234 255
218 234 255
218 234 255
218 234 255
218 234 255
218 234 255
218 234 255
218 234 255
218 234 255
218 234 255
218 234 255
218 234 255
218 234 255
218 234 255
218 234 255
218 234 255
218 234 255
218 234 255
218 234 255
218 234 255
218 234 255
218 234 255
218 234 255
218 234 255
218 234 255
218 234 255
218 234 255
218 234 255
218 234 255
218 234 255
218 234 255
218 234 255
218 234 255
218 234 255
218 234 255
218 234 255
130 140 157
0 0 42
0 0 42
0 0 42
0 0 42
0 0 42
0 0 42
0 0 42
0 0 42
0 0 42
0 0 42
0 0 42
0 0 42
0 0 42
0 0 42
0 0 42
0 0 44
0 0 45
0 0 45
0 0 45
0 0 43
0 0 42
0 0 42
0 0 42
0 0 42
0 0 42
0 0 42
0 0 42
0 0 42
0 0 42
0 0 42
0 0 42
0 0 42
0 0 42
0 0 42
0 0 42
0 0 40
0 0 40
0 0 40
0 0 42
0 0 42
0 0 42
0 0 46
8 7 59
43 46 79
101 99 89
128 111 93
37 44 85
11 43 106
121 118 112
162 147 118
120 117 85
87 98 53
57 77 27
51 71 21
50 65 24
54 62 30
77 76 49
84 82 56
100 89 65
141 128 99
130 119 88
146 129 102
119 105 79
128 113 84
127 119 86
100 95 64
84 80 52
90 87 57
107 106 75
102 103 71
93 97 61
79 85 46
85 91 52
83 90 53
71 84 40
64 76 30
58 81 39
44 73 52
31 67 70
7 40 77
0 15 72
0 0 56
0 0 51
0 0 39
0 8 53
0 45 82
0 79 113
5 71 104
4 57 97
0 65 99
6 69 104
1 46 90
0 6 49
0 0 45
0 0 40
0 0 40
0 0 38
0 0 41
0 0 47
0 0 46
0 0 57
0 18 64
18 61 85
58 73 29
49 67 24
46 62 11
22 33 42
0 0 42
0 0 43
0 0 40
0 0 41
0 0 42
0 0 42
0 0 42
0 0 42
0 0 42
0 0 42
0 0 42
0 0 42
0 0 42
0 0 42
0 0 42
0 0 42
0 0 42
0 0 42
0 0 42
0 0 42
0 0 42
0 0 42
0 0 42
0 0 42
0 0 42
0 0 42
0 0 42
0 0 42
0 0 42
0 0 42
0 0 42
0 0 42
0 0 42
0 0 42
0 0 42
0 0 42
0 0 42
0 0 42
0 0 42
0 0 42
0 0 42
0 0 42
0 0 42
0 0 42
0 0 42
0 0 42
0 0 42
0 0 42
0 0 42
0 0 42
0 0 42
0 0 42
0 0 42
0 0 42
0 0 42
0 0 42
0 0 42
0 0 42
0 0 42
0 0 42
0 0 42
0 0 42
0 0 42
0 0 42
0 0 42
0 0 42
0 0 42
0 0 42
0 0 42
0 0 42
0 0 42
123 132 148
218 234 255
218 234 255
218 234 255
218 234 255
218 234 255
218 234 255
218 234 255
218 234 255
218 234 255
218 234 255
218 234 255
218 234 255
218 234 255
218 234 255
218 234 255
218 234 255
218 234 255
218 234 255
218 234 255
218 234 255
218 234 255
218 234 255
218 234 255
218 234 255
218 234 255
218 234 255
218 234 255
218 234 255
218 234 255
218 234 255
218 234 255
218 234 255
218 234 255
218 234 255
218 234 255
218 234 255
218 234 255
218 234 255
218 234 255
218 234 255
218 234 255
218 234 255
218 234 255
218 234 255
218 234 255
218 234 255
218 234 255
218 234 255
218 234 255
218 234 255
218 234 255
218 234 255
218 234 255
218 234 255
218 234 255
218 234 255
218 234 255
218 234 255
218 234 255
218 234 255
218 234 255
218 234 255
218 234 255
218 234 255
218 234 255
218 234 255
218 234 255
218 234 255
218 234 255
218 234 255
218 234 255
218 234 255
218 234 255
218 234 255
218 234 255
218 234 255
218 234 255
218 234 255
218 234 255
218 234 255
218 234 255
218 234 255
218 234 255
218 234 255
218 234 255
218 234 255
218 234 255
218 234 255
218 234 255
218 234 255
218 234 255
218 234 255
218 234 255
218 234 255
218 234 255
218 234 255
218 234 255
218 234 255
218 234 255
218 234 255
218 234 255
218 234 255
218 234 255
218 234 255
218 234 255
218 234 255
218 234 255
218 234 255
218 234 255
218 234 255
218 234 255
218 234 255
218 234 255
218 234 255
218 234 255
218 234 255
218 234 255
218 234 255
218 234 255
218 234 255
218 234 255
218 234 255
218 234 255
218 234 255
218 234 255
218 234 255
218 234 255
218 234 255
218 234 255
218 234 255
218 234 255
218 234 255
218 234 255
218 234 255
218 234 255
218 234 255
218 234 255
218 234 255
218 234 255
218 234 255
218 234 255
218 234 255
218 234 255
218 234 255
218 234 255
218 234 255
218 234 255
218 234 255
218 234 255
218 234 255
218 234 255
218 234 255
218 234 255
218 234 255
218 234 255
218 234 255
218 234 255
218 234 255
218 234 255
218 234 255
218 234 255
218 234 255
218 234 255
218 234 255
218 234 255
218 234 255
218 234 255
218 234 255
218 234 255
218 234 255
218 234 255
218 234 255
218 234 255
218 234 255
218 234 255
218 234 255
218 234 255
218 234 255
218 234 255
218 234 255
218 234 255
218 234 255
218 234 255
218 234 255
218 234 255
218 234 255
218 234 255
218 234 255
218 234 255
218 234 255
218 234 255
218 234 255
218 234 255
218 234 255
218 234 255
218 234 255
218 234 255
218 234 255
218 234 255
218 234 255
218 234 255
218 234 255
218 234 255
218 234 255
218 234 255
218 234 255
218 234 255
218 234 255
218 234 255
218 234 255
218 234 255
218 234 255
218 234 255
218 234 255
218 234 255
218 234 255
218 234 255
218 234 255
218 234 255
178 191 210
0 0 42
0 0 42
0 0 42
0 0 42
0 0 42
0 0 42
0 0 42
0 0 42
0 0 42
0 0 42
0 0 42
0 0 42
0 0 42
0 0 42
0 0 42
0 0 42
0 0 43
0 0 45
0 0 44
0 0 42
0 0 42
0 0 42
0 0 42
0 0 42
0 0 42
0 0 42
0 0 42
0 0 42
0 0 42
0 0 42
0 0 42
0 0 42
0 0 42
0 0 42
0 0 42
0 0 40
0 0 41
0 0 41
0 0 42
0 0 47
0 0 38
0 0 42
0 0 45
0 0 59
0 13 76
56 53 77
122 105 87
66 73 85
19 38 81
68 71 92
147 139 110
128 115 93
86 93 53
51 73 19
48 67 15
49 58 18
57 59 29
74 76 46
79 79 48
92 87 56
123 108 79
126 111 84
128 113 88
131 112 90
123 108 80
128 119 85
103 100 70
75 77 52
92 95 70
118 113 80
115 111 80
109 106 73
95 94 59
90 92 57
84 90 55
75 84 40
58 76 48
29 60 68
13 34 79
6 21 67
0 4 51
0 0 42
0 0 46
0 0 43
0 0 44
0 0 45
0 0 40
0 0 45
0 0 45
0 0 39
0 4 44
0 9 47
0 2 47
0 2 42
0 0 45
0 0 42
0 0 44
0 0 43
0 0 40
0 0 39
0 0 36
0 0 43
0 0 46
10 47 77
54 78 40
54 71 15
52 70 16
37 58 30
7 13 49
0 0 40
0 0 46
0 0 40
0 0 42
0 0 42
0 0 42
0 0 42
0 0 42
0 0 42
0 0 42
0 0 42
0 0 42
0 0 42
0 0 42
0 0 42
0 0 42
0 0 42
0 0 42
0 0 42
0 0 42
0 0 42
0 0 42
0 0 42
0 0 42
0 0 42
0 0 42
0 0 42
0 0 42
0 0 42
0 0 42
0 0 42
0 0 42
0 0 42
0 0 42
0 0 42
0 0 42
0 0 42
0 0 42
0 0 42
0 0 42
0 0 42
0 0 42
0 0 42
0 0 42
0 0 42
0 0 42
0 0 42
0 0 42
0 0 42
0 0 42
0 0 42
0 0 42
0 0 42
0 0 42
0 0 42
0 0 42
0 0 42
0 0 42
0 0 42
0 0 42
0 0 42
0 0 42
0 0 42
0 0 42
0 0 42
0 0 42
0 0 42
0 0 42
0 0 42
0 0 42
0 0 41
177 190 209
218 234 255
218 234 255
218 234 255
218 234 255
218 234 255
218 234 255
218 234 255
218 234 255
218 234 255
218 234 255
218 234 255
218 234 255
218 234 255
218 234 255
218 234 255
218 234 255
218 234 255
218 234 255
218 234 255
218 234 255
218 234 255
218 234 255
218 234 255
218 234 255
218 234 255
218 234 255
218 234 255
218 234 255
218 234 255
218 234 255
218 234 255
218 234 255
218 234 255
218 234 255
218 234 255
218 234 255
218 234 255
218 234 255
218 234 255
218 234 255
218 234 255
218 234 255
218 234 255
218 234 255
218 234 255
218 234 255
218 234 255
218 234 255
218 234 255
218 234 255
218 234 255
218 234 255
218 234 255
218 234 255
218 234 255
218 234 255
218 234 255
218 234 255
218 234 255
218 234 255
218 234 255
218 234 255
218 234 255
218 234 255
218 234 255
218 234 255
218 234 255
218 234 255
218 234 255
218 234 255
218 234 255
218 234 255
218 234 255
218 234 255
218 234 255
218 234 255
218 234 255
218 234 255
218 234 255
218 234 255
218 234 255
218 234 255
218 234 255
218 234 255
218 234 255
218 234 255
218 234 255
218 234 255
218 234 255
218 234 255
218 234 255
218 234 255
218 234 255
218 234 255
218 234 255
218 234 255
218 234 255
218 234 255
218 234 255
218 234 255
218 234 255
218 234 255
218 234 255
218 234 255
218 234 255
218 234 255
218 234 255
218 234 255
218 234 255
218 234 255
218 234 255
218 234 255
218 234 255
218 234 255
218 234 255
218 234 255
218 234 255
218 234 255
218 234 255
218 234 255
218 234 255
218 234 255
218 234 255
218 234 255
218 234 255
218 234 255
218 234 255
218 234 255
218 234 255
218 234 255
218 234 255
218 234 255
218 234 255
218 234 255
218 234 255
218 234 255
218 234 255
218 234 255
218 234 255
218 234 255
218 234 255
218 234 255
218 234 255
218 234 255
218 234 255
218 234 255
218 234 255
218 234 255
218 234 255
218 234 255
218 234 255
218 234 255
218 234 255
218 234 255
218 234 255
218 234 255
218 234 255
218 234 255
218 234 255
218 234 255
218 234 255
218 234 255
218 234 255
218 234 255
218 234 255
218 234 255
218 234 255
218 234 255
218 234 255
218 234 255
218 234 255
218 234 255
218 234 255
218 234 255
218 234 255
218 234 255
218 234 255
218 234 255
218 234 255
218 234 255
218 234 255
218 234 255
218 234 255
218 234 255
218 234 255
218 234 255
218 234 255
218 234 255
218 234 255
218 234 255
218 234 255
218 234 255
218 234 255
218 234 255
218 234 255
218 234 255
218 234 255
218 234 255
218 234 255
218 234 255
218 234 255
218 234 255
218 234 255
218 234 255
218 234 255
218 234 255
218 234 255
218 234 255
218 234 255
218 234 255
218 234 255
218 234 255
218 234 255
218 234 255
218 234 255
218 234 255
218 234 255
211 227 248
92 99 115
0 0 42
0 0 42
0 0 42
0 0 42
0 0 42
0 0 42
0 0 42
0 0 42
0 0 42
0 0 42
0 0 42
0 0 42
0 0 42
0 0 42
0 0 42
0 0 42
0 0 42
0 0 42
0 0 42
0 0 42
0 0 42
0 0 42
0 0 42
0 0 42
0 0 42
0 0 42
0 0 42
0 0 42
0 0 42
0 0 42
0 0 42
0 0 42
0 0 42
0 0 42
0 0 42
0 0 41
0 0 42
0 0 41
0 0 40
0 0 42
0 0 39
0 0 48
0 0 52
0 6 56
8 13 60
55 54 81
142 127 107
121 107 90
17 19 77
9 13 66
62 60 83
104 104 88
79 86 50
53 74 26
45 62 6
50 60 21
55 54 26
64 65 37
83 81 53
96 91 64
113 106 78
125 115 88
119 107 80
132 118 85
145 133 107
147 139 107
120 115 82
89 85 58
117 111 78
119 112 78
117 113 81
113 109 75
107 104 71
98 98 69
91 94 56
75 88 58
27 58 84
0 11 62
0 0 46
0 0 47
0 0 47
0 0 46
0 0 43
0 0 42
0 0 41
0 0 42
0 0 42
0 0 42
0 0 42
0 0 42
0 0 42
0 0 42
0 0 42
0 0 42
0 0 42
0 0 42
0 0 42
0 0 42
0 0 42
0 0 42
0 0 41
0 0 41
0 0 46
10 29 56
52 74 54
61 77 24
52 68 20
42 69 16
22 35 43
0 0 45
0 0 37
0 0 44
0 0 42
0 0 45
0 0 40
0 0 43
0 0 43
0 0 42
0 0 42
0 0 42
0 0 42
0 0 42
0 0 42
0 0 42
0 0 42
0 0 42
0 0 42
0 0 42
0 0 42
0 0 42
0 0 42
0 0 42
0 0 42
0 0 42
0 0 42
0 0 42
0 0 42
0 0 42
0 0 42
0 0 42
0 0 42
0 0 42
0 0 42
0 0 42
0 0 42
0 0 42
0 0 42
0 0 42
0 0 42
0 0 42
0 0 42
0 0 42
0 0 42
0 0 42
0 0 42
0 0 42
0 0 42
0 0 42
0 0 42
0 0 42
0 0 42
0 0 42
0 0 42
0 0 42
0 0 42
0 0 42
0 0 42
0 0 42
0 0 42
0 0 42
0 0 42
0 0 42
0 0 42
0 0 42
0 0 42
0 0 42
0 0 42
0 0 42
0 0 42
0 0 42
78 84 100
215 230 252
218 234 255
218 234 255
218 234 255
218 234 255
218 234 255
218 234 255
218 234 255
218 234 255
218 234 255
218 234 255
218 234 255
218 234 255
218 234 255
218 234 255
218 234 255
218 234 255
218 234 255
218 234 255
218 234 255
218 234 255
218 234 255
218 234 255
218 234 255
218 234 255
218 234 255
218 234 255
218 234 255
218 234 255
218 234 255
218 234 255
218 234 255
218 234 255
218 234 255
218 234 255
218 234 255
218 234 255
218 234 255
218 234 255
218 234 255
218 234 255
218 234 255
218 234 255
218 234 255
218 234 255
218 234 255
218 234 255
218 234 255
218 234 255
218 234 255
218 234 255
218 234 255
218 234 255
218 234 255
218 234 255
218 234 255
218 234 255
218 234 255
218 234 255
218 234 255
218 234 255
218 234 255
218 234 255
218 234 255
218 234 255
218 234 255
218 234 255
218 234 255
218 234 255
218 234 255
218 234 255
218 234 255
218 234 255
218 234 255
218 234 255
218 234 255
218 234 255
218 234 255
218 234 255
218 234 255
218 234 255
218 234 255
218 234 255
218 234 255
218 234 255
218 234 255
218 234 255
218 234 255
218 234 255
218 234 255
218 234 255
218 234 255
218 234 255
218 234 255
218 234 255
218 234 255
218 234 255
218 234 255
218 234 255
218 234 255
218 234 255
218 234 255
218 234 255
218 234 255
218 234 255
218 234 255
218 234 255
218 234 255
218 234 255
218 234 255
218 234 255
218 234 255
218 234 255
218 234 255
218 234 255
218 234 255
218 234 255
218 234 255
218 234 255
218 234 255
218 234 255
218 234 255
218 234 255
218 234 255
218 234 255
218 234 255
218 234 255
218 234 255
218 234 255
218 234 255
218 234 255
218 234 255
218 234 255
218 234 255
218 234 255
218 234 255
218 234 255
218 234 255
218 234 255
218 234 255
218 234 255
218 234 255
218 234 255
218 234 255
218 234 255
218 234 255
218 234 255
218 234 255
218 234 255
218 234 255
218 234 255
218 234 255
218 234 255
218 234 255
218 234 255
218 234 255
218 234 255
218 234 255
218 234 255
218 234 255
218 234 255
218 234 255
218 234 255
218 234 255
218 234 255
218 234 255
218 234 255
218 234 255
218 234 255
218 234 255
218 234 255
218 234 255
218 234 255
218 234 255
218 234 255
218 234 255
218 234 255
218 234 255
218 234 255
218 234 255
218 234 255
218 234 255
218 234 255
218 234 255
218 234 255
218 234 255
218 234 255
218 234 255
218 234 255
218 234 255
218 234 255
218 234 255
218 234 255
218 234 255
218 234 255
218 234 255
218 234 255
218 234 255
218 234 255
218 234 255
218 234 255
218 234 255
218 234 255
218 234 255
218 234 255
218 234 255
218 234 255
218 234 255
218 234 255
218 234 255
218 234 255
218 234 255
218 234 255
218 234 255
218 234 255
218 234 255
218 234 255
154 165 183
0 0 42
0 0 42
0 0 42
0 0 42
0 0 42
0 0 42
0 0 42
0 0 42
0 0 42
0 0 42
0 0 42
0 0 42
0 0 42
0 0 42
0 0 42
0 0 42
0 0 42
0 0 42
0 0 42
0 0 42
0 0 42
0 0 42
0 0 42
0 0 42
0 0 42
0 0 42
0 0 42
0 0 42
0 0 42
0 0 42
0 0 42
0 0 42
0 0 42
0 0 42
0 0 42
0 0 41
0 0 40
0 0 42
0 0 42
0 0 42
0 0 42
0 0 43
0 0 48
0 0 56
0 4 60
69 80 85
137 143 129
179 164 135
108 92 82
51 51 78
0 9 64
6 11 71
65 87 98
109 104 73
62 82 38
44 67 17
43 60 13
58 58 32
65 67 38
83 81 55
97 94 66
115 107 77
129 119 89
122 109 78
142 128 93
147 135 107
134 126 91
121 116 81
113 111 72
133 131 89
116 114 78
116 115 83
131 124 89
126 116 84
115 108 79
98 96 64
65 74 66
3 15 62
0 0 52
0 0 54
0 0 48
0 0 47
0 0 47
0 0 45
0 0 40
0 0 40
0 0 42
0 0 42
0 0 42
0 0 42
0 0 42
0 0 42
0 0 42
0 0 42
0 0 42
0 0 42
0 0 42
0 0 42
0 0 42
0 0 42
0 0 42
0 0 42
0 0 40
0 0 44
0 4 49
31 48 47
53 73 16
56 71 20
49 70 16
42 60 27
6 7 37
0 0 44
0 4 49
0 5 55
0 0 46
0 0 44
0 0 37
0 0 42
0 0 42
0 0 42
0 0 42
0 0 42
0 0 42
0 0 42
0 0 42
0 0 42
0 0 42
0 0 42
0 0 42
0 0 42
0 0 42
0 0 42
0 0 42
0 0 42
0 0 42
0 0 42
0 0 42
0 0 42
0 0 42
0 0 42
0 0 42
0 0 42
0 0 42
0 0 42
0 0 42
0 0 42
0 0 42
0 0 42
0 0 42
0 0 42
0 0 42
0 0 42
0 0 42
0 0 42
0 0 42
0 0 42
0 0 42
0 0 42
0 0 42
0 0 42
0 0 42
0 0 42
0 0 42
0 0 42
0 0 42
0 0 42
0 0 42
0 0 42
0 0 42
0 0 42
0 0 42
0 0 42
0 0 42
0 0 42
0 0 42
0 0 42
0 0 42
0 0 42
0 0 42
0 0 42
0 0 42
0 0 42
138 148 165
218 234 255
218 234 255
218 234 255
218 234 255
218 234 255
218 234 255
218 234 255
218 234 255
218 234 255
218 234 255
218 234 255
218 234 255
218 234 255
218 234 255
218 234 255
218 234 255
218 234 255
218 234 255
218 234 255
218 234 255
218 234 255
218 234 255
218 234 255
218 234 255
218 234 255
218 234 255
218 234 255
218 234 255
218 234 255
218 234 255
218 234 255
218 234 255
218 234 255
218 234 255
218 234 255
218 234 255
218 234 255
218 234 255
218 234 255
218 234 255
218 234 255
218 234 255
218 234 255
218 234 255
218 234 255
218 234 255
218 234 255
218 234 255
218 234 255
218 234 255
218 234 255
218 234 255
218 234 255
218 234 255
218 234 255
218 234 255
218 234 255
218 234 255
218 234 255
218 234 255
218 234 255
218 234 255
218 234 255
218 234 255
218 234 255
218 234 255
218 234 255
218 234 255
218 234 255
218 234 255
218 234 255
218 234 255
218 234 255
218 234 255
218 234 255
218 234 255
218 234 255
218 234 255
218 234 255
218 234 255
218 234 255
218 234 255
218 234 255
218 234 255
218 234 255
218 234 255
218 234 255
218 234 255
218 234 255
218 234 255
218 234 255
218 234 255
218 234 255
218 234 255
218 234 255
218 234 255
218 234 255
218 234 255
218 234 255
218 234 255
218 234 255
218 234 255
218 234 255
218 234 255
218 234 255
218 234 255
218 234 255
218 234 255
218 234 255
218 234 255
218 234 255
218 234 255
218 234 255
218 234 255
218 234 255
218 234 255
218 234 255
218 234 255
218 234 255
218 234 255
218 234 255
218 234 255
218 234 255
218 234 255
218 234 255
218 234 255
218 234 255
218 234 255
218 234 255
218 234 255
218 234 255
218 234 255
218 234 255
218 234 255
218 234 255
218 234 255
218 234 255
218 234 255
218 234 255
218 234 255
218 234 255
218 234 255
218 234 255
218 234 255
218 234 255
218 234 255
218 234 255
218 234 255
218 234 255
218 234 255
218 234 255
218 234 255
218 234 255
218 234 255
218 234 255
218 234 255
218 234 255
218 234 255
218 234 255
218 234 255
218 234 255
218 234 255
218 234 255
218 234 255
218 234 255
218 234 255
218 234 255
218 234 255
218 234 255
218 234 255
218 234 255
218 234 255
218 234 255
218 234 255
218 234 255
218 234 255
218 234 255
218 234 255
218 234 255
218 234 255
218 234 255
218 234 255
218 234 255
218 234 255
218 234 255
218 234 255
218 234 255
218 234 255
218 234 255
218 234 255
218 234 255
218 234 255
218 234 255
218 234 255
218 234 255
218 234 255
218 234 255
218 234 255
218 234 255
218 234 255
218 234 255
218 234 255
218 234 255
218 234 255
218 234 255
218 234 255
218 234 255
218 234 255
218 234 255
218 234 255
218 234 255
218 234 255
218 234 255
218 234 255
218 234 255
192 206 226
37 40 60
0 0 42
0 0 42
0 0 42
0 0 42
0 0 42
0 0 42
0 0 42
0 0 42
0 0 42
0 0 42
0 0 42
0 0 42
0 0 42
0 0 42
0 0 41
0 0 42
0 0 42
0 0 42
0 0 42
0 0 42
0 0 42
0 0 42
0 0 42
0 0 42
0 0 42
0 0 42
0 0 42
0 0 42
0 0 42
0 0 42
0 0 42
0 0 42
0 0 42
0 0 42
0 0 42
0 0 41
0 0 42
0 0 42
0 0 42
0 0 42
0 0 42
0 0 44
0 0 47
0 0 47
0 3 56
24 36 82
138 134 123
154 153 126
121 105 87
76 74 73
20 23 71
0 5 56
31 67 103
82 108 107
88 93 57
44 70 14
41 63 8
48 56 19
55 59 30
75 77 51
87 85 57
103 97 66
129 118 84
146 133 101
177 162 122
160 147 113
124 114 84
130 123 90
115 111 69
126 119 81
125 119 86
104 102 69
128 123 89
134 125 89
118 111 75
103 102 62
67 84 69
0 14 61
0 0 60
0 0 53
0 0 43
0 0 45
0 0 47
0 0 45
0 0 42
0 0 42
0 0 42
0 0 42
0 0 42
0 0 42
0 0 42
0 0 42
0 0 42
0 0 42
0 0 42
0 0 42
0 0 42
0 0 42
0 0 42
0 0 42
0 0 42
0 0 42
0 0 42
0 0 41
0 0 42
0 7 53
35 64 54
55 74 18
42 60 21
52 63 15
26 25 47
0 0 44
4 9 53
5 14 55
0 0 54
9 10 53
0 0 39
0 0 42
0 0 42
0 0 42
0 0 42
0 0 42
0 0 42
0 0 42
0 0 42
0 0 42
0 0 42
0 0 42
0 0 42
0 0 42
0 0 42
0 0 42
0 0 42
0 0 42
0 0 42
0 0 42
0 0 42
0 0 42
0 0 42
0 0 42
0 0 42
0 0 42
0 0 42
0 0 42
0 0 42
0 0 42
0 0 42
0 0 42
0 0 42
0 0 42
0 0 42
0 0 42
0 0 42
0 0 42
0 0 42
0 0 42
0 0 42
0 0 42
0 0 42
0 0 42
0 0 42
0 0 42
0 0 42
0 0 42
0 0 42
0 0 42
0 0 42
0 0 42
0 0 42
0 0 42
0 0 42
0 0 42
0 0 42
0 0 42
0 0 42
0 0 42
0 0 42
0 0 42
0 0 42
0 0 42
0 0 42
0 0 42
21 23 48
199 213 233
218 234 255
218 234 255
218 234 255
218 234 255
218 234 255
218 234 255
218 234 255
218 234 255
218 234 255
218 234 255
218 234 255
218 234 255
218 234 255
218 234 255
218 234 255
218 234 255
218 234 255
218 234 255
218 234 255
218 234 255
218 234 255
218 234 255
218 234 255
218 234 255
218 234 255
218 234 255
218 234 255
218 234 255
218 234 255
218 234 255
218 234 255
218 234 255
218 234 255
218 234 255
218 234 255
218 234 255
218 234 255
218 234 255
218 234 255
218 234 255
218 234 255
218 234 255
218 234 255
218 234 255
218 234 255
218 234 255
218 234 255
218 234 255
218 234 255
218 234 255
218 234 255
218 234 255
218 234 255
218 234 255
218 234 255
218 234 255
218 234 255
218 234 255
218 234 255
218 234 255
218 234 255
218 234 255
218 234 255
218 234 255
218 234 255
218 234 255
218 234 255
218 234 255
218 234 255
218 234 255
218 234 255
218 234 255
218 234 255
218 234 255
218 234 255
218 234 255
218 234 255
218 234 255
218 234 255
218 234 255
218 234 255
218 234 255
218 234 255
218 234 255
218 234 255
218 234 255
218 234 255
218 234 255
218 234 255
218 234 255
218 234 255
218 234 255
218 234 255
218 234 255
218 234 255
218 234 255
218 234 255
218 234 255
218 234 255
218 234 255
218 234 255
218 234 255
218 234 255
218 234 255
218 234 255
218 234 255
218 234 255
218 234 255
218 234 255
218 234 255
218 234 255
218 234 255
218 234 255
218 234 255
218 234 255
218 234 255
218 234 255
218 234 255
218 234 255
218 234 255
218 234 255
218 234 255
218 234 255
218 234 255
218 234 255
218 234 255
218 234 255
218 234 255
218 234 255
218 234 255
218 234 255
218 234 255
218 234 255
218 234 255
218 234 255
218 234 255
218 234 255
218 234 255
218 234 255
218 234 255
218 234 255
218 234 255
218 234 255
218 234 255
218 234 255
218 234 255
218 234 255
218 234 255
218 234 255
218 234 255
218 234 255
218 234 255
218 234 255
218 234 255
218 234 255
218 234 255
218 234 255
218 234 255
218 234 255
218 234 255
218 234 255
218 234 255
218 234 255
218 234 255
218 234 255
218 234 255
218 234 255
218 234 255
218 234 255
218 234 255
218 234 255
218 234 255
218 234 255
218 234 255
218 234 255
218 234 255
218 234 255
218 234 255
218 234 255
218 234 255
218 234 255
218 234 255
218 234 255
218 234 255
218 234 255
218 234 255
218 234 255
218 234 255
218 234 255
218 234 255
218 234 255
218 234 255
218 234 255
218 234 255
218 234 255
218 234 255
218 234 255
218 234 255
218 234 255
218 234 255
218 234 255
218 234 255
218 234 255
218 234 255
218 234 255
218 234 255
218 234 255
218 234 255
218 234 255
218 234 255
218 234 255
218 234 255
218 234 255
217 233 254
97 104 120
0 0 42
0 0 42
0 0 42
0 0 42
0 0 42
0 0 42
0 0 42
0 0 42
0 0 42
0 0 42
0 0 42
0 0 42
0 0 42
0 0 42
0 0 42
0 0 42
0 0 42
0 0 42
0 0 42
0 0 42
0 0 42
0 0 42
0 0 42
0 0 42
0 0 42
0 0 42
0 0 42
0 0 42
0 0 42
0 0 42
0 0 42
0 0 42
0 0 42
0 0 42
0 0 42
0 0 42
0 0 42
0 0 42
0 0 42
0 0 42
0 0 42
0 0 42
0 0 43
0 0 44
0 0 45
0 0 44
0 5 54
26 35 73
55 86 114
98 103 103
101 87 63
69 61 77
5 11 64
0 0 60
23 97 122
79 133 109
51 71 28
41 64 12
42 57 14
48 52 18
52 54 24
76 76 49
99 96 64
123 115 82
155 147 114
184 171 132
162 153 119
138 129 106
129 122 94
123 115 87
143 134 105
120 116 86
91 91 58
109 109 75
129 128 93
116 116 77
100 104 61
79 95 70
27 36 67
0 0 56
0 0 44
0 0 42
0 0 44
0 0 45
0 0 44
0 0 42
0 0 40
0 0 42
0 0 42
0 0 42
0 0 42
0 0 42
0 0 42
0 0 42
0 0 42
0 0 42
0 0 42
0 0 42
0 0 42
0 0 42
0 0 42
0 0 42
0 0 42
0 0 42
0 0 38
0 0 45
0 0 58
20 45 74
37 64 47
40 58 9
57 67 22
36 39 43
0 0 45
3 4 44
1 2 38
0 0 45
10 14 53
4 6 43
0 0 44
0 0 42
0 0 42
0 0 42
0 0 42
0 0 42
0 0 42
0 0 42
0 0 42
0 0 42
0 0 42
0 0 42
0 0 42
0 0 42
0 0 42
0 0 42
0 0 42
0 0 42
0 0 42
0 0 42
0 0 42
0 0 42
0 0 42
0 0 42
0 0 42
0 0 42
0 0 42
0 0 42
0 0 42
0 0 42
0 0 42
0 0 42
0 0 42
0 0 42
0 0 42
0 0 42
0 0 42
0 0 42
0 0 42
0 0 42
0 0 42
0 0 42
0 0 42
0 0 42
0 0 42
0 0 42
0 0 42
0 0 42
0 0 42
0 0 42
0 0 42
0 0 42
0 0 42
0 0 42
0 0 42
0 0 42
0 0 42
0 0 42
0 0 42
0 0 42
0 0 42
0 0 42
0 0 42
0 0 42
0 0 42
0 0 42
121 130 146
218 234 255
218 234 255
218 234 255
218 234 255
218 234 255
218 234 255
218 234 255
218 234 255
218 234 255
218 234 255
218 234 255
218 234 255
218 234 255
218 234 255
218 234 255
218 234 255
218 234 255
218 234 255
218 234 255
218 234 255
218 234 255
218 234 255
218 234 255
218 234 255
218 234 255
218 234 255
218 234 255
218 234 255
218 234 255
218 234 255
218 234 255
218 234 255
218 234 255
218 234 255
218 234 255
218 234 255
218 234 255
218 234 255
218 234 255
218 234 255
218 234 255
218 234 255
218 234 255
218 234 255
218 234 255
218 234 255
218 234 255
218 234 255
218 234 255
218 234 255
218 234 255
218 234 255
218 234 255
218 234 255
218 234 255
218 234 255
218 234 255
218 234 255
218 234 255
218 234 255
218 234 255
218 234 255
218 234 255
218 234 255
218 234 255
218 234 255
218 234 255
218 234 255
218 234 255
218 234 255
218 234 255
218 234 255
218 234 255
218 234 255
218 234 255
218 234 255
218 234 255
218 234 255
218 234 255
218 234 255
218 234 255
218 234 255
218 234 255
218 234 255
218 234 255
218 234 255
218 234 255
218 234 255
218 234 255
218 234 255
218 234 255
218 234 255
218 234 255
218 234 255
218 234 255
218 234 255
218 234 255
218 234 255
218 234 255
218 234 255
218 234 255
218 234 255
218 234 255
218 234 255
218 234 255
218 234 255
218 234 255
218 234 255
218 234 255
218 234 255
218 234 255
218 234 255
218 234 255
218 234 255
218 234 255
218 234 255
218 234 255
218 234 255
218 234 255
218 234 255
218 234 255
218 234 255
218 234 255
218 234 255
218 234 255
218 234 255
218 234 255
218 234 255
218 234 255
218 234 255
218 234 255
218 234 255
218 234 255
218 234 255
218 234 255
218 234 255
218 234 255
218 234 255
218 234 255
218 234 255
218 234 255
218 234 255
218 234 255
218 234 255
218 234 255
218 234 255
218 234 255
218 234 255
218 234 255
218 234 255
218 234 255
218 234 255
218 234 255
218 234 255
218 234 255
218 234 255
218 234 255
218 234 255
218 234 255
218 234 255
218 234 255
218 234 255
218 234 255
218 234 255
218 234 255
218 234 255
218 234 255
218 234 255
218 234 255
218 234 255
218 234 255
218 234 255
218 234 255
218 234 255
218 234 255
218 234 255
218 234 255
218 234 255
218 234 255
218 234 255
218 234 255
218 234 255
218 234 255
218 234 255
218 234 255
218 234 255
218 234 255
218 234 255
218 234 255
218 234 255
218 234 255
218 234 255
218 234 255
218 234 255
218 234 255
218 234 255
218 234 255
218 234 255
218 234 255
218 234 255
218 234 255
218 234 255
218 234 255
218 234 255
218 234 255
218 234 255
218 234 255
218 234 255
218 234 255
218 234 255
218 234 255
218 234 255
218 234 255
174 187 206
0 0 42
0 0 42
0 0 42
0 0 42
0 0 42
0 0 42
0 0 42
0 0 42
0 0 42
0 0 42
0 0 42
0 0 42
0 0 42
0 0 42
0 0 42
0 0 42
0 0 42
0 0 42
0 0 42
0 0 42
0 0 42
0 0 42
0 0 42
0 0 42
0 0 42
0 0 42
0 0 42
0 0 42
0 0 42
0 0 42
0 0 42
0 0 42
0 0 42
0 0 42
0 0 42
0 0 42
0 0 42
0 0 42
0 0 42
0 0 42
0 0 42
0 0 41
0 0 42
0 0 42
0 0 45
0 0 46
0 0 43
0 0 48
0 0 60
0 22 83
33 65 113
107 107 83
63 64 72
3 6 74
0 0 54
11 75 97
80 108 87
82 84 40
55 81 17
35 62 11
42 54 11
49 55 21
70 73 42
93 91 61
102 96 65
114 105 73
136 127 91
155 151 119
176 174 154
158 156 128
137 128 101
124 119 90
90 90 60
90 95 63
109 111 76
123 122 88
114 110 77
103 106 64
89 93 66
22 25 52
0 0 43
0 0 43
0 0 41
0 0 43
0 0 43
0 0 42
0 0 42
0 0 41
0 0 42
0 0 42
0 0 42
0 0 42
0 0 42
0 0 42
0 0 42
0 0 42
0 0 42
0 0 42
0 0 42
0 0 42
0 0 42
0 0 42
0 0 42
0 0 42
0 0 40
0 0 41
0 0 44
0 0 40
0 10 58
9 31 74
35 47 33
59 72 40
29 40 52
0 0 42
0 0 55
0 0 58
0 0 53
0 0 41
0 0 40
0 0 39
0 0 42
0 0 42
0 0 42
0 0 42
0 0 42
0 0 42
0 0 42
0 0 42
0 0 42
0 0 42
0 0 42
0 0 42
0 0 42
0 0 42
0 0 42
0 0 42
0 0 42
0 0 42
0 0 42
0 0 42
0 0 42
0 0 42
0 0 42
0 0 42
0 0 42
0 0 42
0 0 42
0 0 42
0 0 42
0 0 42
0 0 42
0 0 42
0 0 42
0 0 42
0 0 42
0 0 42
0 0 42
0 0 42
0 0 42
0 0 42
0 0 42
0 0 42
0 0 42
0 0 42
0 0 42
0 0 42
0 0 42
0 0 42
0 0 42
0 0 42
0 0 42
0 0 42
0 0 42
0 0 42
0 0 42
0 0 42
0 0 42
0 0 42
0 0 42
0 0 42
0 0 42
0 0 42
0 0 42
0 0 42
0 0 42
0 0 42
177 190 209
218 234 255
218 234 255
218 234 255
218 234 255
218 234 255
218 234 255
218 234 255
218 234 255
218 234 255
218 234 255
218 234 255
218 234 255
218 234 255
218 234 255
218 234 255
218 234 255
218 234 255
218 234 255
218 234 255
218 234 255
218 234 255
218 234 255
218 234 255
218 234 255
218 234 255
218 234 255
218 234 255
218 234 255
218 234 255
218 234 255
218 234 255
218 234 255
218 234 255
218 234 255
218 234 255
218 234 255
218 234 255
218 234 255
218 234 255
218 234 255
218 234 255
218 234 255
218 234 255
218 234 255
218 234 255
218 234 255
218 234 255
218 234 255
218 234 255
218 234 255
218 234 255
218 234 255
218 234 255
218 234 255
218 234 255
218 234 255
218 234 255
218 234 255
218 234 255
218 234 255
218 234 255
218 234 255
218 234 255
218 234 255
218 234 255
218 234 255
218 234 255
218 234 255
218 234 255
218 234 255
218 234 255
218 234 255
218 234 255
218 234 255
218 234 255
218 234 255
218 234 255
218 234 255
218 234 255
218 234 255
218 234 255
218 234 255
218 234 255
218 234 255
218 234 255
218 234 255
218 234 255
218 234 255
218 234 255
218 234 255
218 234 255
218 234 255
218 234 255
218 234 255
218 234 255
218 234 255
218 234 255
218 234 255
218 234 255
218 234 255
218 234 255
218 234 255
218 234 255
218 234 255
218 234 255
218 234 255
218 234 255
218 234 255
218 234 255
218 234 255
218 234 255
218 234 255
218 234 255
218 234 255
218 234 255
218 234 255
218 234 255
218 234 255
218 234 255
218 234 255
218 234 255
218 234 255
218 234 255
218 234 255
218 234 255
218 234 255
218 234 255
218 234 255
218 234 255
218 234 255
218 234 255
218 234 255
218 234 255
218 234 255
218 234 255
218 234 255
218 234 255
218 234 255
218 234 255
218 234 255
218 234 255
218 234 255
218 234 255
218 234 255
218 234 255
218 234 255
218 234 255
218 234 255
218 234 255
218 234 255
218 234 255
218 234 255
218 234 255
218 234 255
218 234 255
218 234 255
218 234 255
218 234 255
218 234 255
218 234 255
218 234 255
218 234 255
218 234 255
218 234 255
218 234 255
218 234 255
218 234 255
218 234 255
218 234 255
218 234 255
218 234 255
218 234 255
218 234 255
218 234 255
218 234 255
218 234 255
218 234 255
218 234 255
218 234 255
218 234 255
218 234 255
218 234 255
218 234 255
218 234 255
218 234 255
218 234 255
218 234 255
218 234 255
218 234 255
218 234 255
218 234 255
218 234 255
218 234 255
218 234 255
218 234 255
218 234 255
218 234 255
218 234 255
218 234 255
218 234 255
218 234 255
218 234 255
218 234 255
218 234 255
218 234 255
218 234 255
218 234 255
218 234 255
218 234 255
218 234 255
218 234 255
214 229 250
57 61 79
0 0 42
0 0 42
0 0 42
0 0 42
0 0 42
0 0 42
0 0 42
0 0 42
0 0 42
0 0 42
0 0 42
0 0 42
0 0 42
0 0 42
0 0 42
0 0 42
0 0 42
0 0 42
0 0 42
0 0 42
0 0 42
0 0 42
0 0 42
0 0 42
0 0 42
0 0 42
0 0 42
0 0 42
0 0 42
0 0 42
0 0 42
0 0 42
0 0 42
0 0 42
0 0 42
0 0 42
0 0 42
0 0 42
0 0 42
0 0 42
0 0 42
0 0 39
0 0 42
0 0 45
0 0 45
0 0 49
0 0 38
0 0 45
0 0 54
0 2 62
47 61 100
133 126 107
87 76 69
21 30 71
0 0 50
6 40 78
34 118 124
63 111 110
63 81 39
39 65 0
41 65 10
45 50 17
68 74 39
81 86 51
94 90 63
111 100 75
116 106 78
132 124 93
140 132 102
115 107 74
114 105 74
110 109 76
87 83 55
61 72 39
89 97 66
100 103 71
96 97 66
83 90 68
21 22 57
0 0 52
0 0 39
0 0 42
0 0 42
0 0 42
0 0 42
0 0 42
0 0 42
0 0 42
0 0 42
0 0 42
0 0 42
0 0 42
0 0 42
0 0 42
0 0 42
0 0 42
0 0 42
0 0 42
0 0 42
0 0 42
0 0 42
0 0 42
0 0 42
0 0 42
0 0 41
0 0 41
0 0 44
0 0 44
0 0 48
0 8 60
10 34 70
18 37 60
6 10 46
0 0 38
0 0 58
10 14 57
15 23 47
3 5 43
0 0 46
0 0 44
0 0 40
0 0 42
0 0 41
0 0 40
0 0 42
0 0 41
0 0 42
0 0 42
0 0 42
0 0 42
0 0 42
0 0 42
0 0 42
0 0 42
0 0 42
0 0 42
0 0 42
0 0 42
0 0 42
0 0 42
0 0 42
0 0 42
0 0 42
0 0 42
0 0 42
0 0 42
0 0 42
0 0 42
0 0 42
0 0 42
0 0 42
0 0 42
0 0 42
0 0 42
0 0 42
0 0 42
0 0 42
0 0 42
0 0 42
0 0 42
0 0 42
0 0 42
0 0 42
0 0 42
0 0 42
0 0 42
0 0 42
0 0 42
0 0 42
0 0 42
0 0 42
0 0 42
0 0 42
0 0 42
0 0 42
0 0 42
0 0 42
0 0 42
0 0 42
0 0 42
0 0 42
0 0 42
0 0 42
0 0 42
0 0 42
0 0 42
79 85 100
216 232 253
218 234 255
218 234 255
218 234 255
218 234 255
218 234 255
218 234 255
218 234 255
218 234 255
218 234 255
218 234 255
218 234 255
218 234 255
218 234 255
218 234 255
218 234 255
218 234 255
218 234 255
218 234 255
218 234 255
218 234 255
218 234 255
218 234 255
218 234 255
218 234 255
218 234 255
218 234 255
218 234 255
218 234 255
218 234 255
218 234 255
218 234 255
218 234 255
218 234 255
218 234 255
218 234 255
218 234 255
218 234 255
218 234 255
218 234 255
218 234 255
218 234 255
218 234 255
218 234 255
218 234 255
218 234 255
218 234 255
218 234 255
218 234 255
218 234 255
218 234 255
218 234 255
218 234 255
218 234 255
218 234 255
218 234 255
218 234 255
218 234 255
218 234 255
218 234 255
218 234 255
218 234 255
218 234 255
218 234 255
218 234 255
218 234 255
218 234 255
218 234 255
218 234 255
218 234 255
218 234 255
218 234 255
218 234 255
218 234 255
218 234 255
218 234 255
218 234 255
218 234 255
218 234 255
218 234 255
218 234 255
218 234 255
218 234 255
218 234 255
218 234 255
218 234 255
218 234 255
218 234 255
218 234 255
218 234 255
218 234 255
218 234 255
218 234 255
218 234 255
218 234 255
218 234 255
218 234 255
218 234 255
218 234 255
218 234 255
218 234 255
218 234 255
218 234 255
218 234 255
218 234 255
218 234 255
218 234 255
218 234 255
218 234 255
218 234 255
218 234 255
218 234 255
218 234 255
218 234 255
218 234 255
218 234 255
218 234 255
218 234 255
218 234 255
218 234 255
218 234 255
218 234 255
218 234 255
218 234 255
218 234 255
218 234 255
218 234 255
218 234 255
218 234 255
218 234 255
218 234 255
218 234 255
218 234 255
218 234 255
218 234 255
218 234 255
218 234 255
218 234 255
218 234 255
218 234 255
218 234 255
218 234 255
218 234 255
218 234 255
218 234 255
218 234 255
218 234 255
218 234 255
218 234 255
218 234 255
218 234 255
218 234 255
218 234 255
218 234 255
218 234 255
218 234 255
218 234 255
218 234 255
218 234 255
218 234 255
218 234 255
218 234 255
218 234 255
218 234 255
218 234 255
218 234 255
218 234 255
218 234 255
218 234 255
218 234 255
218 234 255
218 234 255
218 234 255
218 234 255
218 234 255
218 234 255
218 234 255
218 234 255
218 234 255
218 234 255
218 234 255
218 234 255
218 234 255
218 234 255
218 234 255
218 234 255
218 234 255
218 234 255
218 234 255
218 234 255
218 234 255
218 234 255
218 234 255
218 234 255
218 234 255
218 234 255
218 234 255
218 234 255
218 234 255
218 234 255
218 234 255
218 234 255
218 234 255
218 234 255
218 234 255
218 234 255
218 234 255
218 234 255
218 234 255
218 234 255
218 234 255
151 162 179
0 0 42
0 0 42
0 0 42
0 0 42
0 0 42
0 0 42
0 0 42
0 0 42
0 0 42
0 0 42
0 0 42
0 0 42
0 0 42
0 0 42
0 0 42
0 0 42
0 0 42
0 0 42
0 0 42
0 0 42
0 0 42
0 0 42
0 0 42
0 0 42
0 0 42
0 0 42
0 0 42
0 0 42
0 0 42
0 0 42
0 0 42
0 0 42
0 0 42
0 0 42
0 0 42
0 0 42
0 0 42
0 0 42
0 0 42
0 0 42
0 0 42
0 0 42
0 0 42
0 0 42
0 0 42
0 0 42
0 0 42
0 0 43
0 0 47
0 0 55
0 0 62
57 82 106
156 144 129
120 107 81
44 46 68
0 2 55
0 4 46
0 36 68
13 79 113
65 109 95
54 76 18
37 60 0
43 53 0
56 57 25
70 78 51
86 89 54
100 88 60
115 101 76
127 114 86
138 128 100
121 111 81
125 115 84
128 119 87
127 121 90
67 75 36
76 87 51
66 76 36
84 92 56
61 71 49
6 7 51
0 0 48
0 0 38
0 0 43
0 0 42
0 0 42
0 0 42
0 0 42
0 0 42
0 0 42
0 0 42
0 0 42
0 0 42
0 0 42
0 0 42
0 0 42
0 0 42
0 0 42
0 0 42
0 0 42
0 0 42
0 0 42
0 0 42
0 0 42
0 0 42
0 0 42
0 0 39
0 0 38
0 0 41
0 0 43
0 0 48
0 7 55
0 13 61
0 4 49
0 0 39
0 0 42
0 0 55
21 32 52
45 67 50
18 29 46
0 0 58
0 0 50
0 0 43
0 0 44
0 0 39
0 0 41
0 0 41
0 0 42
0 0 42
0 0 42
0 0 42
0 0 42
0 0 42
0 0 42
0 0 42
0 0 42
0 0 42
0 0 42
0 0 42
0 0 42
0 0 42
0 0 42
0 0 42
0 0 42
0 0 42
0 0 42
0 0 42
0 0 42
0 0 42
0 0 42
0 0 42
0 0 42
0 0 42
0 0 42
0 0 42
0 0 42
0 0 42
0 0 42
0 0 42
0 0 42
0 0 42
0 0 42
0 0 42
0 0 42
0 0 42
0 0 42
0 0 42
0 0 42
0 0 42
0 0 42
0 0 42
0 0 42
0 0 42
0 0 42
0 0 42
0 0 42
0 0 42
0 0 42
0 0 42
0 0 42
0 0 42
0 0 42
0 0 42
0 0 42
0 0 42
0 0 42
0 0 42
0 0 42
5 5 42
153 164 183
218 234 255
218 234 255
218 234 255
218 234 255
218 234 255
218 234 255
218 234 255
218 234 255
218 234 255
218 234 255
218 234 255
218 234 255
218 234 255
218 234 255
218 234 255
218 234 255
218 234 255
218 234 255
218 234 255
218 234 255
218 234 255
218 234 255
218 234 255
218 234 255
218 234 255
218 234 255
218 234 255
218 234 255
218 234 255
218 234 255
218 234 255
218 234 255
218 234 255
218 234 255
218 234 255
218 234 255
218 234 255
218 234 255
218 234 255
218 234 255
218 234 255
218 234 255
218 234 255
218 234 255
218 234 255
218 234 255
218 234 255
218 234 255
218 234 255
218 234 255
218 234 255
218 234 255
218 234 255
218 234 255
218 234 255
218 234 255
218 234 255
218 234 255
218 234 255
218 234 255
218 234 255
218 234 255
218 234 255
218 234 255
218 234 255
218 234 255
218 234 255
218 234 255
218 234 255
218 234 255
218 234 255
218 234 255
218 234 255
218 234 255
218 234 255
218 234 255
218 234 255
218 234 255
218 234 255
218 234 255
218 234 255
218 234 255
218 234 255
218 234 255
218 234 255
218 234 255
218 234 255
218 234 255
218 234 255
218 234 255
218 234 255
218 234 255
218 234 255
218 234 255
218 234 255
218 234 255
218 234 255
218 234 255
218 234 255
218 234 255
218 234 255
218 234 255
218 234 255
218 234 255
218 234 255
218 234 255
218 234 255
218 234 255
218 234 255
218 234 255
218 234 255
218 234 255
218 234 255
218 234 255
218 234 255
218 234 255
218 234 255
218 234 255
218 234 255
218 234 255
218 234 255
218 234 255
218 234 255
218 234 255
218 234 255
218 234 255
218 234 255
218 234 255
218 234 255
218 234 255
218 234 255
218 234 255
218 234 255
218 234 255
218 234 255
218 234 255
218 234 255
218 234 255
218 234 255
218 234 255
218 234 255
218 234 255
218 234 255
218 234 255
218 234 255
218 234 255
218 234 255
218 234 255
218 234 255
218 234 255
218 234 255
218 234 255
218 234 255
218 234 255
218 234 255
218 234 255
218 234 255
218 234 255
218 234 255
218 234 255
218 234 255
218 234 255
218 234 255
218 234 255
218 234 255
218 234 255
218 234 255
218 234 255
218 234 255
218 234 255
218 234 255
218 234 255
218 234 255
218 234 255
218 234 255
218 234 255
218 234 255
218 234 255
218 234 255
218 234 255
218 234 255
218 234 255
218 234 255
218 234 255
218 234 255
218 234 255
218 234 255
218 234 255
218 234 255
218 234 255
218 234 255
218 234 255
218 234 255
218 234 255
218 234 255
218 234 255
218 234 255
218 234 255
218 234 255
218 234 255
218 234 255
218 234 255
218 234 255
218 234 255
218 234 255
218 234 255
218 234 255
218 234 255
218 234 255
214 229 250
61 66 83
0 0 42
0 0 42
0 0 42
0 0 42
0 0 42
0 0 42
0 0 42
0 0 42
0 0 42
0 0 42
0 0 42
0 0 42
0 0 42
0 0 42
0 0 42
0 0 42
0 0 42
0 0 42
0 0 42
0 0 42
0 0 42
0 0 42
0 0 42
0 0 42
0 0 42
0 0 42
0 0 42
0 0 42
0 0 42
0 0 42
0 0 42
0 0 42
0 0 42
0 0 42
0 0 42
0 0 42
0 0 42
0 0 42
0 0 42
0 0 42
0 0 42
0 0 42
0 0 42
0 0 42
0 0 42
0 0 42
0 0 42
0 0 44
0 0 46
0 0 53
0 7 63
0 22 71
60 74 101
131 116 100
79 72 87
32 37 57
0 0 49
0 0 45
0 59 92
33 152 158
58 112 93
40 63 6
36 57 8
52 54 19
68 69 39
82 87 59
97 86 60
116 98 73
125 106 80
134 119 93
137 121 94
128 117 87
133 122 89
125 119 86
70 76 42
66 81 41
77 92 51
71 89 46
47 62 48
0 0 47
0 0 45
0 0 40
0 0 41
0 0 42
0 0 42
0 0 42
0 0 42
0 0 42
0 0 42
0 0 42
0 0 42
0 0 42
0 0 42
0 0 42
0 0 42
0 0 42
0 0 42
0 0 42
0 0 42
0 0 42
0 0 42
0 0 42
0 0 42
0 0 42
0 0 42
0 0 45
0 0 46
0 0 43
0 0 37
0 0 39
0 0 42
0 0 41
0 0 39
0 0 39
0 0 45
0 0 45
4 7 46
33 52 61
28 48 54
0 0 62
0 0 59
0 0 47
0 0 44
0 0 41
0 0 44
0 0 40
0 0 43
0 0 42
0 0 42
0 0 42
0 0 42
0 0 42
0 0 42
0 0 42
0 0 42
0 0 42
0 0 42
0 0 42
0 0 42
0 0 42
0 0 42
0 0 42
0 0 42
0 0 42
0 0 42
0 0 42
0 0 42
0 0 42
0 0 42
0 0 42
0 0 42
0 0 42
0 0 42
0 0 42
0 0 42
0 0 42
0 0 42
0 0 42
0 0 42
0 0 42
0 0 42
0 0 42
0 0 42
0 0 42
0 0 42
0 0 42
0 0 42
0 0 42
0 0 42
0 0 42
0 0 42
0 0 42
0 0 42
0 0 42
0 0 42
0 0 42
0 0 42
0 0 42
0 0 42
0 0 42
0 0 42
0 0 42
0 0 42
0 0 42
0 0 42
0 0 42
0 0 42
0 0 42
73 76 85
213 228 249
218 234 255
218 234 255
218 234 255
218 234 255
218 234 255
218 234 255
218 234 255
218 234 255
218 234 255
218 234 255
218 234 255
218 234 255
218 234 255
218 234 255
218 234 255
218 234 255
218 234 255
218 234 255
218 234 255
218 234 255
218 234 255
218 234 255
218 234 255
218 234 255
218 234 255
218 234 255
218 234 255
218 234 255
218 234 255
218 234 255
218 234 255
218 234 255
218 234 255
218 234 255
218 234 255
218 234 255
218 234 255
218 234 255
218 234 255
218 234 255
218 234 255
218 234 255
218 234 255
218 234 255
218 234 255
218 234 255
218 234 255
218 234 255
218 234 255
218 234 255
218 234 255
218 234 255
218 234 255
218 234 255
218 234 255
218 234 255
218 234 255
218 234 255
218 234 255
218 234 255
218 234 255
218 234 255
218 234 255
218 234 255
218 234 255
218 234 255
218 234 255
218 234 255
218 234 255
218 234 255
218 234 255
218 234 255
218 234 255
218 234 255
218 234 255
218 234 255
218 234 255
218 234 255
218 234 255
218 234 255
218 234 255
218 234 255
218 234 255
218 234 255
218 234 255
218 234 255
218 234 255
218 234 255
218 234 255
218 234 255
218 234 255
218 234 255
218 234 255
218 234 255
218 234 255
218 234 255
218 234 255
218 234 255
218 234 255
218 234 255
218 234 255
218 234 255
218 234 255
218 234 255
218 234 255
218 234 255
218 234 255
218 234 255
218 234 255
218 234 255
218 234 255
218 234 255
218 234 255
218 234 255
218 234 255
218 234 255
218 234 255
218 234 255
218 234 255
218 234 255
218 234 255
218 234 255
218 234 255
218 234 255
218 234 255
218 234 255
218 234 255
218 234 255
218 234 255
218 234 255
218 234 255
218 234 255
218 234 255
218 234 255
218 234 255
218 234 255
218 234 255
218 234 255
218 234 255
218 234 255
218 234 255
218 234 255
218 234 255
218 234 255
218 234 255
218 234 255
218 234 255
218 234 255
218 234 255
218 234 255
218 234 255
218 234 255
218 234 255
218 234 255
218 234 255
218 234 255
218 234 255
218 234 255
218 234 255
218 234 255
218 234 255
218 234 255
218 234 255
218 234 255
218 234 255
218 234 255
218 234 255
218 234 255
218 234 255
218 234 255
218 234 255
218 234 255
218 234 255
218 234 255
218 234 255
218 234 255
218 234 255
218 234 255
218 234 255
218 234 255
218 234 255
218 234 255
218 234 255
218 234 255
218 234 255
218 234 255
218 234 255
218 234 255
218 234 255
218 234 255
218 234 255
218 234 255
218 234 255
218 234 255
218 234 255
218 234 255
218 234 255
218 234 255
218 234 255
218 234 255
218 234 255
218 234 255
218 234 255
218 234 255
218 234 255
218 234 255
218 234 255
218 234 255
146 157 174
0 0 42
0 0 42
0 0 42
0 0 42
0 0 42
0 0 42
0 0 42
0 0 42
0 0 42
0 0 42
0 0 42
0 0 42
0 0 42
0 0 42
0 0 42
0 0 42
0 0 42
0 0 42
0 0 42
0 0 42
0 0 42
0 0 42
0 0 42
0 0 42
0 0 42
0 0 42
0 0 42
0 0 42
0 0 42
0 0 42
0 0 42
0 0 42
0 0 42
0 0 42
0 0 42
0 0 42
0 0 42
0 0 42
0 0 42
0 0 42
0 0 42
0 0 42
0 0 42
0 0 42
0 0 42
0 0 42
0 0 42
0 0 40
0 0 41
0 0 45
0 0 48
0 0 58
0 2 55
0 23 82
51 59 96
101 98 93
71 74 61
18 18 50
0 0 48
0 7 44
5 44 76
15 77 103
33 75 52
37 64 9
41 57 15
52 55 25
78 76 50
93 85 58
115 100 76
127 108 85
130 110 84
133 116 90
136 123 96
113 107 76
102 102 72
73 76 44
55 70 31
68 80 40
54 71 27
42 57 48
0 0 46
0 0 43
0 0 42
0 0 42
0 0 42
0 0 42
0 0 42
0 0 42
0 0 42
0 0 42
0 0 42
0 0 42
0 0 42
0 0 42
0 0 42
0 0 42
0 0 42
0 0 42
0 0 42
0 0 42
0 0 42
0 0 42
0 0 42
0 0 42
0 0 42
0 0 42
0 0 38
0 0 41
0 0 45
0 0 45
0 0 45
0 0 45
0 0 44
0 0 44
0 0 47
0 0 41
0 0 46
0 0 56
7 14 56
11 24 52
2 5 49
0 0 43
0 0 48
0 0 48
0 0 43
0 0 42
0 0 41
0 0 41
0 0 42
0 0 42
0 0 42
0 0 42
0 0 42
0 0 42
0 0 42
0 0 42
0 0 42
0 0 42
0 0 42
0 0 42
0 0 42
0 0 42
0 0 42
0 0 42
0 0 42
0 0 42
0 0 42
0 0 42
0 0 42
0 0 42
0 0 42
0 0 42
0 0 42
0 0 42
0 0 42
0 0 42
0 0 42
0 0 42
0 0 42
0 0 42
0 0 42
0 0 42
0 0 42
0 0 42
0 0 42
0 0 42
0 0 42
0 0 42
0 0 42
0 0 42
0 0 42
0 0 42
0 0 42
0 0 42
0 0 42
0 0 42
0 0 42
0 0 42
0 0 42
0 0 42
0 0 42
0 0 42
0 0 42
0 0 42
0 0 42
0 0 42
0 0 42
0 0 42
0 0 42
0 0 42
151 158 170
218 234 255
218 234 255
218 234 255
218 234 255
218 234 255
218 234 255
218 234 255
218 234 255
218 234 255
218 234 255
218 234 255
218 234 255
218 234 255
218 234 255
218 234 255
218 234 255
218 234 255
218 234 255
218 234 255
218 234 255
218 234 255
218 234 255
218 234 255
218 234 255
218 234 255
218 234 255
218 234 255
218 234 255
218 234 255
218 234 255
218 234 255
218 234 255
218 234 255
218 234 255
218 234 255
218 234 255
218 234 255
218 234 255
218 234 255
218 234 255
218 234 255
218 234 255
218 234 255
218 234 255
218 234 255
218 234 255
218 234 255
218 234 255
218 234 255
218 234 255
218 234 255
218 234 255
218 234 255
218 234 255
218 234 255
218 234 255
218 234 255
218 234 255
218 234 255
218 234 255
218 234 255
218 234 255
218 234 255
218 234 255
218 234 255
218 234 255
218 234 255
218 234 255
218 234 255
218 234 255
218 234 255
218 234 255
218 234 255
218 234 255
218 234 255
218 234 255
218 234 255
218 234 255
218 234 255
218 234 255
218 234 255
218 234 255
218 234 255
218 234 255
218 234 255
218 234 255
218 234 255
218 234 255
218 234 255
218 234 255
218 234 255
218 234 255
218 234 255
218 234 255
218 234 255
218 234 255
218 234 255
218 234 255
218 234 255
218 234 255
218 234 255
218 234 255
218 234 255
218 234 255
218 234 255
218 234 255
218 234 255
218 234 255
218 234 255
218 234 255
218 234 255
218 234 255
218 234 255
218 234 255
218 234 255
218 234 255
218 234 255
218 234 255
218 234 255
218 234 255
218 234 255
218 234 255
218 234 255
218 234 255
218 234 255
218 234 255
218 234 255
218 234 255
218 234 255
218 234 255
218 234 255
218 234 255
218 234 255
218 234 255
218 234 255
218 234 255
218 234 255
218 234 255
218 234 255
218 234 255
218 234 255
218 234 255
218 234 255
218 234 255
218 234 255
218 234 255
218 234 255
218 234 255
218 234 255
218 234 255
218 234 255
218 234 255
218 234 255
218 234 255
218 234 255
218 234 255
218 234 255
218 234 255
218 234 255
218 234 255
218 234 255
218 234 255
218 234 255
218 234 255
218 234 255
218 234 255
218 234 255
218 234 255
218 234 255
218 234 255
218 234 255
218 234 255
218 234 255
218 234 255
218 234 255
218 234 255
218 234 255
218 234 255
218 234 255
218 234 255
218 234 255
218 234 255
218 234 255
218 234 255
218 234 255
218 234 255
218 234 255
218 234 255
218 234 255
218 234 255
218 234 255
218 234 255
218 234 255
218 234 255
218 234 255
218 234 255
218 234 255
218 234 255
218 234 255
218 234 255
218 234 255
218 234 255
218 234 255
218 234 255
218 234 255
218 234 255
218 234 255
205 219 240
21 23 49
0 0 42
0 0 42
0 0 42
0 0 42
0 0 42
0 0 42
0 0 42
0 0 42
0 0 42
0 0 42
0 0 42
0 0 42
0 0 42
0 0 42
0 0 42
0 0 42
0 0 42
0 0 42
0 0 42
0 0 42
0 0 42
0 0 42
0 0 42
0 0 42
0 0 42
0 0 42
0 0 42
0 0 42
0 0 42
0 0 42
0 0 42
0 0 42
0 0 42
0 0 42
0 0 42
0 0 42
0 0 42
0 0 42
0 0 42
0 0 42
0 0 42
0 0 42
0 0 42
0 0 42
0 0 42
0 0 42
0 0 42
0 0 40
0 0 40
0 0 42
0 0 44
0 0 51
0 0 48
0 0 48
0 22 87
46 58 89
92 80 67
29 25 48
0 0 40
0 0 45
0 0 54
2 14 54
29 61 94
45 75 25
36 61 0
49 59 21
65 64 44
77 75 47
99 91 65
118 101 78
135 112 87
143 125 100
124 114 90
100 97 71
90 92 64
78 85 50
43 64 17
64 80 30
62 75 29
36 46 45
0 0 44
0 0 40
0 0 40
0 0 44
0 0 42
0 0 42
0 0 42
0 0 42
0 0 42
0 0 42
0 0 42
0 0 42
0 0 42
0 0 42
0 0 42
0 0 45
0 0 45
0 0 45
0 0 45
0 0 45
0 0 44
0 0 42
0 0 42
0 0 42
0 0 42
0 0 42
0 0 41
12 21 45
19 35 39
27 45 37
42 61 34
42 63 30
35 57 31
35 58 43
24 38 39
11 21 48
3 9 43
0 0 45
0 0 54
0 0 55
0 0 55
0 0 54
0 0 53
0 0 48
0 0 49
0 0 40
0 0 39
0 0 40
0 0 42
0 0 42
0 0 42
0 0 42
0 0 42
0 0 42
0 0 42
0 0 42
0 0 42
0 0 42
0 0 42
0 0 42
0 0 42
0 0 42
0 0 42
0 0 42
0 0 42
0 0 42
0 0 42
0 0 42
0 0 42
0 0 42
0 0 42
0 0 42
0 0 42
0 0 42
0 0 42
0 0 42
0 0 42
0 0 42
0 0 42
0 0 42
0 0 42
0 0 42
0 0 42
0 0 42
0 0 42
0 0 42
0 0 42
0 0 42
0 0 42
0 0 42
0 0 42
0 0 42
0 0 42
0 0 42
0 0 42
0 0 42
0 0 42
0 0 42
0 0 42
0 0 42
0 0 42
0 0 42
0 0 42
0 0 42
0 0 42
0 0 42
0 0 42
0 0 42
0 0 42
0 0 42
70 72 80
214 229 247
218 234 255
218 234 255
218 234 255
218 234 255
218 234 255
218 234 255
218 234 255
218 234 255
218 234 255
218 234 255
218 234 255
218 234 255
218 234 255
218 234 255
218 234 255
218 234 255
218 234 255
218 234 255
218 234 255
218 234 255
218 234 255
218 234 255
218 234 255
218 234 255
218 234 255
218 234 255
218 234 255
218 234 255
218 234 255
218 234 255
218 234 255
218 234 255
218 234 255
218 234 255
218 234 255
218 234 255
218 234 255
218 234 255
218 234 255
218 234 255
218 234 255
218 234 255
218 234 255
218 234 255
218 234 255
218 234 255
218 234 255
218 234 255
218 234 255
218 234 255
218 234 255
218 234 255
218 234 255
218 234 255
218 234 255
218 234 255
218 234 255
218 234 255
218 234 255
218 234 255
218 234 255
218 234 255
218 234 255
218 234 255
218 234 255
218 234 255
218 234 255
218 234 255
218 234 255
218 234 255
218 234 255
218 234 255
218 234 255
218 234 255
218 234 255
218 234 255
218 234 255
218 234 255
218 234 255
218 234 255
218 234 255
218 234 255
218 234 255
218 234 255
218 234 255
218 234 255
218 234 255
218 234 255
218 234 255
218 234 255
218 234 255
218 234 255
218 234 255
218 234 255
218 234 255
218 234 255
218 234 255
218 234 255
218 234 255
218 234 255
218 234 255
218 234 255
218 234 255
219 234 255
219 234 255
219 234 255
219 234 255
219 234 255
219 234 255
219 234 255
219 234 255
219 234 255
219 234 255
219 234 255
219 234 255
219 234 255
219 234 255
219 234 255
219 234 255
219 234 255
219 234 255
219 234 255
219 234 255
219 234 255
219 234 255
219 234 255
219 234 255
219 234 255
219 234 255
219 234 255
219 234 255
219 234 255
219 234 255
219 234 255
219 234 255
219 234 255
219 234 255
218 234 255
219 234 255
219 234 255
219 234 255
218 234 255
218 234 255
218 234 255
218 234 255
218 234 255
218 234 255
218 234 255
218 234 255
218 234 255
218 234 255
218 234 255
218 234 255
218 234 255
218 234 255
218 234 255
218 234 255
218 234 255
218 234 255
218 234 255
218 234 255
218 234 255
218 234 255
218 234 255
218 234 255
218 234 255
218 234 255
218 234 255
218 234 255
218 234 255
218 234 255
218 234 255
218 234 255
218 234 255
218 234 255
218 234 255
218 234 255
218 234 255
218 234 255
218 234 255
218 234 255
218 234 255
218 234 255
218 234 255
218 234 255
218 234 255
218 234 255
218 234 255
218 234 255
218 234 255
218 234 255
218 234 255
218 234 255
218 234 255
218 234 255
218 234 255
218 234 255
218 234 255
218 234 255
218 234 255
218 234 255
218 234 255
218 234 255
218 234 255
218 234 255
218 234 255
140 150 167
0 0 42
0 0 42
0 0 42
0 0 42
0 0 42
0 0 42
0 0 42
0 0 42
0 0 42
0 0 42
0 0 42
0 0 42
0 0 42
0 0 42
0 0 42
0 0 42
0 0 42
0 0 42
0 0 42
0 0 42
0 0 42
0 0 42
0 0 42
0 0 42
0 0 42
0 0 42
0 0 42
0 0 42
0 0 42
0 0 42
0 0 42
0 0 42
0 0 42
0 0 42
0 0 42
0 0 42
0 0 42
0 0 42
0 0 42
0 0 42
0 0 42
0 0 42
0 0 42
0 0 42
0 0 42
0 0 42
0 0 42
0 0 41
0 0 42
0 0 40
0 0 40
0 0 43
0 0 50
0 0 46
0 0 50
0 9 63
23 27 70
23 22 59
0 0 46
0 0 48
0 0 46
0 0 46
0 2 50
7 22 78
24 57 63
45 67 23
50 60 20
56 69 25
71 78 45
80 79 49
105 95 70
123 109 84
135 118 93
123 106 82
89 89 60
82 87 53
77 85 45
43 65 15
72 87 36
76 86 39
30 36 40
0 0 41
0 0 41
0 0 40
0 0 47
0 0 42
0 0 42
0 0 42
0 0 42
0 0 42
0 0 41
0 0 39
0 0 43
0 0 42
0 0 46
0 0 38
0 0 43
0 0 43
0 0 43
0 0 47
0 0 46
0 0 43
0 0 41
0 0 45
0 0 43
0 0 42
0 0 41
23 34 41
40 65 20
38 66 37
27 58 54
22 58 80
23 74 60
46 62 10
51 73 18
56 83 14
49 79 32
31 52 54
23 40 59
14 35 52
0 8 46
0 0 46
0 0 42
0 0 56
0 0 48
0 0 42
0 0 38
0 8 47
0 3 42
0 0 40
0 0 41
0 0 42
0 0 42
0 0 42
0 0 41
0 0 42
0 0 42
0 0 42
0 0 42
0 0 42
0 0 42
0 0 42
0 0 42
0 0 42
0 0 42
0 0 42
0 0 42
0 0 42
0 0 42
0 0 42
0 0 42
0 0 42
0 0 42
0 0 42
0 0 42
0 0 42
0 0 42
0 0 42
0 0 42
0 0 42
0 0 42
0 0 42
0 0 42
0 0 42
0 0 42
0 0 42
0 0 42
0 0 42
0 0 42
0 0 42
0 0 42
0 0 42
0 0 42
0 0 42
0 0 42
0 0 42
0 0 42
0 0 42
0 0 42
0 0 42
0 0 42
0 0 42
0 0 42
0 0 42
0 0 42
0 0 42
0 0 42
0 0 42
0 0 42
0 0 42
0 0 42
0 0 41
173 182 189
218 234 255
218 234 255
218 234 255
218 234 255
218 234 255
218 234 255
218 234 255
218 234 255
218 234 255
218 234 255
218 234 255
218 234 255
218 234 255
218 234 255
218 234 255
218 234 255
218 234 255
218 234 255
218 234 255
218 234 255
218 234 255
218 234 255
218 234 255
218 234 255
218 234 255
218 234 255
218 234 255
218 234 255
218 234 255
218 234 255
218 234 255
218 234 255
218 234 255
218 234 255
218 234 255
218 234 255
218 234 255
218 234 255
218 234 255
218 234 255
218 234 255
218 234 255
218 234 255
218 234 255
218 234 255
218 234 255
218 234 255
218 234 255
218 234 255
218 234 255
218 234 255
218 234 255
218 234 255
218 234 255
218 234 255
218 234 255
218 234 255
218 234 255
218 234 255
218 234 255
218 234 255
218 234 255
218 234 255
218 234 255
218 234 255
218 234 255
218 234 255
219 234 255
219 234 255
219 234 255
219 234 255
219 234 255
219 234 255
219 234 255
219 234 255
219 234 255
219 234 255
219 234 255
219 234 255
219 234 255
219 234 255
219 234 255
219 234 255
219 234 255
219 234 255
219 234 255
219 234 255
219 234 255
219 234 255
219 234 255
219 234 255
219 234 255
219 234 255
219 234 255
219 234 255
219 234 255
219 234 255
219 234 255
219 234 255
219 234 255
219 234 255
219 234 255
219 234 255
219 234 255
219 234 255
219 234 255
219 234 255
219 234 255
219 234 255
219 234 255
219 234 255
219 234 255
219 234 255
219 234 255
219 234 255
219 234 255
219 234 255
219 234 255
219 234 255
219 234 255
219 234 255
219 234 255
219 234 255
219 234 255
219 234 255
219 234 255
219 234 255
219 234 255
219 234 255
219 234 255
219 234 255
219 234 255
219 234 255
219 234 255
219 234 255
219 234 255
219 234 255
219 234 255
219 234 255
219 234 255
219 234 255
219 234 255
219 234 255
219 234 255
219 234 255
219 234 255
219 234 255
219 234 255
219 234 255
219 234 255
219 234 255
219 234 255
219 234 255
219 234 255
219 234 255
219 234 255
219 234 255
219 234 255
219 234 255
219 234 255
219 234 255
219 234 255
219 234 255
219 234 255
219 234 255
219 234 255
219 234 255
219 234 255
219 234 255
219 234 255
219 234 255
219 234 255
219 234 255
219 234 255
219 234 255
219 234 255
219 234 255
219 234 255
219 234 255
219 234 255
219 234 255
219 234 255
219 234 255
219 234 255
219 234 255
219 234 255
219 234 255
219 234 255
219 234 255
219 234 255
219 234 255
219 234 255
219 234 255
219 234 255
219 234 255
219 234 255
219 234 255
219 234 255
219 234 255
219 234 255
219 234 255
219 234 255
219 234 255
219 234 255
219 234 255
201 216 236
21 23 49
0 0 42
0 0 42
0 0 42
0 0 42
0 0 42
0 0 42
0 0 42
0 0 42
0 0 42
0 0 42
0 0 42
0 0 42
0 0 42
0 0 42
0 0 42
0 0 42
0 0 42
0 0 42
0 0 42
0 0 42
0 0 42
0 0 42
0 0 42
0 0 42
0 0 42
0 0 42
0 0 42
0 0 42
0 0 42
0 0 42
0 0 42
0 0 42
0 0 42
0 0 42
0 0 42
0 0 42
0 0 42
0 0 42
0 0 42
0 0 42
0 0 42
0 0 42
0 0 42
0 0 42
0 0 42
0 0 42
0 0 42
0 0 41
0 0 42
0 0 42
0 0 42
0 0 42
0 0 47
0 0 46
0 0 51
0 0 52
0 0 50
0 0 53
0 0 51
0 0 46
0 0 46
0 0 49
0 0 50
0 0 71
11 34 62
41 72 21
42 58 14
47 63 18
61 73 31
64 75 35
79 82 46
108 104 72
126 112 84
119 103 82
79 82 52
73 78 43
74 82 42
42 68 10
70 87 31
68 81 29
36 50 47
0 0 44
0 0 42
0 0 41
0 0 41
0 0 42
0 0 42
0 0 42
0 0 42
0 0 42
0 0 45
0 0 44
0 0 42
0 0 44
0 0 42
0 0 47
0 0 52
0 0 53
1 6 56
6 13 57
4 13 56
0 8 50
0 6 45
0 0 45
0 0 37
0 0 39
0 0 42
25 35 33
18 29 51
15 25 66
16 30 58
3 12 64
6 25 65
11 16 37
18 28 31
27 44 21
43 70 8
50 80 18
46 78 29
42 69 40
35 52 63
3 12 49
0 0 41
0 0 44
0 0 46
0 0 43
0 0 42
0 0 45
0 0 45
0 0 43
0 0 39
0 0 45
0 0 45
0 0 39
0 0 41
0 0 42
0 0 42
0 0 42
0 0 42
0 0 42
0 0 42
0 0 42
0 0 42
0 0 42
0 0 42
0 0 42
0 0 42
0 0 42
0 0 42
0 0 42
0 0 42
0 0 42
0 0 42
0 0 42
0 0 42
0 0 42
0 0 42
0 0 42
0 0 42
0 0 42
0 0 42
0 0 42
0 0 42
0 0 42
0 0 42
0 0 42
0 0 42
0 0 42
0 0 42
0 0 42
0 0 42
0 0 42
0 0 42
0 0 42
0 0 42
0 0 42
0 0 42
0 0 42
0 0 42
0 0 42
0 0 42
0 0 42
0 0 42
0 0 42
0 0 42
0 0 42
0 0 42
0 0 42
0 0 42
0 0 42
0 0 42
0 0 42
96 96 98
217 231 251
219 234 255
219 234 255
219 234 255
219 234 255
219 234 255
219 234 255
219 234 255
219 234 255
219 234 255
219 234 255
219 234 255
219 234 255
219 234 255
219 234 255
219 234 255
219 234 255
219 234 255
219 234 255
219 234 255
219 234 255
219 234 255
219 234 255
219 234 255
219 234 255
219 234 255
219 234 255
219 234 255
219 234 255
219 234 255
219 234 255
219 234 255
219 234 255
219 234 255
219 234 255
219 234 255
219 234 255
219 234 255
219 234 255
219 234 255
219 234 255
219 234 255
219 234 255
219 234 255
219 234 255
219 234 255
219 234 255
219 234 255
219 234 255
219 234 255
219 234 255
219 234 255
219 234 255
219 234 255
219 234 255
219 234 255
219 234 255
219 234 255
219 234 255
219 234 255
219 234 255
219 234 255
219 234 255
219 234 255
219 234 255
219 234 255
219 234 255
219 234 255
219 234 255
219 234 255
219 234 255
219 234 255
219 234 255
219 234 255
219 234 255
219 234 255
219 234 255
219 234 255
219 234 255
219 234 255
219 234 255
219 234 255
219 234 255
219 234 255
219 234 255
219 234 255
219 234 255
219 234 255
219 234 255
219 234 255
219 234 255
219 234 255
219 234 255
219 234 255
219 234 255
219 234 255
219 234 255
219 234 255
219 234 255
219 234 255
219 234 255
219 234 255
219 234 255
219 234 255
219 234 255
219 234 255
219 234 255
219 234 255
219 234 255
219 234 255
219 234 255
219 234 255
219 234 255
219 234 255
219 234 255
219 234 255
219 234 255
219 234 255
219 234 255
219 234 255
219 234 255
219 234 255
219 234 255
219 234 255
219 234 255
219 234 255
219 234 255
219 234 255
219 234 255
219 234 255
219 234 255
219 234 255
219 234 255
219 234 255
219 234 255
219 234 255
219 234 255
219 234 255
219 234 255
219 234 255
219 234 255
219 234 255
219 234 255
219 234 255
219 234 255
219 234 255
219 234 255
219 234 255
219 234 255
219 234 255
219 234 255
219 234 255
219 234 255
219 234 255
219 234 255
219 234 255
219 234 255
219 234 255
219 234 255
219 234 255
219 234 255
219 234 255
219 234 255
219 234 255
219 234 255
219 234 255
219 234 255
219 234 255
219 234 255
219 234 255
219 234 255
219 234 255
219 234 255
219 234 255
219 234 255
219 234 255
219 234 255
219 234 255
219 234 255
219 234 255
219 234 255
219 234 255
219 234 255
219 234 255
219 234 255
219 234 255
219 234 255
219 234 255
219 234 255
219 234 255
219 234 255
219 234 255
219 234 255
219 234 255
219 234 255
219 234 255
219 234 255
219 234 255
219 234 255
219 234 255
219 234 255
219 234 255
219 234 255
219 234 255
219 234 255
153 164 181
0 0 42
0 0 42
0 0 42
0 0 42
0 0 42
0 0 42
0 0 42
0 0 42
0 0 42
0 0 42
0 0 42
0 0 42
0 0 42
0 0 42
0 0 42
0 0 42
0 0 42
0 0 42
0 0 42
0 0 42
0 0 42
0 0 42
0 0 42
0 0 42
0 0 42
0 0 42
0 0 42
0 0 42
0 0 42
0 0 42
0 0 42
0 0 42
0 0 42
0 0 42
0 0 42
0 0 42
0 0 42
0 0 42
0 0 42
0 0 42
0 0 42
0 0 42
0 0 42
0 0 42
0 0 42
0 0 42
0 0 42
0 0 42
0 0 42
0 0 42
0 0 42
0 0 42
0 0 42
0 0 45
0 0 44
0 0 48
0 0 49
0 0 48
0 0 49
0 0 47
0 0 45
0 0 48
0 0 53
0 10 55
0 5 60
0 25 86
28 63 36
36 66 11
50 68 17
52 70 25
54 72 22
63 79 28
80 88 45
94 95 58
105 95 67
95 96 67
77 76 46
58 66 24
37 68 4
45 73 5
51 79 14
40 64 45
0 0 47
0 0 41
0 0 43
0 0 39
0 0 42
0 0 42
0 0 42
0 0 42
0 0 42
0 0 40
0 0 41
0 0 39
0 0 47
0 0 49
0 0 57
18 31 45
19 34 46
25 46 45
32 62 36
29 59 42
23 48 48
14 26 43
0 0 44
0 0 42
0 0 40
0 0 36
0 0 41
0 0 45
0 6 41
22 37 33
0 10 48
0 0 54
0 0 43
0 0 46
0 0 44
9 14 38
19 27 41
26 38 41
47 68 20
44 70 15
39 63 28
22 33 41
8 12 48
0 0 39
0 0 43
0 0 42
0 0 41
0 0 46
6 8 37
0 0 39
6 6 44
11 12 48
2 2 36
0 0 39
0 0 42
0 0 42
0 0 42
0 0 42
0 0 42
0 0 42
0 0 42
0 0 42
0 0 42
0 0 42
0 0 42
0 0 42
0 0 42
0 0 42
0 0 42
0 0 42
0 0 42
0 0 42
0 0 42
0 0 42
0 0 42
0 0 42
0 0 42
0 0 42
0 0 42
0 0 42
0 0 42
0 0 42
0 0 42
0 0 42
0 0 42
0 0 42
0 0 42
0 0 42
0 0 42
0 0 42
0 0 42
0 0 42
0 0 42
0 0 42
0 0 42
0 0 42
0 0 42
0 0 42
0 0 42
0 0 42
0 0 42
0 0 42
0 0 42
0 0 42
0 0 42
0 0 42
0 0 42
0 0 42
0 0 42
0 0 42
0 0 42
0 1 45
183 191 200
219 234 255
219 234 255
219 234 255
219 234 255
219 234 255
219 234 255
219 234 255
219 234 255
219 234 255
219 234 255
219 234 255
219 234 255
219 234 255
219 234 255
219 234 255
219 234 255
219 234 255
219 234 255
219 234 255
219 234 255
219 234 255
219 234 255
219 234 255
219 234 255
219 234 255
219 234 255
219 234 255
219 234 255
219 234 255
219 234 255
219 234 255
219 234 255
219 234 255
219 234 255
219 234 255
219 234 255
219 234 255
219 234 255
219 234 255
219 234 255
219 234 255
219 234 255
219 234 255
219 234 255
219 234 255
219 234 255
219 234 255
219 234 255
219 234 255
219 234 255
219 234 255
219 234 255
219 234 255
219 234 255
219 234 255
219 234 255
219 234 255
219 234 255
219 234 255
219 234 255
219 234 255
219 234 255
219 234 255
219 234 255
219 234 255
219 234 255
219 234 255
219 234 255
219 234 255
219 234 255
219 234 255
219 234 255
219 234 255
219 234 255
219 234 255
219 234 255
219 234 255
219 234 255
219 234 255
219 234 255
219 234 255
219 234 255
219 234 255
219 234 255
219 234 255
219 234 255
219 234 255
219 234 255
219 234 255
219 234 255
219 234 255
219 234 255
219 234 255
219 234 255
219 234 255
219 234 255
219 234 255
219 234 255
219 234 255
219 234 255
219 234 255
219 234 255
219 234 255
219 234 255
219 234 255
219 234 255
219 234 255
219 234 255
219 234 255
219 234 255
219 234 255
219 234 255
219 234 255
219 234 255
219 234 255
219 234 255
219 234 255
219 234 255
219 234 255
219 234 255
219 234 255
219 234 255
219 234 255
219 234 255
219 234 255
219 234 255
219 234 255
219 234 255
219 234 255
219 234 255
219 234 255
219 234 255
219 234 255
219 234 255
219 234 255
219 234 255
219 234 255
219 234 255
219 234 255
219 234 255
219 234 255
219 234 255
219 234 255
219 234 255
219 234 255
219 234 255
219 234 255
219 234 255
219 234 255
219 234 255
219 234 255
219 234 255
219 234 255
219 234 255
219 234 255
219 234 255
219 234 255
219 234 255
219 234 255
219 234 255
219 234 255
219 234 255
219 234 255
219 234 255
219 234 255
219 234 255
219 234 255
219 234 255
219 234 255
219 234 255
219 234 255
219 234 255
219 234 255
219 234 255
219 234 255
219 234 255
219 234 255
219 234 255
219 234 255
219 234 255
219 234 255
219 234 255
219 234 255
219 234 255
219 234 255
219 234 255
219 234 255
219 234 255
219 234 255
219 234 255
219 234 255
219 234 255
219 234 255
219 234 255
219 234 255
219 234 255
219 234 255
219 234 255
219 234 255
219 234 255
219 234 255
219 234 255
219 234 255
216 232 253
61 66 83
0 0 42
0 0 42
0 0 42
0 0 42
0 0 42
0 0 42
0 0 42
0 0 42
0 0 42
0 0 42
0 0 42
0 0 42
0 0 42
0 0 42
0 0 42
0 0 42
0 0 42
0 0 42
0 0 42
0 0 42
0 0 42
0 0 42
0 0 42
0 0 42
0 0 42
0 0 42
0 0 42
0 0 42
0 0 42
0 0 42
0 0 42
0 0 42
0 0 42
0 0 42
0 0 42
0 0 42
0 0 42
0 0 42
0 0 42
0 0 42
0 0 42
0 0 42
0 0 42
0 0 42
0 0 42
0 0 42
0 0 42
0 0 42
0 0 42
0 0 42
0 0 42
0 0 42
0 0 42
0 0 40
0 0 42
0 0 44
0 0 45
0 0 45
0 0 44
0 0 45
0 0 47
0 0 52
0 0 57
0 0 63
0 16 73
7 30 94
28 56 36
42 64 17
46 66 18
51 72 20
48 71 14
52 75 13
61 79 27
66 80 34
86 88 51
87 89 56
83 80 52
72 76 44
43 61 13
44 65 12
44 74 6
43 73 13
10 19 40
0 0 48
0 0 46
0 0 39
0 0 42
0 0 42
0 0 42
0 0 42
0 0 42
0 0 45
0 0 43
0 0 43
0 0 43
0 14 61
25 42 36
42 67 16
40 69 12
39 69 9
35 67 0
34 66 0
32 60 10
26 43 29
0 0 41
0 0 44
0 0 48
0 0 38
0 0 41
0 0 36
0 0 40
0 0 43
0 0 39
0 0 44
0 0 42
0 0 41
0 0 37
0 0 37
0 0 44
3 4 49
27 43 39
45 72 9
53 80 12
52 74 18
57 74 26
38 55 35
7 11 46
0 0 40
0 0 44
6 7 44
25 30 39
0 0 43
0 0 41
0 0 45
0 0 41
0 0 41
0 0 41
0 0 42
0 0 42
0 0 42
0 0 42
0 0 42
0 0 42
0 0 42
0 0 42
0 0 42
0 0 42
0 0 42
0 0 42
0 0 42
0 0 42
0 0 42
0 0 42
0 0 42
0 0 42
0 0 42
0 0 42
0 0 42
0 0 42
0 0 42
0 0 42
0 0 42
0 0 42
0 0 42
0 0 42
0 0 42
0 0 42
0 0 42
0 0 42
0 0 42
0 0 42
0 0 42
0 0 42
0 0 42
0 0 42
0 0 42
0 0 42
0 0 42
0 0 42
0 0 42
0 0 42
0 0 42
0 0 42
0 0 42
0 0 42
0 0 42
0 0 42
0 0 42
0 0 42
0 0 42
0 0 42
0 0 42
0 0 41
0 0 43
139 144 138
219 232 250
219 234 255
219 234 255
219 234 255
219 234 255
219 234 255
219 234 255
219 234 255
219 234 255
219 234 255
219 234 255
219 234 255
219 234 255
219 234 255
219 234 255
219 234 255
219 234 255
219 234 255
219 234 255
219 234 255
219 234 255
219 234 255
219 234 255
219 234 255
219 234 255
219 234 255
219 234 255
219 234 255
219 234 255
219 234 255
219 234 255
219 234 255
219 234 255
219 234 255
219 234 255
219 234 255
219 234 255
219 234 255
219 234 255
219 234 255
219 234 255
219 234 255
219 234 255
219 234 255
219 234 255
219 234 255
219 234 255
219 234 255
219 234 255
219 234 255
219 234 255
219 234 255
219 234 255
219 234 255
219 234 255
219 234 255
219 234 255
219 234 255
219 234 255
219 234 255
219 234 255
219 234 255
219 234 255
219 234 255
219 234 255
219 234 255
219 234 255
219 234 255
219 234 255
219 234 255
219 234 255
219 234 255
219 234 255
219 234 255
219 234 255
219 234 255
219 234 255
219 234 255
219 234 255
219 234 255
219 234 255
219 234 255
219 234 255
219 234 255
219 234 255
219 234 255
219 234 255
219 234 255
219 234 255
219 234 255
219 234 255
219 234 255
219 234 255
219 234 255
219 234 255
219 234 255
219 234 255
219 234 255
219 234 255
219 234 255
219 234 255
219 234 255
219 234 255
219 234 255
219 234 255
219 234 255
219 234 255
219 234 255
219 234 255
219 234 255
219 234 255
219 234 255
219 234 255
219 234 255
219 234 255
219 234 255
219 234 255
219 234 255
219 234 255
219 234 255
219 234 255
219 234 255
219 234 255
219 234 255
219 234 255
219 234 255
219 234 255
219 234 255
219 234 255
219 234 255
219 234 255
219 234 255
219 234 255
219 234 255
219 234 255
219 234 255
219 234 255
219 234 255
219 234 255
219 234 255
219 234 255
219 234 255
219 234 255
219 234 255
219 234 255
219 234 255
219 234 255
219 234 255
219 234 255
219 234 255
219 234 255
219 234 255
219 234 255
219 234 255
219 234 255
219 234 255
219 234 255
219 234 255
219 234 255
219 234 255
219 234 255
219 234 255
219 234 255
219 234 255
219 234 255
219 234 255
219 234 255
219 234 255
219 234 255
219 234 255
219 234 255
219 234 255
219 234 255
219 234 255
219 234 255
219 234 255
219 234 255
219 234 255
219 234 255
219 234 255
219 234 255
219 234 255
219 234 255
219 234 255
219 234 255
219 234 255
219 234 255
219 234 255
219 234 255
219 234 255
219 234 255
219 234 255
219 234 255
219 234 255
219 234 255
219 234 255
219 234 255
219 234 255
219 234 255
219 234 255
219 234 255
219 234 255
219 234 255
161 172 190
0 0 42
0 0 42
0 0 42
0 0 42
0 0 42
0 0 42
0 0 42
0 0 42
0 0 42
0 0 42
0 0 42
0 0 42
0 0 42
0 0 42
0 0 42
0 0 42
0 0 42
0 0 42
0 0 42
0 0 42
0 0 42
0 0 42
0 0 42
0 0 42
0 0 42
0 0 42
0 0 42
0 0 42
0 0 42
0 0 42
0 0 42
0 0 42
0 0 42
0 0 42
0 0 42
0 0 42
0 0 42
0 0 42
0 0 42
0 0 42
0 0 42
0 0 42
0 0 42
0 0 42
0 0 42
0 0 42
0 0 42
0 0 42
0 0 42
0 0 42
0 0 42
0 0 42
0 0 42
0 0 41
0 0 41
0 0 42
0 0 43
0 0 45
0 0 44
0 0 44
0 0 45
0 0 49
0 0 54
0 0 59
0 0 59
0 21 80
10 44 83
34 53 15
43 62 9
43 66 13
53 76 20
48 73 16
44 68 2
50 73 14
50 71 15
58 73 21
63 74 28
78 82 46
86 90 56
80 86 51
57 68 28
47 68 11
51 75 13
37 55 23
10 16 37
0 0 47
0 0 42
0 0 42
0 0 42
0 0 42
0 0 42
0 0 42
0 0 41
0 0 41
0 0 45
0 0 47
6 34 77
36 64 44
36 60 0
35 61 0
33 61 0
30 59 0
32 60 0
21 40 22
7 11 37
0 0 37
0 0 33
0 0 41
0 0 45
0 0 39
0 0 44
0 0 46
0 0 42
0 0 38
0 0 44
0 0 46
0 0 45
0 0 45
0 0 44
0 0 42
0 0 41
2 4 48
16 27 40
20 33 51
42 65 29
60 79 25
52 72 16
35 57 21
25 40 20
13 20 33
4 4 43
16 18 44
0 0 44
0 0 33
0 0 37
0 0 49
0 0 43
0 0 41
0 0 42
0 0 42
0 0 42
0 0 42
0 0 42
0 0 42
0 0 42
0 0 42
0 0 42
0 0 42
0 0 42
0 0 42
0 0 42
0 0 42
0 0 42
0 0 42
0 0 42
0 0 42
0 0 42
0 0 42
0 0 42
0 0 42
0 0 42
0 0 42
0 0 42
0 0 42
0 0 42
0 0 42
0 0 42
0 0 42
0 0 42
0 0 42
0 0 42
0 0 42
0 0 42
0 0 42
0 0 42
0 0 42
0 0 42
0 0 42
0 0 42
0 0 42
0 0 42
0 0 42
0 0 42
0 0 42
0 0 42
0 0 42
0 0 42
0 0 42
0 0 42
0 0 42
0 0 42
0 0 42
0 0 42
0 0 42
0 0 41
29 37 63
211 220 218
219 234 255
219 234 255
219 234 255
219 234 255
219 234 255
219 234 255
219 234 255
219 234 255
219 234 255
219 234 255
219 234 255
219 234 255
219 234 255
219 234 255
219 234 255
219 234 255
219 234 255
219 234 255
219 234 255
219 234 255
219 234 255
219 234 255
219 234 255
219 234 255
219 234 255
219 234 255
219 234 255
219 234 255
219 234 255
219 234 255
219 234 255
219 234 255
219 234 255
219 234 255
219 234 255
219 234 255
219 234 255
219 234 255
219 234 255
219 234 255
219 234 255
219 234 255
219 234 255
219 234 255
219 234 255
219 234 255
219 234 255
219 234 255
219 234 255
219 234 255
219 234 255
219 234 255
219 234 255
219 234 255
219 234 255
219 234 255
219 234 255
219 234 255
219 234 255
219 234 255
219 234 255
219 234 255
219 234 255
219 234 255
219 234 255
219 234 255
219 234 255
219 234 255
219 234 255
219 234 255
219 234 255
219 234 255
219 234 255
219 234 255
219 234 255
219 234 255
219 234 255
219 234 255
219 234 255
219 234 255
219 234 255
219 234 255
219 234 255
219 234 255
219 234 255
219 234 255
219 234 255
219 234 255
219 234 255
219 234 255
219 234 255
219 234 255
219 234 255
219 234 255
219 234 255
219 234 255
219 234 255
219 234 255
219 234 255
219 234 255
219 234 255
219 234 255
219 234 255
219 234 255
219 234 255
219 234 255
219 234 255
219 234 255
219 234 255
219 234 255
219 234 255
219 234 255
219 234 255
219 234 255
219 234 255
219 234 255
219 234 255
219 234 255
219 234 255
219 234 255
219 234 255
219 234 255
219 234 255
219 234 255
219 234 255
219 234 255
219 234 255
219 234 255
219 234 255
219 234 255
219 234 255
219 234 255
219 234 255
219 234 255
219 234 255
219 234 255
219 234 255
219 234 255
219 234 255
219 234 255
219 234 255
219 234 255
219 234 255
219 234 255
219 234 255
219 234 255
219 234 255
219 234 255
219 234 255
219 234 255
219 234 255
219 234 255
219 234 255
219 234 255
219 234 255
219 234 255
219 234 255
219 234 255
219 234 255
219 234 255
219 234 255
219 234 255
219 234 255
219 234 255
219 234 255
219 234 255
219 234 255
219 234 255
219 234 255
219 234 255
219 234 255
219 234 255
219 234 255
219 234 255
219 234 255
219 234 255
219 234 255
219 234 255
219 234 255
219 234 255
219 234 255
219 234 255
219 234 255
219 234 255
219 234 255
219 234 255
219 234 255
219 234 255
219 234 255
219 234 255
219 234 255
219 234 255
219 234 255
219 234 255
219 234 255
219 234 255
219 234 255
219 234 255
219 234 255
219 234 255
219 234 255
214 229 250
72 77 93
2 5 42
0 0 40
0 0 43
0 0 42
0 0 42
0 0 42
0 0 42
0 0 42
0 0 42
0 0 42
0 0 42
0 0 42
0 0 42
0 0 42
0 0 42
0 0 42
0 0 42
0 0 42
0 0 42
0 0 42
0 0 42
0 0 42
0 0 42
0 0 42
0 0 42
0 0 42
0 0 42
0 0 42
0 0 42
0 0 42
0 0 42
0 0 42
0 0 42
0 0 42
0 0 42
0 0 42
0 0 42
0 0 42
0 0 42
0 0 42
0 0 42
0 0 42
0 0 42
0 0 42
0 0 42
0 0 42
0 0 42
0 0 42
0 0 42
0 0 42
0 0 42
0 0 42
0 0 42
0 0 40
0 0 42
0 0 42
0 0 43
0 0 45
0 0 45
0 0 45
0 0 45
0 0 48
0 0 53
0 0 56
0 0 58
1 12 75
23 53 60
40 62 16
42 67 10
49 72 16
51 72 16
46 69 14
44 66 4
43 64 0
45 68 9
47 68 0
51 68 12
55 70 21
66 74 30
82 89 49
73 83 41
56 69 29
46 66 6
44 68 15
22 40 33
0 0 47
0 0 39
0 0 42
0 0 42
0 0 42
0 0 42
0 0 42
0 0 42
0 0 49
0 0 45
0 8 51
12 49 72
34 67 41
32 60 0
34 63 0
33 62 0
30 58 0
32 59 9
11 24 33
0 0 41
0 0 46
0 0 39
0 0 43
0 0 37
0 0 43
0 0 45
0 0 38
0 0 39
0 0 43
0 0 42
0 0 41
0 0 38
0 0 41
0 0 43
0 0 41
0 0 39
0 0 43
0 0 43
17 30 41
30 51 23
34 52 18
39 57 27
39 60 20
36 51 33
21 34 32
1 3 40
10 10 38
28 36 35
11 13 39
5 7 42
14 21 38
12 17 40
0 0 41
0 0 42
0 0 42
0 0 42
0 0 42
0 0 42
0 0 42
0 0 42
0 0 42
0 0 42
0 0 42
0 0 42
0 0 42
0 0 42
0 0 42
0 0 42
0 0 42
0 0 42
0 0 42
0 0 42
0 0 42
0 0 42
0 0 42
0 0 42
0 0 42
0 0 42
0 0 42
0 0 42
0 0 42
0 0 42
0 0 42
0 0 42
0 0 42
0 0 42
0 0 42
0 0 42
0 0 42
0 0 42
0 0 42
0 0 42
0 0 42
0 0 42
0 0 42
0 0 42
0 0 42
0 0 42
0 0 42
0 0 42
0 0 42
0 0 42
0 0 42
0 0 42
0 0 42
0 0 42
0 0 42
0 0 42
0 0 42
0 0 42
0 0 48
163 164 153
218 233 254
219 234 255
219 234 255
219 234 255
219 234 255
219 234 255
219 234 255
219 234 255
219 234 255
219 234 255
219 234 255
219 234 255
219 234 255
219 234 255
219 234 255
219 234 255
219 234 255
219 234 255
219 234 255
219 234 255
219 234 255
219 234 255
219 234 255
219 234 255
219 234 255
219 234 255
219 234 255
219 234 255
219 234 255
219 234 255
219 234 255
219 234 255
219 234 255
219 234 255
219 234 255
219 234 255
219 234 255
219 234 255
219 234 255
219 234 255
219 234 255
219 234 255
219 234 255
219 234 255
219 234 255
219 234 255
219 234 255
219 234 255
219 234 255
219 234 255
219 234 255
219 234 255
219 234 255
219 234 255
219 234 255
219 234 255
219 234 255
219 234 255
219 234 255
219 234 255
219 234 255
219 234 255
219 234 255
219 234 255
219 234 255
219 234 255
219 234 255
219 234 255
219 234 255
219 234 255
219 234 255
219 234 255
219 234 255
219 234 255
219 234 255
219 234 255
219 234 255
219 234 255
219 234 255
219 234 255
219 234 255
219 234 255
219 234 255
219 234 255
219 234 255
219 234 255
219 234 255
219 234 255
219 234 255
219 234 255
219 234 255
219 234 255
219 234 255
219 234 255
219 234 255
219 234 255
219 234 255
219 234 255
219 234 255
219 234 255
219 234 255
219 234 255
219 234 255
219 234 255
219 234 255
219 234 255
219 234 255
219 234 255
219 234 255
219 234 255
219 234 255
219 234 255
219 234 255
219 234 255
219 234 255
219 234 255
219 234 255
219 234 255
219 234 255
219 234 255
219 234 255
219 234 255
219 234 255
219 234 255
219 234 255
219 234 255
219 234 255
219 234 255
219 234 255
219 234 255
219 234 255
219 234 255
219 234 255
219 234 255
219 234 255
219 234 255
219 234 255
219 234 255
219 234 255
219 234 255
219 234 255
219 234 255
219 234 255
219 234 255
219 234 255
219 234 255
219 234 255
219 234 255
219 234 255
219 234 255
219 234 255
219 234 255
219 234 255
219 234 255
219 234 255
219 234 255
219 234 255
219 234 255
219 234 255
219 234 255
219 234 255
219 234 255
219 234 255
219 234 255
219 234 255
219 234 255
219 234 255
219 234 255
219 234 255
219 234 255
219 234 255
219 234 255
219 234 255
219 234 255
219 234 255
219 234 255
219 234 255
219 234 255
219 234 255
219 234 255
219 234 255
219 234 255
219 234 255
219 234 255
219 234 255
219 234 255
219 234 255
219 234 255
219 234 255
219 234 255
219 234 255
219 234 255
219 234 255
219 234 255
219 234 255
219 234 255
219 234 255
219 234 255
219 234 255
219 234 255
219 234 255
192 205 225
0 0 42
14 18 43
0 0 43
0 0 41
0 0 42
0 0 42
0 0 42
0 0 42
0 0 42
0 0 42
0 0 42
0 0 42
0 0 42
0 0 42
0 0 42
0 0 42
0 0 42
0 0 42
0 0 42
0 0 42
0 0 42
0 0 42
0 0 42
0 0 42
0 0 42
0 0 42
0 0 42
0 0 42
0 0 42
0 0 42
0 0 42
0 0 42
0 0 42
0 0 42
0 0 42
0 0 42
0 0 42
0 0 42
0 0 42
0 0 42
0 0 42
0 0 42
0 0 42
0 0 42
0 0 42
0 0 42
0 0 42
0 0 42
0 0 42
0 0 42
0 0 42
0 0 42
0 0 42
0 0 42
0 0 41
0 0 43
0 0 44
0 0 44
0 0 43
0 0 43
0 0 45
0 0 45
0 0 46
0 0 47
0 0 47
0 0 48
0 2 57
11 25 65
32 62 40
42 74 10
46 70 18
46 68 5
45 65 9
43 62 11
40 59 0
48 70 12
39 62 0
41 60 4
49 66 13
50 63 15
74 87 44
60 74 28
63 74 33
82 86 50
56 73 25
35 59 33
9 17 45
0 0 40
0 0 46
0 0 44
0 0 43
0 0 43
0 0 40
0 0 48
0 0 47
0 0 44
5 13 60
23 50 46
37 63 6
33 60 0
32 58 0
31 60 0
31 64 0
35 60 26
9 15 35
0 0 42
0 0 42
0 0 42
0 0 42
0 0 41
0 0 42
0 0 42
0 0 41
0 0 42
0 0 42
0 0 42
0 0 43
0 0 42
0 0 42
0 0 42
0 0 42
0 0 42
0 0 42
0 0 40
8 12 39
8 12 42
0 7 40
0 3 40
8 12 39
9 10 44
0 0 39
0 0 38
9 12 43
38 46 45
52 66 31
39 55 30
48 67 28
49 68 24
32 50 24
12 26 35
0 0 42
0 0 43
0 0 43
0 0 39
0 0 43
0 0 41
0 0 43
0 0 42
0 0 40
0 0 42
0 0 42
0 0 42
0 0 42
0 0 42
0 0 42
0 0 42
0 0 42
0 0 42
0 0 42
0 0 42
0 0 42
0 0 42
0 0 42
0 0 42
0 0 42
0 0 42
0 0 42
0 0 42
0 0 42
0 0 42
0 0 42
0 0 42
0 0 42
0 0 42
0 0 42
0 0 42
0 0 42
0 0 42
0 0 42
0 0 42
0 0 42
0 0 42
0 0 42
0 0 42
0 0 42
0 0 42
0 0 42
0 0 42
0 0 42
0 0 42
0 0 42
0 0 42
0 0 42
0 0 42
0 0 42
0 0 42
0 0 44
107 106 107
216 222 229
219 234 255
219 234 255
219 234 255
219 234 255
219 234 255
219 234 255
219 234 255
219 234 255
219 234 255
219 234 255
219 234 255
219 234 255
219 234 255
219 234 255
219 234 255
219 234 255
219 234 255
219 234 255
219 234 255
219 234 255
219 234 255
219 234 255
219 234 255
219 234 255
219 234 255
219 234 255
219 234 255
219 234 255
219 234 255
219 234 255
219 234 255
219 234 255
219 234 255
219 234 255
219 234 255
219 234 255
219 234 255
219 234 255
219 234 255
219 234 255
219 234 255
219 234 255
219 234 255
219 234 255
219 234 255
219 234 255
219 234 255
219 234 255
219 234 255
219 234 255
219 234 255
219 234 255
219 234 255
219 234 255
219 234 255
219 234 255
219 234 255
219 234 255
219 234 255
219 234 255
219 234 255
219 234 255
219 234 255
219 234 255
219 234 255
219 234 255
219 234 255
219 234 255
219 234 255
219 234 255
219 234 255
219 234 255
219 234 255
219 234 255
219 234 255
219 234 255
219 234 255
219 234 255
219 234 255
219 234 255
219 234 255
219 234 255
219 234 255
219 234 255
219 234 255
219 234 255
219 234 255
219 234 255
219 234 255
219 234 255
219 234 255
219 234 255
219 234 255
219 234 255
219 234 255
219 234 255
219 234 255
219 234 255
219 234 255
219 234 255
219 234 255
219 234 255
219 234 255
219 234 255
219 234 255
219 234 255
219 234 255
219 234 255
219 234 255
219 234 255
219 234 255
219 234 255
219 234 255
219 234 255
219 234 255
219 234 255
219 234 255
219 234 255
219 234 255
219 234 255
219 234 255
219 234 255
219 234 255
219 234 255
219 234 255
219 234 255
219 234 255
219 234 255
219 234 255
219 234 255
219 234 255
219 234 255
219 234 255
219 234 255
219 234 255
219 234 255
219 234 255
219 234 255
219 234 255
219 234 255
219 234 255
219 234 255
219 234 255
219 234 255
219 234 255
219 234 255
219 234 255
219 234 255
219 234 255
219 234 255
219 234 255
219 234 255
219 234 255
219 234 255
219 234 255
219 234 255
219 234 255
219 234 255
219 234 255
219 234 255
219 234 255
219 234 255
219 234 255
219 234 255
219 234 255
219 234 255
219 234 255
219 234 255
219 234 255
219 234 255
219 234 255
219 234 255
219 234 255
219 234 255
219 234 255
219 234 255
219 234 255
219 234 255
219 234 255
219 234 255
219 234 255
219 234 255
219 234 255
219 234 255
219 234 255
219 234 255
219 234 255
219 234 255
219 234 255
219 234 255
219 234 255
219 234 255
219 234 255
219 234 255
219 234 255
219 234 255
219 234 255
219 234 255
219 234 255
219 234 255
109 117 133
0 0 43
8 9 43
5 7 40
0 0 42
0 0 42
0 0 42
0 0 42
0 0 42
0 0 42
0 0 42
0 0 42
0 0 42
0 0 42
0 0 42
0 0 42
0 0 42
0 0 42
0 0 42
0 0 42
0 0 42
0 0 42
0 0 42
0 0 42
0 0 42
0 0 42
0 0 42
0 0 42
0 0 42
0 0 42
0 0 42
0 0 42
0 0 42
0 0 42
0 0 42
0 0 42
0 0 42
0 0 42
0 0 42
0 0 42
0 0 42
0 0 42
0 0 42
0 0 42
0 0 42
0 0 42
0 0 42
0 0 42
0 0 42
0 0 42
0 0 42
0 0 42
0 0 42
0 0 42
0 0 42
0 0 42
0 0 44
0 0 45
0 0 44
0 0 42
0 0 42
0 0 43
0 0 45
0 0 45
0 0 45
0 0 45
0 0 51
0 0 44
0 0 51
10 25 82
31 52 55
36 65 34
41 74 13
45 72 25
48 72 10
46 66 14
45 67 6
39 67 0
38 62 2
42 62 9
42 61 10
48 67 15
51 67 22
71 79 36
73 78 33
48 62 12
42 72 20
27 51 27
7 13 41
0 0 43
0 0 41
0 0 46
0 0 55
0 0 58
0 14 71
0 10 55
0 13 61
14 36 45
36 64 16
38 66 0
30 62 0
32 62 0
29 63 2
34 67 18
28 54 20
9 18 44
0 0 42
0 0 42
0 0 42
0 0 42
0 0 42
0 0 42
0 0 42
0 0 42
0 0 42
0 0 42
0 0 42
0 0 42
0 0 42
0 0 42
0 0 42
0 0 42
0 0 42
0 0 40
0 0 43
0 0 45
0 0 42
0 0 42
0 0 43
0 0 43
0 0 40
0 0 40
0 0 48
0 1 40
7 7 43
50 64 34
59 77 29
49 67 14
46 64 17
50 73 15
38 64 20
18 30 42
12 18 41
2 2 41
0 0 47
0 0 40
0 0 38
0 0 43
0 0 41
0 0 43
0 0 42
0 0 42
0 0 42
0 0 42
0 0 42
0 0 43
0 0 41
0 0 42
0 0 42
0 0 42
0 0 42
0 0 42
0 0 42
0 0 42
0 0 42
0 0 42
0 0 42
0 0 42
0 0 42
0 0 42
0 0 42
0 0 42
0 0 42
0 0 42
0 0 42
0 0 42
0 0 42
0 0 42
0 0 42
0 0 42
0 0 42
0 0 42
0 0 42
0 0 42
0 0 42
0 0 42
0 0 42
0 0 42
0 0 42
0 0 42
0 0 42
0 0 42
0 0 42
0 0 42
0 0 42
0 0 42
0 0 42
0 0 44
28 35 72
203 206 194
219 234 255
219 234 255
219 234 255
219 234 255
219 234 255
219 234 255
219 234 255
219 234 255
219 234 255
219 234 255
219 234 255
219 234 255
219 234 255
219 234 255
219 234 255
219 234 255
219 234 255
219 234 255
219 234 255
219 234 255
219 234 255
219 234 255
219 234 255
219 234 255
219 234 255
219 234 255
219 234 255
219 234 255
219 234 255
219 234 255
219 234 255
219 234 255
219 234 255
219 234 255
219 234 255
219 234 255
219 234 255
219 234 255
219 234 255
219 234 255
219 234 255
219 234 255
219 234 255
219 234 255
219 234 255
219 234 255
219 234 255
219 234 255
219 234 255
219 234 255
219 234 255
219 234 255
219 234 255
219 234 255
219 234 255
219 234 255
219 234 255
219 234 255
219 234 255
219 234 255
219 234 255
219 234 255
219 234 255
219 234 255
219 234 255
219 234 255
219 234 255
219 234 255
219 234 255
219 234 255
219 234 255
219 234 255
219 234 255
219 234 255
219 234 255
219 234 255
219 234 255
219 234 255
219 234 255
219 234 255
219 234 255
219 234 255
219 234 255
219 234 255
219 234 255
219 234 255
219 234 255
219 234 255
219 234 255
219 234 255
219 234 255
219 234 255
219 234 255
219 234 255
219 234 255
219 234 255
219 234 255
219 234 255
219 234 255
219 234 255
219 234 255
219 234 255
219 234 255
219 234 255
219 234 255
219 234 255
219 234 255
219 234 255
219 234 255
219 234 255
219 234 255
219 234 255
219 234 255
219 234 255
219 234 255
219 234 255
219 234 255
219 234 255
219 234 255
219 234 255
219 234 255
219 234 255
219 234 255
219 234 255
219 234 255
219 234 255
219 234 255
219 234 255
219 234 255
219 234 255
219 234 255
219 234 255
219 234 255
219 234 255
219 234 255
219 234 255
219 234 255
219 234 255
219 234 255
219 234 255
219 234 255
219 234 255
219 234 255
219 234 255
219 234 255
219 234 255
219 234 255
219 234 255
219 234 255
219 234 255
219 234 255
219 234 255
219 234 255
219 234 255
219 234 255
219 234 255
219 234 255
219 234 255
219 234 255
219 234 255
219 234 255
219 234 255
219 234 255
219 234 255
219 234 255
219 234 255
219 234 255
219 234 255
219 234 255
219 234 255
219 234 255
219 234 255
219 234 255
219 234 255
219 234 255
219 234 255
219 234 255
219 234 255
219 234 255
219 234 255
219 234 255
219 234 255
219 234 255
219 234 255
219 234 255
219 234 255
219 234 255
219 234 255
219 234 255
219 234 255
219 234 255
219 234 255
219 234 255
219 234 255
219 234 255
219 234 255
219 234 255
219 234 255
219 234 255
204 218 239
0 0 42
0 0 41
13 14 42
2 2 43
0 0 42
0 0 42
0 0 42
0 0 42
0 0 42
0 0 42
0 0 42
0 0 42
0 0 42
0 0 42
0 0 42
0 0 42
0 0 42
0 0 42
0 0 42
0 0 42
0 0 42
0 0 42
0 0 42
0 0 42
0 0 42
0 0 42
0 0 42
0 0 42
0 0 42
0 0 42
0 0 42
0 0 42
0 0 42
0 0 42
0 0 42
0 0 42
0 0 42
0 0 42
0 0 42
0 0 42
0 0 42
0 0 42
0 0 42
0 0 42
0 0 42
0 0 42
0 0 42
0 0 42
0 0 42
0 0 42
0 0 42
0 0 42
0 0 42
0 0 42
0 0 42
0 0 42
0 0 42
0 0 42
0 0 42
0 0 42
0 0 42
0 0 44
0 0 45
0 0 45
0 0 45
0 0 47
0 0 48
0 0 46
0 0 45
0 0 57
0 7 70
18 35 54
36 65 18
43 70 10
45 65 0
50 68 17
49 70 15
44 74 0
43 71 1
43 69 2
43 66 3
43 67 10
55 72 22
73 80 42
85 90 58
52 70 18
40 71 8
41 73 16
45 70 22
31 51 18
11 21 40
10 18 51
14 29 40
22 42 38
26 54 40
28 57 24
28 55 44
31 64 28
37 70 0
32 62 0
32 65 0
35 68 0
38 72 7
35 66 30
19 39 35
2 9 41
0 0 42
0 0 42
0 0 42
0 0 42
0 0 42
0 0 42
0 0 42
0 0 42
0 0 42
0 0 42
0 0 42
0 0 42
0 0 42
0 0 41
0 0 40
0 0 42
0 0 42
0 0 38
8 16 33
18 29 27
11 17 33
0 0 39
0 0 43
0 0 45
0 0 42
7 9 40
26 38 41
25 35 36
17 27 36
35 47 34
64 80 31
63 77 26
59 75 29
47 66 11
43 69 13
49 73 24
55 77 24
25 33 34
0 0 43
4 6 44
11 19 38
10 14 39
7 9 41
0 0 43
0 0 43
0 0 42
0 0 42
0 0 42
0 0 42
0 0 40
0 0 41
0 0 42
0 0 42
0 0 42
0 0 42
0 0 42
0 0 42
0 0 42
0 0 42
0 0 42
0 0 42
0 0 42
0 0 42
0 0 42
0 0 42
0 0 42
0 0 42
0 0 42
0 0 42
0 0 42
0 0 42
0 0 42
0 0 42
0 0 42
0 0 42
0 0 42
0 0 42
0 0 42
0 0 42
0 0 42
0 0 42
0 0 42
0 0 42
0 0 42
0 0 42
0 0 42
0 0 42
0 0 42
0 0 42
0 0 42
0 0 42
0 0 43
0 4 57
149 158 145
217 228 242
219 234 255
219 234 255
219 234 255
219 234 255
219 234 255
219 234 255
219 234 255
219 234 255
219 234 255
219 234 255
219 234 255
219 234 255
219 234 255
219 234 255
219 234 255
219 234 255
219 234 255
219 234 255
219 234 255
219 234 255
219 234 255
219 234 255
219 234 255
219 234 255
219 234 255
219 234 255
219 234 255
219 234 255
219 234 255
219 234 255
219 234 255
219 234 255
219 234 255
219 234 255
219 234 255
219 234 255
219 234 255
219 234 255
219 234 255
219 234 255
219 234 255
219 234 255
219 234 255
219 234 255
219 234 255
219 234 255
219 234 255
219 234 255
219 234 255
219 234 255
219 234 255
219 234 255
219 234 255
219 234 255
219 234 255
219 234 255
219 234 255
219 234 255
219 234 255
219 234 255
219 234 255
219 234 255
219 234 255
219 234 255
219 234 255
219 234 255
219 234 255
219 234 255
219 234 255
219 234 255
219 234 255
219 234 255
219 234 255
219 234 255
219 234 255
219 234 255
219 234 255
219 234 255
219 234 255
219 234 255
219 234 255
219 234 255
219 234 255
219 234 255
219 234 255
219 234 255
219 234 255
219 234 255
219 234 255
219 234 255
219 234 255
219 234 255
219 234 255
219 234 255
219 234 255
219 234 255
219 234 255
219 234 255
219 234 255
219 234 255
219 234 255
219 234 255
219 234 255
219 234 255
219 234 255
219 234 255
219 234 255
219 234 255
219 234 255
219 234 255
219 234 255
219 234 255
219 234 255
219 234 255
219 234 255
219 234 255
219 234 255
219 234 255
219 234 255
219 234 255
219 234 255
219 234 255
219 234 255
219 234 255
219 234 255
219 234 255
219 234 255
219 234 255
219 234 255
219 234 255
219 234 255
219 234 255
219 234 255
219 234 255
219 234 255
219 234 255
219 234 255
219 234 255
219 234 255
219 234 255
219 234 255
219 234 255
219 234 255
219 234 255
219 234 255
219 234 255
219 234 255
219 234 255
219 234 255
219 234 255
219 234 255
219 234 255
219 234 255
219 234 255
219 234 255
219 234 255
219 234 255
219 234 255
219 234 255
219 234 255
219 234 255
219 234 255
219 234 255
219 234 255
219 234 255
219 234 255
219 234 255
219 234 255
219 234 255
219 234 255
219 234 255
219 234 255
219 234 255
219 234 255
219 234 255
219 234 255
219 234 255
219 234 255
219 234 255
219 234 255
219 234 255
219 234 255
219 234 255
219 234 255
219 234 255
219 234 255
219 234 255
219 234 255
219 234 255
219 234 255
219 234 255
219 234 255
219 234 255
219 234 255
219 234 255
219 234 255
219 234 255
219 234 255
155 166 183
0 0 42
0 0 42
25 32 37
0 0 42
0 0 42
0 0 42
0 0 42
0 0 42
0 0 42
0 0 42
0 0 42
0 0 42
0 0 42
0 0 42
0 0 42
0 0 42
0 0 42
0 0 42
0 0 42
0 0 42
0 0 42
0 0 42
0 0 42
0 0 42
0 0 42
0 0 42
0 0 42
0 0 42
0 0 42
0 0 42
0 0 42
0 0 42
0 0 42
0 0 42
0 0 42
0 0 42
0 0 42
0 0 42
0 0 42
0 0 42
0 0 42
0 0 42
0 0 42
0 0 42
0 0 42
0 0 42
0 0 42
0 0 42
0 0 42
0 0 42
0 0 42
0 0 42
0 0 42
0 0 42
0 0 42
0 0 42
0 0 42
0 0 42
0 0 42
0 0 42
0 0 42
0 0 44
0 0 45
0 0 45
0 0 45
0 0 50
0 0 43
0 0 40
0 0 46
0 0 47
0 0 53
0 0 57
8 16 59
20 34 40
30 46 44
37 60 35
39 68 0
40 65 0
41 66 5
44 67 14
50 72 19
47 68 12
51 68 14
72 82 36
79 88 48
59 74 29
36 65 5
38 72 10
48 77 20
49 79 16
41 71 17
39 68 16
41 73 0
45 78 12
50 71 12
42 71 8
45 72 10
47 70 14
37 67 6
34 59 0
35 64 0
37 63 0
43 71 11
33 61 26
10 20 44
0 0 42
0 0 42
0 0 42
0 0 42
0 0 42
0 0 42
0 0 42
0 0 42
0 0 42
0 0 42
0 0 42
0 0 42
0 0 42
0 0 42
0 0 40
0 0 41
0 0 42
0 0 42
0 0 40
11 20 36
33 51 23
48 73 19
28 45 26
11 18 35
0 0 40
0 0 44
5 7 36
21 29 32
23 32 34
12 23 37
21 30 39
39 49 35
58 69 30
50 61 35
26 36 41
22 33 34
18 25 46
33 46 35
22 31 41
0 0 44
11 16 42
36 54 15
39 58 22
25 37 33
0 4 44
0 0 41
0 0 42
0 0 42
0 0 42
0 0 42
0 0 40
0 0 40
0 0 42
0 0 40
0 0 42
0 0 42
0 0 42
0 0 42
0 0 42
0 0 42
0 0 42
0 0 42
0 0 42
0 0 42
0 0 42
0 0 42
0 0 42
0 0 42
0 0 42
0 0 42
0 0 42
0 0 42
0 0 42
0 0 42
0 0 42
0 0 42
0 0 42
0 0 42
0 0 42
0 0 42
0 0 42
0 0 42
0 0 42
0 0 42
0 0 42
0 0 42
0 0 42
0 0 42
0 0 42
0 0 42
0 0 42
0 0 42
0 0 42
0 0 57
57 75 104
210 220 212
219 234 255
219 234 255
219 234 255
219 234 255
219 234 255
219 234 255
219 234 255
219 234 255
219 234 255
219 234 255
219 234 255
219 234 255
219 234 255
219 234 255
219 234 255
219 234 255
219 234 255
219 234 255
219 234 255
219 234 255
219 234 255
219 234 255
219 234 255
219 234 255
219 234 255
219 234 255
219 234 255
219 234 255
219 234 255
219 234 255
219 234 255
219 234 255
219 234 255
219 234 255
219 234 255
219 234 255
219 234 255
219 234 255
219 234 255
219 234 255
219 234 255
219 234 255
219 234 255
219 234 255
219 234 255
219 234 255
219 234 255
219 234 255
219 234 255
219 234 255
219 234 255
219 234 255
219 234 255
219 234 255
219 234 255
219 234 255
219 234 255
219 234 255
219 234 255
219 234 255
219 234 255
219 234 255
219 234 255
219 234 255
219 234 255
219 234 255
219 234 255
219 234 255
219 234 255
219 234 255
219 234 255
219 234 255
219 234 255
219 234 255
219 234 255
219 234 255
219 234 255
219 234 255
219 234 255
219 234 255
219 234 255
219 234 255
219 234 255
219 234 255
219 234 255
219 234 255
219 234 255
219 234 255
219 234 255
219 234 255
219 234 255
219 234 255
219 234 255
219 234 255
219 234 255
219 234 255
219 234 255
219 234 255
219 234 255
219 234 255
219 234 255
219 234 255
219 234 255
219 234 255
219 234 255
219 234 255
219 234 255
219 234 255
219 234 255
219 234 255
219 234 255
219 234 255
219 234 255
219 234 255
219 234 255
219 234 255
219 234 255
219 234 255
219 234 255
219 234 255
219 234 255
219 234 255
219 234 255
219 234 255
219 234 255
219 234 255
219 234 255
219 234 255
219 234 255
219 234 255
219 234 255
219 234 255
219 234 255
219 234 255
219 234 255
219 234 255
219 234 255
219 234 255
219 234 255
219 234 255
219 234 255
219 234 255
219 234 255
219 234 255
219 234 255
219 234 255
219 234 255
219 234 255
219 234 255
219 234 255
219 234 255
219 234 255
219 234 255
219 234 255
219 234 255
219 234 255
219 234 255
219 234 255
219 234 255
219 234 255
219 234 255
219 234 255
219 234 255
219 234 255
219 234 255
219 234 255
219 234 255
219 234 255
219 234 255
219 234 255
219 234 255
219 234 255
219 234 255
219 234 255
219 234 255
219 234 255
219 234 255
219 234 255
219 234 255
219 234 255
219 234 255
219 234 255
219 234 255
219 234 255
219 234 255
219 234 255
219 234 255
219 234 255
219 234 255
219 234 255
219 234 255
219 234 255
219 234 255
219 234 255
219 234 255
219 234 255
219 234 255
217 232 253
65 70 86
0 0 42
0 0 41
28 34 35
0 0 42
0 0 42
0 0 42
0 0 42
0 0 42
0 0 42
0 0 42
0 0 42
0 0 42
0 0 42
0 0 42
0 0 42
0 0 42
0 0 42
0 0 42
0 0 42
0 0 42
0 0 42
0 0 42
0 0 42
0 0 42
0 0 42
0 0 42
0 0 42
0 0 42
0 0 42
0 0 42
0 0 42
0 0 42
0 0 42
0 0 42
0 0 42
0 0 42
0 0 42
0 0 42
0 0 42
0 0 42
0 0 42
0 0 42
0 0 42
0 0 42
0 0 42
0 0 42
0 0 42
0 0 42
0 0 42
0 0 42
0 0 42
0 0 42
0 0 42
0 0 42
0 0 42
0 0 42
0 0 42
0 0 42
0 0 42
0 0 42
0 0 42
0 0 44
0 0 45
0 0 45
0 0 45
0 0 45
0 0 43
0 0 45
0 0 46
0 0 48
0 0 48
0 0 48
0 0 51
0 0 62
0 7 59
10 25 55
32 57 30
38 61 12
39 62 0
39 60 6
43 64 10
48 67 16
50 68 11
62 75 28
72 82 33
62 74 29
32 52 0
37 64 0
42 72 10
44 75 16
45 79 8
45 79 0
39 70 0
39 68 7
44 67 2
35 66 8
39 70 10
42 71 12
35 69 5
30 62 0
33 61 0
36 62 0
38 65 0
29 52 32
0 5 53
0 0 38
0 0 42
0 0 42
0 0 42
0 0 42
0 0 42
0 0 42
0 0 42
0 0 42
0 0 42
0 0 42
0 0 42
0 0 42
0 0 42
0 0 42
0 0 42
0 0 42
0 0 42
0 0 43
0 0 42
0 6 39
0 10 45
0 0 46
0 0 43
0 0 40
0 0 38
0 0 40
0 0 44
0 0 45
0 0 46
0 0 44
0 0 39
16 19 39
7 13 43
0 0 38
0 0 46
0 0 44
0 0 43
0 0 46
0 0 36
0 0 40
18 26 41
25 37 45
15 24 40
0 1 42
0 0 44
0 0 42
0 0 40
0 0 42
0 0 42
0 0 40
0 0 39
0 0 42
0 0 42
0 0 41
0 0 42
0 0 42
0 0 42
0 0 42
0 0 42
0 0 42
0 0 42
0 0 42
0 0 42
0 0 42
0 0 42
0 0 42
0 0 42
0 0 42
0 0 42
0 0 42
0 0 42
0 0 42
0 0 42
0 0 42
0 0 42
0 0 42
0 0 42
0 0 42
0 0 42
0 0 42
0 0 42
0 0 42
0 0 42
0 0 42
0 0 42
0 0 42
0 0 42
0 0 42
0 0 42
0 0 42
0 0 42
0 0 43
0 0 51
0 25 83
154 162 152
219 234 255
219 234 255
219 234 255
219 234 255
219 234 255
219 234 255
219 234 255
219 234 255
219 234 255
219 234 255
219 234 255
219 234 255
219 234 255
219 234 255
219 234 255
219 234 255
219 234 255
219 234 255
219 234 255
219 234 255
219 234 255
219 234 255
219 234 255
219 234 255
219 234 255
219 234 255
219 234 255
219 234 255
219 234 255
219 234 255
219 234 255
219 234 255
219 234 255
219 234 255
219 234 255
219 234 255
219 234 255
219 234 255
219 234 255
219 234 255
219 234 255
219 234 255
219 234 255
219 234 255
219 234 255
219 234 255
219 234 255
219 234 255
219 234 255
219 234 255
219 234 255
219 234 255
219 234 255
219 234 255
219 234 255
219 234 255
219 234 255
219 234 255
219 234 255
219 234 255
219 234 255
219 234 255
219 234 255
219 234 255
219 234 255
219 234 255
219 234 255
219 234 255
219 234 255
219 234 255
219 234 255
219 234 255
219 234 255
219 234 255
219 234 255
219 234 255
219 234 255
219 234 255
219 234 255
219 234 255
219 234 255
219 234 255
219 234 255
219 234 255
219 234 255
219 234 255
219 234 255
219 234 255
219 234 255
219 234 255
219 234 255
219 234 255
219 234 255
219 234 255
219 234 255
219 234 255
219 234 255
219 234 255
219 234 255
219 234 255
219 234 255
219 234 255
219 234 255
219 234 255
219 234 255
219 234 255
219 234 255
219 234 255
219 234 255
219 234 255
219 234 255
219 234 255
219 234 255
219 234 255
219 234 255
219 234 255
219 234 255
219 234 255
219 234 255
219 234 255
219 234 255
219 234 255
219 234 255
219 234 255
219 234 255
219 234 255
219 234 255
219 234 255
219 234 255
219 234 255
219 234 255
219 234 255
219 234 255
219 234 255
219 234 255
219 234 255
219 234 255
219 234 255
219 234 255
219 234 255
219 234 255
219 234 255
219 234 255
219 234 255
219 234 255
219 234 255
219 234 255
219 234 255
219 234 255
219 234 255
219 234 255
219 234 255
219 234 255
219 234 255
219 234 255
219 234 255
219 234 255
219 234 255
219 234 255
219 234 255
219 234 255
219 234 255
219 234 255
219 234 255
219 234 255
219 234 255
219 234 255
219 234 255
219 234 255
219 234 255
219 234 255
219 234 255
219 234 255
219 234 255
219 234 255
219 234 255
219 234 255
219 234 255
219 234 255
219 234 255
219 234 255
219 234 255
219 234 255
219 234 255
219 234 255
219 234 255
219 234 255
219 234 255
219 234 255
219 234 255
219 234 255
219 234 255
219 234 255
219 234 255
219 234 255
219 234 255
219 234 255
183 196 215
0 0 42
0 0 42
4 3 42
13 13 40
0 0 42
0 0 42
0 0 42
0 0 42
0 0 42
0 0 42
0 0 42
0 0 42
0 0 42
0 0 42
0 0 42
0 0 42
0 0 42
0 0 42
0 0 42
0 0 42
0 0 42
0 0 42
0 0 42
0 0 42
0 0 42
0 0 42
0 0 42
0 0 42
0 0 42
0 0 42
0 0 42
0 0 42
0 0 42
0 0 42
0 0 42
0 0 42
0 0 42
0 0 42
0 0 42
0 0 42
0 0 42
0 0 42
0 0 42
0 0 42
0 0 42
0 0 42
0 0 42
0 0 42
0 0 42
0 0 42
0 0 42
0 0 42
0 0 42
0 0 42
0 0 42
0 0 42
0 0 42
0 0 42
0 0 42
0 0 42
0 0 42
0 0 42
0 0 45
0 0 45
0 0 45
0 0 44
0 0 38
0 0 44
0 0 42
0 0 40
0 0 43
0 0 46
0 0 41
0 0 47
0 0 42
0 0 50
0 3 53
9 14 52
14 28 53
25 43 29
38 61 22
43 65 15
43 63 13
41 61 15
46 64 11
59 70 21
63 73 29
58 72 27
43 62 11
34 59 4
37 64 7
29 58 2
31 59 3
38 64 11
41 66 9
39 66 6
34 58 0
28 58 0
31 56 0
48 67 0
42 74 0
36 66 0
35 63 0
35 63 0
28 48 31
0 0 49
0 0 45
0 0 41
0 0 42
0 0 41
0 0 43
0 0 43
0 0 42
0 0 40
0 0 40
0 0 42
0 0 42
0 0 41
0 0 42
0 0 42
0 0 42
0 0 42
0 0 42
0 0 42
0 0 42
0 0 42
0 0 41
0 0 40
0 0 40
0 0 42
0 0 39
0 0 42
0 0 39
0 0 39
0 0 44
0 0 38
0 0 40
0 0 44
0 0 39
0 0 49
0 0 41
0 0 41
0 0 36
0 0 43
0 0 42
0 0 40
0 0 41
0 0 40
0 0 39
0 0 45
0 0 45
0 0 38
0 0 40
0 0 39
0 0 41
0 0 42
0 0 43
0 0 40
0 0 40
0 0 43
0 0 40
0 0 41
0 0 42
0 0 42
0 0 42
0 0 42
0 0 42
0 0 42
0 0 42
0 0 42
0 0 42
0 0 42
0 0 42
0 0 42
0 0 42
0 0 42
0 0 42
0 0 42
0 0 42
0 0 42
0 0 42
0 0 42
0 0 42
0 0 42
0 0 42
0 0 42
0 0 42
0 0 42
0 0 42
0 0 42
0 0 42
0 0 42
0 0 42
0 0 42
0 0 42
0 0 42
0 0 42
0 0 42
0 0 42
0 0 44
0 10 67
129 126 124
216 222 229
219 234 255
219 234 255
219 234 255
219 234 255
219 234 255
219 234 255
219 234 255
219 234 255
219 234 255
219 234 255
219 234 255
219 234 255
219 234 255
219 234 255
219 234 255
219 234 255
219 234 255
219 234 255
219 234 255
219 234 255
219 234 255
219 234 255
219 234 255
219 234 255
219 234 255
219 234 255
219 234 255
219 234 255
219 234 255
219 234 255
219 234 255
219 234 255
219 234 255
219 234 255
219 234 255
219 234 255
219 234 255
219 234 255
219 234 255
219 234 255
219 234 255
219 234 255
219 234 255
219 234 255
219 234 255
219 234 255
219 234 255
219 234 255
219 234 255
219 234 255
219 234 255
219 234 255
219 234 255
219 234 255
219 234 255
219 234 255
219 234 255
219 234 255
219 234 255
219 234 255
219 234 255
219 234 255
219 234 255
219 234 255
219 234 255
219 234 255
219 234 255
219 234 255
219 234 255
219 234 255
219 234 255
219 234 255
219 234 255
219 234 255
219 234 255
219 234 255
219 234 255
219 234 255
219 234 255
219 234 255
219 234 255
219 234 255
219 234 255
219 234 255
219 234 255
219 234 255
219 234 255
219 234 255
219 234 255
219 234 255
219 234 255
219 234 255
219 234 255
219 234 255
219 234 255
219 234 255
219 234 255
219 234 255
219 234 255
219 234 255
219 234 255
219 234 255
219 234 255
219 234 255
219 234 255
219 234 255
219 234 255
219 234 255
219 234 255
219 234 255
219 234 255
219 234 255
219 234 255
219 234 255
219 234 255
219 234 255
219 234 255
219 234 255
219 234 255
219 234 255
219 234 255
219 234 255
219 234 255
219 234 255
219 234 255
219 234 255
219 234 255
219 234 255
219 234 255
219 234 255
219 234 255
219 234 255
219 234 255
219 234 255
219 234 255
219 234 255
219 234 255
219 234 255
219 234 255
219 234 255
219 234 255
219 234 255
219 234 255
219 234 255
219 234 255
219 234 255
219 234 255
219 234 255
219 234 255
219 234 255
219 234 255
219 234 255
219 234 255
219 234 255
219 234 255
219 234 255
219 234 255
219 234 255
219 234 255
219 234 255
219 234 255
219 234 255
219 234 255
219 234 255
219 234 255
219 234 255
219 234 255
219 234 255
219 234 255
219 234 255
219 234 255
219 234 255
219 234 255
219 234 255
219 234 255
219 234 255
219 234 255
219 234 255
219 234 255
219 234 255
219 234 255
219 234 255
219 234 255
219 234 255
219 234 255
219 234 255
219 234 255
219 234 255
219 234 255
219 234 255
219 234 255
219 234 255
219 234 255
219 234 255
219 234 255
219 234 255
131 140 157
0 0 42
0 0 42
0 0 40
0 0 42
0 0 42
0 0 42
0 0 42
0 0 42
0 0 42
0 0 42
0 0 42
0 0 42
0 0 42
0 0 42
0 0 42
0 0 42
0 0 42
0 0 42
0 0 42
0 0 42
0 0 42
0 0 42
0 0 42
0 0 42
0 0 42
0 0 42
0 0 42
0 0 42
0 0 42
0 0 42
0 0 42
0 0 42
0 0 42
0 0 42
0 0 42
0 0 42
0 0 42
0 0 42
0 0 42
0 0 42
0 0 42
0 0 42
0 0 42
0 0 42
0 0 42
0 0 42
0 0 42
0 0 42
0 0 42
0 0 42
0 0 44
0 0 44
0 0 43
0 0 42
0 0 42
0 0 42
0 0 42
0 0 42
0 0 42
0 0 42
0 0 42
0 0 42
0 0 42
0 0 42
0 0 42
0 0 42
0 0 41
0 0 42
0 0 42
0 0 42
0 0 42
0 0 42
0 0 44
0 0 45
0 0 45
0 0 45
0 0 46
0 0 44
0 0 47
0 0 50
12 22 56
22 40 42
31 57 42
39 67 28
41 69 0
41 62 0
57 71 28
67 80 36
49 66 19
46 68 13
48 73 32
39 66 21
45 71 7
49 71 20
48 72 19
47 67 12
40 60 14
31 54 8
27 54 0
34 64 0
40 71 0
40 70 0
39 69 0
33 60 4
25 38 33
0 0 48
0 0 37
0 0 42
0 0 44
0 0 43
0 0 44
0 0 44
0 0 43
0 0 42
0 0 36
0 0 45
0 0 42
0 0 40
0 0 41
0 0 42
0 0 42
0 0 42
0 0 42
0 0 42
0 0 42
0 0 42
0 0 42
0 0 42
0 0 42
0 0 42
0 0 42
0 0 42
0 0 42
0 0 42
0 0 42
0 0 42
0 0 42
0 0 42
0 0 41
0 0 41
0 0 42
0 0 42
0 0 41
0 0 43
0 0 41
0 0 42
0 0 44
0 0 44
0 0 41
0 0 41
0 0 42
0 0 41
0 0 41
0 0 40
0 0 42
0 0 43
0 0 42
0 0 41
0 0 42
0 0 43
0 0 40
0 0 40
0 0 42
0 0 42
0 0 41
0 0 42
0 0 42
0 0 42
0 0 42
0 0 42
0 0 42
0 0 42
0 0 42
0 0 42
0 0 42
0 0 42
0 0 42
0 0 42
0 0 42
0 0 42
0 0 42
0 0 42
0 0 42
0 0 42
0 0 42
0 0 42
0 0 42
0 0 42
0 0 42
0 0 42
0 0 42
0 0 42
0 0 42
0 0 42
0 0 42
0 0 42
0 0 42
0 0 41
0 0 42
0 0 42
0 0 55
37 60 97
211 212 197
219 234 255
219 234 255
219 234 255
219 234 255
219 234 255
219 234 255
219 234 255
219 234 255
219 234 255
219 234 255
219 234 255
219 234 255
219 234 255
219 234 255
219 234 255
219 234 255
219 234 255
219 234 255
219 234 255
219 234 255
219 234 255
219 234 255
219 234 255
219 234 255
219 234 255
219 234 255
219 234 255
219 234 255
219 234 255
219 234 255
219 234 255
219 234 255
219 234 255
219 234 255
219 234 255
219 234 255
219 234 255
219 234 255
219 234 255
219 234 255
219 234 255
219 234 255
219 234 255
219 234 255
219 234 255
219 234 255
219 234 255
219 234 255
219 234 255
219 234 255
219 234 255
219 234 255
219 234 255
219 234 255
219 234 255
219 234 255
219 234 255
219 234 255
219 234 255
219 234 255
219 234 255
219 234 255
219 234 255
219 234 255
219 234 255
219 234 255
219 234 255
219 234 255
219 234 255
219 234 255
219 234 255
219 234 255
219 234 255
219 234 255
219 234 255
219 234 255
219 234 255
219 234 255
219 234 255
219 234 255
219 234 255
219 234 255
219 234 255
219 234 255
219 234 255
219 234 255
219 234 255
219 234 255
219 234 255
219 234 255
219 234 255
219 234 255
219 234 255
219 234 255
219 234 255
219 234 255
219 234 255
219 234 255
219 234 255
219 234 255
219 234 255
219 234 255
219 234 255
219 234 255
219 234 255
219 234 255
219 234 255
219 234 255
219 234 255
219 234 255
219 234 255
219 234 255
219 234 255
219 234 255
219 234 255
219 234 255
219 234 255
219 234 255
219 234 255
219 234 255
219 234 255
219 234 255
219 234 255
219 234 255
219 234 255
219 234 255
219 234 255
219 234 255
219 234 255
219 234 255
219 234 255
219 234 255
219 234 255
219 234 255
219 234 255
219 234 255
219 234 255
219 234 255
219 234 255
219 234 255
219 234 255
219 234 255
219 234 255
219 234 255
219 234 255
219 234 255
219 234 255
219 234 255
219 234 255
219 234 255
219 234 255
219 234 255
219 234 255
219 234 255
219 234 255
219 234 255
219 234 255
219 234 255
219 234 255
219 234 255
219 234 255
219 234 255
219 234 255
219 234 255
219 234 255
219 234 255
219 234 255
219 234 255
219 234 255
219 234 255
219 234 255
219 234 255
219 234 255
219 234 255
219 234 255
219 234 255
219 234 255
219 234 255
219 234 255
219 234 255
219 234 255
219 234 255
219 234 255
219 234 255
219 234 255
219 234 255
219 234 255
219 234 255
219 234 255
219 234 255
219 234 255
219 234 255
219 234 255
219 234 255
219 234 255
216 231 252
43 46 65
0 0 42
0 0 43
0 0 40
0 0 42
0 0 42
0 0 42
0 0 42
0 0 42
0 0 42
0 0 42
0 0 42
0 0 42
0 0 42
0 0 42
0 0 42
0 0 42
0 0 42
0 0 42
0 0 42
0 0 42
0 0 42
0 0 42
0 0 42
0 0 42
0 0 42
0 0 42
0 0 42
0 0 42
0 0 42
0 0 42
0 0 42
0 0 42
0 0 42
0 0 42
0 0 42
0 0 42
0 0 42
0 0 42
0 0 42
0 0 42
0 0 42
0 0 42
0 0 42
0 0 42
0 0 42
0 0 42
0 0 42
0 0 42
0 0 42
0 0 42
0 0 45
0 0 45
0 0 44
0 0 42
0 0 42
0 0 42
0 0 42
0 0 42
0 0 42
0 0 42
0 0 42
0 0 42
0 0 42
0 0 42
0 0 42
0 0 42
0 0 42
0 0 42
0 0 42
0 0 42
0 0 42
0 0 42
0 0 42
0 0 43
0 0 44
0 0 45
0 0 45
0 0 45
0 0 47
0 0 48
0 0 49
0 0 46
8 12 51
24 41 60
28 51 32
33 56 11
47 65 20
46 66 16
36 59 21
23 56 54
26 50 77
18 32 65
29 52 25
37 62 5
36 63 10
42 65 7
45 68 21
39 61 14
30 52 0
32 61 0
38 71 0
38 70 11
35 67 0
20 42 30
0 6 44
7 13 41
2 5 44
6 9 43
6 11 37
0 10 41
0 10 34
0 8 37
0 4 39
0 0 52
0 0 34
0 0 51
0 0 45
0 0 42
0 0 39
0 0 42
0 0 42
0 0 42
0 0 42
0 0 42
0 0 42
0 0 42
0 0 42
0 0 42
0 0 42
0 0 42
0 0 42
0 0 42
0 0 42
0 0 42
0 0 42
0 0 42
0 0 42
0 0 42
0 0 42
0 0 42
0 0 42
0 0 42
0 0 42
0 0 42
0 0 42
0 0 42
0 0 42
0 0 42
0 0 42
0 0 42
0 0 42
0 0 42
0 0 42
0 0 42
0 0 42
0 0 42
2 4 42
11 20 36
4 6 46
0 0 44
0 0 39
0 0 38
0 0 42
0 0 42
0 0 40
0 0 42
0 0 41
0 0 40
0 0 42
0 0 42
0 0 42
0 0 42
0 0 42
0 0 42
0 0 42
0 0 42
0 0 42
0 0 42
0 0 42
0 0 42
0 0 42
0 0 42
0 0 42
0 0 42
0 0 42
0 0 42
0 0 42
0 0 42
0 0 42
0 0 42
0 0 42
0 0 42
0 0 42
0 0 42
0 0 42
0 0 42
0 0 42
0 0 42
0 0 42
0 0 44
0 0 51
0 15 68
156 156 134
219 231 249
219 234 255
219 234 255
219 234 255
219 234 255
219 234 255
219 234 255
219 234 255
219 234 255
219 234 255
219 234 255
219 234 255
219 234 255
219 234 255
219 234 255
219 234 255
219 234 255
219 234 255
219 234 255
219 234 255
219 234 255
219 234 255
219 234 255
219 234 255
219 234 255
219 234 255
219 234 255
219 234 255
219 234 255
219 234 255
219 234 255
219 234 255
219 234 255
219 234 255
219 234 255
219 234 255
219 234 255
219 234 255
219 234 255
219 234 255
219 234 255
219 234 255
219 234 255
219 234 255
219 234 255
219 234 255
219 234 255
219 234 255
219 234 255
219 234 255
219 234 255
219 234 255
219 234 255
219 234 255
219 234 255
219 234 255
219 234 255
219 234 255
219 234 255
219 234 255
219 234 255
219 234 255
219 234 255
219 234 255
219 234 255
219 234 255
219 234 255
219 234 255
219 234 255
219 234 255
219 234 255
219 234 255
219 234 255
219 234 255
219 234 255
219 234 255
219 234 255
219 234 255
219 234 255
219 234 255
219 234 255
219 234 255
219 234 255
219 234 255
219 234 255
219 234 255
219 234 255
219 234 255
219 234 255
219 234 255
219 234 255
219 234 255
219 234 255
219 234 255
219 234 255
219 234 255
219 234 255
219 234 255
219 234 255
219 234 255
219 234 255
219 234 255
219 234 255
219 234 255
219 234 255
219 234 255
219 234 255
219 234 255
219 234 255
219 234 255
219 234 255
219 234 255
219 234 255
219 234 255
219 234 255
219 234 255
219 234 255
219 234 255
219 234 255
219 234 255
219 234 255
219 234 255
219 234 255
219 234 255
219 234 255
219 234 255
219 234 255
219 234 255
219 234 255
219 234 255
219 234 255
219 234 255
219 234 255
219 234 255
219 234 255
219 234 255
219 234 255
219 234 255
219 234 255
219 234 255
219 234 255
219 234 255
219 234 255
219 234 255
219 234 255
219 234 255
219 234 255
219 234 255
219 234 255
219 234 255
219 234 255
219 234 255
219 234 255
219 234 255
219 234 255
219 234 255
219 234 255
219 234 255
219 234 255
219 234 255
219 234 255
219 234 255
219 234 255
219 234 255
219 234 255
219 234 255
219 234 255
219 234 255
219 234 255
219 234 255
219 234 255
219 234 255
219 234 255
219 234 255
219 234 255
219 234 255
219 234 255
219 234 255
219 234 255
219 234 255
219 234 255
219 234 255
219 234 255
219 234 255
219 234 255
219 234 255
219 234 255
219 234 255
219 234 255
219 234 255
219 234 255
219 234 255
219 234 255
219 234 255
219 234 255
170 181 200
0 0 42
0 0 42
0 0 43
0 0 42
0 0 42
0 0 42
0 0 42
0 0 42
0 0 42
0 0 42
0 0 42
0 0 42
0 0 42
0 0 42
0 0 42
0 0 42
0 0 42
0 0 42
0 0 42
0 0 42
0 0 42
0 0 42
0 0 42
0 0 42
0 0 42
0 0 42
0 0 42
0 0 42
0 0 42
0 0 42
0 0 42
0 0 42
0 0 42
0 0 42
0 0 42
0 0 42
0 0 42
0 0 42
0 0 42
0 0 42
0 0 42
0 0 42
0 0 42
0 0 42
0 0 42
0 0 42
0 0 42
0 0 42
0 0 42
0 0 42
0 0 42
0 0 45
0 0 45
0 0 44
0 0 42
0 0 42
0 0 42
0 0 42
0 0 42
0 0 42
0 0 42
0 0 42
0 0 42
0 0 42
0 0 42
0 0 42
0 0 42
0 0 42
0 0 42
0 0 42
0 0 42
0 0 42
0 0 42
0 0 42
0 0 42
0 0 42
0 0 43
0 0 45
0 0 46
0 0 44
0 0 43
0 0 45
0 0 46
0 0 47
0 0 42
3 7 54
4 8 64
11 19 52
12 24 39
5 17 63
0 24 93
0 23 82
0 10 63
0 0 60
9 19 47
34 62 21
33 58 0
39 60 10
45 63 5
44 62 7
38 59 6
39 65 0
34 62 0
29 55 0
33 58 11
32 58 0
40 65 9
36 59 8
39 57 17
35 57 9
38 64 0
35 62 0
31 58 0
34 59 5
24 39 28
12 16 46
3 5 41
0 0 40
0 0 45
0 0 46
0 0 42
0 0 42
0 0 42
0 0 42
0 0 42
0 0 42
0 0 42
0 0 42
0 0 42
0 0 42
0 0 42
0 0 42
0 0 42
0 0 42
0 0 42
0 0 42
0 0 42
0 0 42
0 0 42
0 0 42
0 0 42
0 0 42
0 0 42
0 0 42
0 0 42
0 0 42
0 0 42
0 0 42
0 0 42
0 0 42
0 0 42
0 0 42
0 0 42
0 0 42
0 0 42
0 0 42
0 0 42
0 0 42
0 8 40
1 2 36
0 0 38
0 0 40
0 0 41
0 0 42
0 0 42
0 0 42
0 0 42
0 0 42
0 0 42
0 0 42
0 0 42
0 0 42
0 0 42
0 0 42
0 0 42
0 0 42
0 0 42
0 0 42
0 0 42
0 0 42
0 0 42
0 0 42
0 0 42
0 0 42
0 0 42
0 0 42
0 0 42
0 0 42
0 0 42
0 0 42
0 0 42
0 0 42
0 0 42
0 0 42
0 0 42
0 0 42
0 0 42
0 0 42
0 0 42
0 0 42
8 8 42
0 0 46
0 1 50
94 101 107
215 219 221
219 234 255
219 234 255
219 234 255
219 234 255
219 234 255
219 234 255
219 234 255
219 234 255
219 234 255
219 234 255
219 234 255
219 234 255
219 234 255
219 234 255
219 234 255
219 234 255
219 234 255
219 234 255
219 234 255
219 234 255
219 234 255
219 234 255
219 234 255
219 234 255
219 234 255
219 234 255
219 234 255
219 234 255
219 234 255
219 234 255
219 234 255
219 234 255
219 234 255
219 234 255
219 234 255
219 234 255
219 234 255
219 234 255
219 234 255
219 234 255
219 234 255
219 234 255
219 234 255
219 234 255
219 234 255
219 234 255
219 234 255
219 234 255
219 234 255
219 234 255
219 234 255
219 234 255
219 234 255
219 234 255
219 234 255
219 234 255
219 234 255
219 234 255
219 234 255
219 234 255
219 234 255
219 234 255
219 234 255
219 234 255
219 234 255
219 234 255
219 234 255
219 234 255
219 234 255
219 234 255
219 234 255
219 234 255
219 234 255
219 234 255
219 234 255
219 234 255
219 234 255
219 234 255
219 234 255
219 234 255
219 234 255
219 234 255
219 234 255
219 234 255
219 234 255
219 234 255
219 234 255
219 234 255
219 234 255
219 234 255
219 234 255
219 234 255
219 234 255
219 234 255
219 234 255
219 234 255
219 234 255
219 234 255
219 234 255
219 234 255
219 234 255
219 234 255
219 234 255
219 234 255
219 234 255
219 234 255
219 234 255
219 234 255
219 234 255
219 234 255
219 234 255
219 234 255
219 234 255
219 234 255
219 234 255
219 234 255
219 234 255
219 234 255
219 234 255
219 234 255
219 234 255
219 234 255
219 234 255
219 234 255
219 234 255
219 234 255
219 234 255
219 234 255
219 234 255
219 234 255
219 234 255
219 234 255
219 234 255
219 234 255
219 234 255
219 234 255
219 234 255
219 234 255
219 234 255
219 234 255
219 234 255
219 234 255
219 234 255
219 234 255
219 234 255
219 234 255
219 234 255
219 234 255
219 234 255
219 234 255
219 234 255
219 234 255
219 234 255
219 234 255
219 234 255
219 234 255
219 234 255
219 234 255
219 234 255
219 234 255
219 234 255
219 234 255
219 234 255
219 234 255
219 234 255
219 234 255
219 234 255
219 234 255
219 234 255
219 234 255
219 234 255
219 234 255
219 234 255
219 234 255
219 234 255
219 234 255
219 234 255
219 234 255
219 234 255
219 234 255
219 234 255
219 234 255
219 234 255
219 234 255
219 234 255
219 234 255
219 234 255
219 234 255
219 234 255
219 234 255
219 234 255
219 234 255
219 234 255
219 234 255
130 138 155
0 0 42
0 0 42
0 0 41
0 0 41
0 0 42
0 0 42
0 0 42
0 0 42
0 0 42
0 0 42
0 0 42
0 0 42
0 0 42
0 0 42
0 0 42
0 0 42
0 0 42
0 0 42
0 0 42
0 0 42
0 0 42
0 0 42
0 0 42
0 0 42
0 0 42
0 0 42
0 0 42
0 0 42
0 0 42
0 0 42
0 0 42
0 0 42
0 0 42
0 0 42
0 0 42
0 0 42
0 0 42
0 0 42
0 0 42
0 0 42
0 0 42
0 0 42
0 0 42
0 0 42
0 0 42
0 0 42
0 0 42
0 0 42
0 0 42
0 0 42
0 0 43
0 0 45
0 0 45
0 0 43
0 0 42
0 0 42
0 0 42
0 0 42
0 0 42
0 0 42
0 0 42
0 0 42
0 0 42
0 0 42
0 0 42
0 0 42
0 0 42
0 0 42
0 0 42
0 0 42
0 0 42
0 0 42
0 0 42
0 0 42
0 0 42
0 0 42
0 0 42
0 0 43
0 0 40
0 0 43
0 0 45
0 0 47
0 0 44
0 0 44
0 0 45
0 0 46
0 0 45
0 0 48
0 0 52
0 0 60
0 13 68
0 10 65
0 5 58
0 0 56
0 0 47
7 17 41
33 54 20
39 58 8
45 61 0
44 59 10
43 60 8
42 62 0
45 67 11
44 66 8
45 68 10
42 65 10
42 63 0
43 63 0
47 64 0
44 65 6
46 67 15
41 65 17
32 57 0
39 63 0
42 62 18
38 54 35
14 22 49
0 0 50
0 0 46
0 0 41
0 0 42
0 0 42
0 0 42
0 0 42
0 0 42
0 0 42
0 0 42
0 0 42
0 0 42
0 0 42
0 0 42
0 0 42
0 0 42
0 0 42
0 0 42
0 0 42
0 0 42
0 0 42
0 0 42
0 0 42
0 0 42
0 0 42
0 0 42
0 0 42
0 0 42
0 0 42
0 0 42
0 0 42
0 0 42
0 0 42
0 0 42
0 0 42
0 0 42
0 0 42
0 0 42
0 0 41
0 0 41
0 0 42
3 3 40
6 6 44
0 0 44
0 0 43
0 0 39
0 0 42
0 0 43
0 0 46
0 0 43
0 0 40
0 0 42
0 0 42
0 0 42
0 0 42
0 0 42
0 0 42
0 0 42
0 0 42
0 0 42
0 0 42
0 0 42
0 0 42
0 0 42
0 0 42
0 0 42
0 0 42
0 0 42
0 0 42
0 0 42
0 0 42
0 0 42
0 0 42
0 0 42
0 0 42
0 0 42
0 0 42
0 0 42
0 0 42
0 0 42
0 0 42
0 0 42
0 0 42
8 8 44
0 0 44
0 0 48
4 40 81
203 191 182
219 234 255
219 234 255
219 234 255
219 234 255
219 234 255
219 234 255
219 234 255
219 234 255
219 234 255
219 234 255
219 234 255
219 234 255
219 234 255
219 234 255
219 234 255
219 234 255
219 234 255
219 234 255
219 234 255
219 234 255
219 234 255
219 234 255
219 234 255
219 234 255
219 234 255
219 234 255
219 234 255
219 234 255
219 234 255
219 234 255
219 234 255
219 234 255
219 234 255
219 234 255
219 234 255
219 234 255
219 234 255
219 234 255
219 234 255
219 234 255
219 234 255
219 234 255
219 234 255
219 234 255
219 234 255
219 234 255
219 234 255
219 234 255
219 234 255
219 234 255
219 234 255
219 234 255
219 234 255
219 234 255
219 234 255
219 234 255
219 234 255
219 234 255
219 234 255
219 234 255
219 234 255
219 234 255
219 234 255
219 234 255
219 234 255
219 234 255
219 234 255
219 234 255
219 234 255
219 234 255
219 234 255
219 234 255
219 234 255
219 234 255
219 234 255
219 234 255
219 234 255
219 234 255
219 234 255
219 234 255
219 234 255
219 234 255
219 234 255
219 234 255
219 234 255
219 234 255
219 234 255
219 234 255
219 234 255
219 234 255
219 234 255
219 234 255
219 234 255
219 234 255
219 234 255
219 234 255
219 234 255
219 235 255
219 235 255
219 235 255
219 235 255
219 235 255
219 235 255
219 235 255
219 235 255
219 235 255
219 235 255
219 235 255
219 235 255
219 235 255
219 235 255
219 235 255
219 235 255
219 235 255
219 235 255
219 235 255
219 235 255
219 235 255
219 235 255
219 235 255
219 235 255
219 235 255
219 235 255
219 235 255
219 235 255
219 235 255
219 235 255
219 235 255
219 235 255
219 235 255
219 235 255
219 235 255
219 235 255
219 235 255
219 235 255
219 235 255
219 235 255
219 235 255
219 235 255
219 235 255
219 235 255
219 235 255
219 235 255
219 235 255
219 235 255
219 235 255
219 235 255
219 235 255
219 235 255
219 234 255
219 235 255
219 235 255
219 235 255
219 235 255
219 235 255
219 234 255
219 234 255
219 235 255
219 234 255
219 234 255
219 234 255
219 234 255
219 234 255
219 234 255
219 234 255
219 234 255
219 234 255
219 234 255
219 234 255
219 234 255
219 234 255
219 234 255
219 234 255
219 234 255
219 234 255
219 234 255
219 234 255
219 234 255
219 234 255
219 234 255
219 234 255
219 234 255
219 234 255
219 234 255
219 234 255
219 234 255
219 234 255
219 234 255
219 234 255
219 234 255
219 234 255
219 234 255
219 234 255
217 232 253
62 66 83
0 0 42
0 0 42
0 0 42
0 0 42
0 0 42
0 0 42
0 0 42
0 0 42
0 0 42
0 0 42
0 0 42
0 0 42
0 0 42
0 0 42
0 0 42
0 0 42
0 0 42
0 0 42
0 0 42
0 0 42
0 0 42
0 0 43
0 0 42
0 0 42
0 0 42
0 0 42
0 0 42
0 0 42
0 0 42
0 0 42
0 0 42
0 0 42
0 0 42
0 0 42
0 0 42
0 0 42
0 0 42
0 0 42
0 0 42
0 0 42
0 0 42
0 0 42
0 0 42
0 0 42
0 0 42
0 0 42
0 0 42
0 0 42
0 0 42
0 0 42
0 0 43
0 0 45
0 0 45
0 0 42
0 0 42
0 0 42
0 0 42
0 0 42
0 0 42
0 0 42
0 0 42
0 0 42
0 0 42
0 0 42
0 0 42
0 0 42
0 0 42
0 0 42
0 0 42
0 0 42
0 0 42
0 0 42
0 0 42
0 0 42
0 0 42
0 0 42
0 0 42
0 0 42
0 0 39
0 0 42
0 0 45
0 0 43
0 0 43
0 0 45
0 0 50
0 0 42
0 0 42
0 0 45
0 0 43
0 0 47
0 0 48
0 0 58
0 0 51
0 0 52
0 0 55
2 3 40
15 23 48
37 57 19
43 65 7
34 56 0
41 63 0
43 64 0
51 72 16
48 69 14
43 63 9
42 60 8
44 60 14
49 65 8
53 69 17
53 72 12
51 76 15
42 70 11
33 59 0
37 60 13
48 70 9
50 71 16
25 36 41
0 0 48
0 0 48
0 0 39
0 0 42
0 0 42
0 0 42
0 0 42
0 0 42
0 0 42
0 0 42
0 0 42
0 0 42
0 0 42
0 0 42
0 0 42
0 0 42
0 0 42
0 0 42
0 0 42
0 0 42
0 0 42
0 0 42
0 0 42
0 0 42
0 0 42
0 0 42
0 0 42
0 0 42
0 0 42
0 0 42
0 0 42
0 0 42
0 0 42
0 0 42
0 0 42
0 0 42
0 0 42
0 0 42
0 0 42
0 0 42
0 0 42
0 0 33
5 6 41
3 4 39
0 0 40
0 0 40
0 0 42
0 0 46
0 0 49
0 0 44
0 0 41
0 0 42
0 0 42
0 0 41
0 0 39
0 0 41
0 0 42
0 0 42
0 0 42
0 0 42
0 0 42
0 0 42
0 0 42
0 0 42
0 0 42
0 0 42
0 0 42
0 0 42
0 0 42
0 0 42
0 0 42
0 0 42
0 0 42
0 0 42
0 0 42
0 0 42
0 0 42
0 0 42
0 0 42
0 0 42
0 0 42
0 0 42
0 0 42
0 0 42
0 0 44
6 6 50
0 7 63
152 139 122
219 234 255
219 234 255
219 234 255
219 234 255
219 234 255
219 234 255
219 234 255
219 234 255
219 234 255
219 234 255
219 234 255
219 234 255
219 234 255
219 234 255
219 234 255
219 234 255
219 234 255
219 234 255
219 234 255
219 234 255
219 234 255
219 234 255
219 234 255
219 234 255
219 234 255
219 234 255
219 234 255
219 234 255
219 234 255
219 234 255
219 234 255
219 234 255
219 234 255
219 234 255
219 234 255
219 234 255
219 234 255
219 235 255
219 234 255
219 234 255
219 234 255
219 235 255
219 235 255
219 235 255
219 235 255
219 235 255
219 235 255
219 235 255
219 235 255
219 235 255
219 235 255
219 235 255
219 235 255
219 235 255
219 235 255
219 235 255
219 235 255
219 235 255
219 235 255
219 235 255
219 235 255
219 235 255
219 235 255
219 235 255
219 235 255
219 235 255
219 235 255
219 235 255
219 235 255
219 235 255
219 235 255
219 235 255
219 235 255
219 235 255
219 235 255
219 235 255
219 235 255
219 235 255
219 235 255
219 235 255
219 235 255
219 235 255
219 235 255
219 235 255
219 235 255
219 235 255
219 235 255
219 235 255
219 235 255
219 235 255
219 235 255
219 235 255
219 235 255
219 235 255
219 235 255
219 235 255
219 235 255
219 235 255
219 235 255
219 235 255
219 235 255
219 235 255
219 235 255
219 235 255
219 235 255
219 235 255
219 235 255
219 235 255
219 235 255
219 235 255
219 235 255
219 235 255
219 235 255
219 235 255
219 235 255
219 235 255
219 235 255
219 235 255
219 235 255
219 235 255
219 235 255
219 235 255
219 235 255
219 235 255
219 235 255
219 235 255
219 235 255
219 235 255
219 235 255
219 235 255
219 235 255
219 235 255
219 235 255
219 235 255
219 235 255
219 235 255
219 235 255
219 235 255
219 235 255
219 235 255
219 235 255
219 235 255
219 235 255
219 235 255
219 235 255
219 235 255
219 235 255
219 235 255
219 235 255
219 235 255
219 235 255
219 235 255
219 235 255
219 235 255
219 235 255
219 235 255
219 235 255
219 235 255
219 235 255
219 235 255
219 235 255
219 235 255
219 235 255
219 235 255
219 235 255
219 235 255
219 235 255
219 235 255
219 235 255
219 235 255
219 235 255
219 235 255
219 235 255
219 235 255
219 235 255
219 235 255
219 235 255
219 235 255
219 235 255
219 235 255
219 235 255
219 235 255
219 235 255
219 235 255
219 235 255
219 235 255
219 235 255
219 235 255
219 235 255
219 235 255
219 235 255
219 235 255
219 235 255
200 214 233
0 0 42
0 0 42
0 0 42
0 0 42
0 0 42
0 0 42
0 0 42
0 0 42
0 0 42
0 0 42
0 0 42
0 0 42
0 0 42
0 0 42
0 0 42
0 0 42
0 0 42
0 0 42
0 0 42
0 0 42
0 0 42
0 0 42
0 0 45
0 0 44
0 0 42
0 0 42
0 0 42
0 0 42
0 0 42
0 0 42
0 0 42
0 0 42
0 0 42
0 0 42
0 0 42
0 0 42
0 0 42
0 0 42
0 0 42
0 0 42
0 0 42
0 0 42
0 0 42
0 0 42
0 0 42
0 0 42
0 0 42
0 0 42
0 0 42
0 0 42
0 0 42
0 0 44
0 0 45
0 0 45
0 0 42
0 0 42
0 0 42
0 0 42
0 0 42
0 0 42
0 0 42
0 0 42
0 0 42
0 0 42
0 0 42
0 0 42
0 0 42
0 0 42
0 0 42
0 0 42
0 0 42
0 0 42
0 0 42
0 0 42
0 0 42
0 0 42
0 0 42
0 0 42
0 0 42
0 0 46
0 0 42
0 0 40
0 0 40
0 0 42
0 0 44
0 0 47
0 0 37
0 0 44
0 0 50
0 0 43
0 0 47
0 0 54
0 0 58
0 0 54
0 0 49
0 0 49
0 0 47
0 0 45
6 14 47
31 51 36
36 63 23
37 62 13
38 63 15
47 68 15
43 65 0
38 62 0
39 62 0
46 63 9
52 64 20
54 70 16
51 70 18
49 76 12
41 72 8
37 68 6
38 68 0
43 64 9
44 64 22
23 36 33
0 2 47
0 0 38
0 0 44
0 0 42
0 0 42
0 0 42
0 0 42
0 0 42
0 0 42
0 0 42
0 0 42
0 0 42
0 0 42
0 0 42
0 0 42
0 0 42
0 0 42
0 0 42
0 0 42
0 0 42
0 0 42
0 0 42
0 0 42
0 0 42
0 0 42
0 0 42
0 0 42
0 0 42
0 0 42
0 0 42
0 0 42
0 0 42
0 0 42
0 0 42
0 0 42
0 0 42
0 0 42
0 0 42
0 0 42
0 0 42
0 0 42
0 0 42
9 11 41
10 12 39
0 0 41
0 0 47
0 0 42
0 0 47
0 0 52
0 0 47
0 0 43
0 0 44
0 0 44
0 0 42
0 0 40
0 0 41
0 0 42
0 0 42
0 0 42
0 0 42
0 0 42
0 0 42
0 0 42
0 0 42
0 0 42
0 0 42
0 0 42
0 0 42
0 0 42
0 0 42
0 0 42
0 0 42
0 0 42
0 0 42
0 0 42
0 0 42
0 0 42
0 0 42
0 0 42
0 0 42
0 0 42
0 0 42
0 0 42
0 0 42
0 0 41
12 13 49
0 5 57
103 113 112
209 215 224
219 235 255
219 235 255
219 235 255
219 235 255
219 235 255
219 235 255
219 235 255
219 235 255
219 235 255
219 235 255
219 235 255
219 235 255
219 235 255
219 235 255
219 235 255
219 235 255
219 235 255
219 235 255
219 235 255
219 235 255
219 235 255
219 235 255
219 235 255
219 235 255
219 235 255
219 235 255
219 235 255
219 235 255
219 235 255
219 235 255
219 235 255
219 235 255
219 235 255
219 235 255
219 235 255
219 235 255
219 235 255
219 235 255
219 235 255
219 235 255
219 235 255
219 235 255
219 235 255
219 235 255
219 235 255
219 235 255
219 235 255
219 235 255
219 235 255
219 235 255
219 235 255
219 235 255
219 235 255
219 235 255
219 235 255
219 235 255
219 235 255
219 235 255
219 235 255
219 235 255
219 235 255
219 235 255
219 235 255
219 235 255
219 235 255
219 235 255
219 235 255
219 235 255
219 235 255
219 235 255
219 235 255
219 235 255
219 235 255
219 235 255
219 235 255
219 235 255
219 235 255
219 235 255
219 235 255
219 235 255
219 235 255
219 235 255
219 235 255
219 235 255
219 235 255
219 235 255
219 235 255
219 235 255
219 235 255
219 235 255
219 235 255
219 235 255
219 235 255
219 235 255
219 235 255
219 235 255
220 235 255
220 235 255
220 235 255
220 235 255
220 235 255
220 235 255
220 235 255
220 235 255
220 235 255
220 235 255
220 235 255
220 235 255
220 235 255
220 235 255
220 235 255
220 235 255
220 235 255
220 235 255
220 235 255
220 235 255
220 235 255
220 235 255
220 235 255
220 235 255
220 235 255
220 235 255
220 235 255
220 235 255
220 235 255
220 235 255
220 235 255
220 235 255
220 235 255
220 235 255
220 235 255
220 235 255
220 235 255
220 235 255
220 235 255
220 235 255
220 235 255
220 235 255
220 235 255
220 235 255
220 235 255
220 235 255
220 235 255
220 235 255
220 235 255
220 235 255
220 235 255
220 235 255
220 235 255
220 235 255
220 235 255
220 235 255
220 235 255
220 235 255
220 235 255
220 235 255
220 235 255
219 235 255
219 235 255
219 235 255
219 235 255
219 235 255
219 235 255
219 235 255
219 235 255
219 235 255
219 235 255
219 235 255
219 235 255
219 235 255
219 235 255
219 235 255
219 235 255
219 235 255
219 235 255
219 235 255
219 235 255
219 235 255
219 235 255
219 235 255
219 235 255
219 235 255
219 235 255
219 235 255
219 235 255
219 235 255
219 235 255
219 235 255
219 235 255
219 235 255
219 235 255
219 235 255
140 150 167
0 0 42
0 0 42
0 0 42
0 0 42
0 0 42
0 0 42
0 0 42
0 0 42
0 0 42
0 0 42
0 0 42
0 0 42
0 0 42
0 0 42
0 0 42
0 0 42
0 0 42
0 0 42
0 0 42
0 0 42
0 0 42
0 0 43
0 0 45
0 0 43
0 0 42
0 0 42
0 0 42
0 0 42
0 0 42
0 0 42
0 0 42
0 0 42
0 0 42
0 0 42
0 0 42
0 0 42
0 0 42
0 0 43
0 0 43
0 0 42
0 0 42
0 0 42
0 0 44
0 0 43
0 0 42
0 0 42
0 0 42
0 0 42
0 0 42
0 0 42
0 0 42
0 0 44
0 0 45
0 0 44
0 0 42
0 0 42
0 0 43
0 0 45
0 0 45
0 0 43
0 0 42
0 0 42
0 0 42
0 0 42
0 0 41
0 0 39
0 0 39
0 0 41
0 0 42
0 0 42
0 0 42
0 0 42
0 0 42
0 0 42
0 0 42
0 0 42
0 0 42
0 0 42
0 0 42
0 0 39
0 0 42
0 0 42
0 0 44
0 0 43
0 0 42
0 0 45
0 0 45
0 0 45
0 0 45
0 0 45
0 0 45
0 0 50
0 0 54
0 0 53
0 0 51
0 0 49
0 0 46
0 0 44
0 0 46
1 2 50
9 15 52
11 23 45
17 30 49
30 48 27
34 60 8
37 66 0
39 73 9
45 70 22
46 69 19
56 73 23
55 74 23
48 75 12
48 81 18
45 79 14
50 81 11
46 71 3
38 60 22
10 17 37
0 0 48
0 0 44
0 0 38
0 0 41
0 0 42
0 0 42
0 0 42
0 0 42
0 0 42
0 0 42
0 0 42
0 0 42
0 0 42
0 0 42
0 0 42
0 0 44
0 0 42
0 0 42
0 0 42
0 0 41
0 0 40
0 0 42
0 0 38
0 0 42
0 0 43
0 0 41
0 0 44
0 0 45
0 0 43
0 0 38
0 0 44
0 0 45
0 0 44
0 0 42
0 0 42
0 0 42
0 0 42
0 0 42
0 0 42
0 0 41
0 0 41
0 0 43
0 0 43
0 8 45
0 0 42
0 0 44
0 0 42
0 0 46
0 0 50
0 0 47
0 0 44
0 0 47
0 0 48
0 0 45
0 0 44
0 0 41
0 0 42
0 0 42
0 0 42
0 0 42
0 0 42
0 0 42
0 0 42
0 0 42
0 0 42
0 0 42
0 0 42
0 0 42
0 0 42
0 0 42
0 0 42
0 0 42
0 0 42
0 0 42
0 0 42
0 0 42
0 0 42
0 0 42
0 0 42
0 0 42
0 0 42
0 0 42
0 0 42
0 0 42
0 0 42
6 9 48
0 0 52
65 75 100
181 181 171
219 235 255
219 235 255
219 235 255
219 235 255
219 235 255
219 235 255
219 235 255
219 235 255
219 235 255
219 235 255
219 235 255
219 235 255
219 235 255
219 235 255
219 235 255
219 235 255
219 235 255
219 235 255
219 235 255
219 235 255
219 235 255
219 235 255
219 235 255
219 235 255
219 235 255
219 235 255
219 235 255
219 235 255
219 235 255
219 235 255
219 235 255
219 235 255
219 235 255
219 235 255
220 235 255
220 235 255
220 235 255
220 235 255
220 235 255
220 235 255
220 235 255
220 235 255
220 235 255
220 235 255
220 235 255
220 235 255
220 235 255
220 235 255
220 235 255
220 235 255
220 235 255
220 235 255
220 235 255
220 235 255
220 235 255
220 235 255
220 235 255
220 235 255
220 235 255
220 235 255
220 235 255
220 235 255
220 235 255
220 235 255
220 235 255
220 235 255
220 235 255
220 235 255
220 235 255
220 235 255
220 235 255
220 235 255
220 235 255
220 235 255
220 235 255
220 235 255
220 235 255
220 235 255
220 235 255
220 235 255
220 235 255
220 235 255
220 235 255
220 235 255
220 235 255
220 235 255
220 235 255
220 235 255
220 235 255
220 235 255
220 235 255
220 235 255
220 235 255
220 235 255
220 235 255
220 235 255
220 235 255
220 235 255
220 235 255
220 235 255
220 235 255
220 235 255
220 235 255
220 235 255
220 235 255
220 235 255
220 235 255
220 235 255
220 235 255
220 235 255
220 235 255
220 235 255
220 235 255
220 235 255
220 235 255
220 235 255
220 235 255
220 235 255
220 235 255
220 235 255
220 235 255
220 235 255
220 235 255
220 235 255
220 235 255
220 235 255
220 235 255
220 235 255
220 235 255
220 235 255
220 235 255
220 235 255
220 235 255
220 235 255
220 235 255
220 235 255
220 235 255
220 235 255
220 235 255
220 235 255
220 235 255
220 235 255
220 235 255
220 235 255
220 235 255
220 235 255
220 235 255
220 235 255
220 235 255
220 235 255
220 235 255
220 235 255
220 235 255
220 235 255
220 235 255
220 235 255
220 235 255
220 235 255
220 235 255
220 235 255
220 235 255
220 235 255
220 235 255
220 235 255
220 235 255
220 235 255
220 235 255
220 235 255
220 235 255
220 235 255
220 235 255
220 235 255
220 235 255
220 235 255
220 235 255
220 235 255
220 235 255
220 235 255
220 235 255
220 235 255
220 235 255
220 235 255
220 235 255
220 235 255
220 235 255
220 235 255
220 235 255
220 235 255
220 235 255
220 235 255
220 235 255
220 235 255
76 81 97
0 0 42
0 0 42
0 0 42
0 0 42
0 0 42
0 0 42
0 0 42
0 0 42
0 0 42
0 0 42
0 0 42
0 0 42
0 0 42
0 0 42
0 0 42
0 0 42
0 0 42
0 0 42
0 0 42
0 0 42
0 0 42
0 0 42
0 0 43
0 0 42
0 0 42
0 0 42
0 0 44
0 0 45
0 0 45
0 0 45
0 0 43
0 0 42
0 0 42
0 0 42
0 0 42
0 0 42
0 0 43
0 0 45
0 0 45
0 0 42
0 0 42
0 0 42
0 0 45
0 0 44
0 0 42
0 0 42
0 0 42
0 0 42
0 0 42
0 0 42
0 0 42
0 0 44
0 0 44
0 0 42
0 0 42
0 0 42
0 0 44
0 0 45
0 0 45
0 0 42
0 0 42
0 0 42
0 0 42
0 0 42
0 0 42
0 0 41
0 0 39
0 0 41
0 0 42
0 0 42
0 0 42
0 0 42
0 0 42
0 0 42
0 0 42
0 0 42
0 0 42
0 0 42
0 0 42
0 0 41
0 0 42
0 0 42
0 0 42
0 0 42
0 0 42
0 0 45
0 0 45
0 0 45
0 0 45
0 0 45
0 0 45
0 0 51
0 0 53
0 0 50
0 0 48
0 0 48
0 0 47
0 0 42
0 0 43
0 0 47
0 0 49
0 0 48
0 0 50
5 13 51
10 23 50
17 27 45
23 46 27
22 45 52
27 68 47
52 72 21
53 71 17
54 74 23
51 82 12
57 92 24
56 89 20
49 79 5
36 58 19
2 10 35
0 0 44
0 0 44
0 0 41
0 0 42
0 0 42
0 0 42
0 0 42
0 0 42
0 0 42
0 0 42
0 0 42
0 0 42
0 0 42
0 0 42
0 0 42
0 0 42
0 0 42
0 0 42
0 0 41
0 0 40
0 0 43
0 0 42
0 0 40
0 0 42
0 0 39
0 0 45
0 0 40
0 0 39
0 0 43
0 0 45
0 0 42
0 0 42
0 0 43
0 0 43
0 0 42
0 0 42
0 0 42
0 0 42
0 0 42
0 0 42
0 0 42
0 0 43
0 0 45
0 4 40
0 0 38
0 0 46
0 0 43
0 0 45
0 0 45
0 0 45
0 0 45
0 0 46
0 0 50
0 0 50
0 0 50
0 0 43
0 0 42
0 0 42
0 0 42
0 0 42
0 0 42
0 0 42
0 0 42
0 0 42
0 0 42
0 0 42
0 0 42
0 0 42
0 0 42
0 0 42
0 0 42
0 0 42
0 0 42
0 0 42
0 0 42
0 0 42
0 0 42
0 0 42
0 0 42
0 0 42
0 0 42
0 0 42
0 0 42
0 0 42
0 0 42
7 10 45
0 0 50
0 32 76
148 150 117
220 235 255
220 235 255
220 235 255
220 235 255
220 235 255
220 235 255
220 235 255
220 235 255
220 235 255
220 235 255
220 235 255
220 235 255
220 235 255
220 235 255
220 235 255
220 235 255
220 235 255
220 235 255
220 235 255
220 235 255
220 235 255
220 235 255
220 235 255
220 235 255
220 235 255
220 235 255
220 235 255
220 235 255
220 235 255
220 235 255
220 235 255
220 235 255
220 235 255
220 235 255
220 235 255
220 235 255
220 235 255
220 235 255
220 235 255
220 235 255
220 235 255
220 235 255
220 235 255
220 235 255
220 235 255
220 235 255
220 235 255
220 235 255
220 235 255
220 235 255
220 235 255
220 235 255
220 235 255
220 235 255
220 235 255
220 235 255
220 235 255
220 235 255
220 235 255
220 235 255
220 235 255
220 235 255
220 235 255
220 235 255
220 235 255
220 235 255
220 235 255
220 235 255
220 235 255
220 235 255
220 235 255
220 235 255
220 235 255
220 235 255
220 235 255
220 235 255
220 235 255
220 235 255
220 235 255
220 235 255
220 235 255
220 235 255
220 235 255
220 235 255
220 235 255
220 235 255
220 235 255
220 235 255
220 235 255
220 235 255
220 235 255
220 235 255
220 235 255
220 235 255
220 235 255
220 235 255
220 235 255
220 235 255
220 235 255
220 235 255
220 235 255
220 235 255
220 235 255
220 235 255
220 235 255
220 235 255
220 235 255
220 235 255
220 235 255
220 235 255
220 235 255
220 235 255
220 235 255
220 235 255
220 235 255
220 235 255
220 235 255
220 235 255
220 235 255
220 235 255
220 235 255
220 235 255
220 235 255
220 235 255
220 235 255
220 235 255
220 235 255
220 235 255
220 235 255
220 235 255
220 235 255
220 235 255
220 235 255
220 235 255
220 235 255
220 235 255
220 235 255
220 235 255
220 235 255
220 235 255
220 235 255
220 235 255
220 235 255
220 235 255
220 235 255
220 235 255
220 235 255
220 235 255
220 235 255
220 235 255
220 235 255
220 235 255
220 235 255
220 235 255
220 235 255
220 235 255
220 235 255
220 235 255
220 235 255
220 235 255
220 235 255
220 235 255
220 235 255
220 235 255
220 235 255
220 235 255
220 235 255
220 235 255
220 235 255
220 235 255
220 235 255
220 235 255
220 235 255
220 235 255
220 235 255
220 235 255
220 235 255
220 235 255
220 235 255
220 235 255
220 235 255
220 235 255
220 235 255
220 235 255
220 235 255
220 235 255
220 235 255
220 235 255
220 235 255
220 235 255
220 235 255
200 214 233
0 0 42
0 0 42
0 0 42
0 0 42
0 0 42
0 0 42
0 0 42
0 0 42
0 0 42
0 0 42
0 0 42
0 0 45
0 0 42
0 0 42
0 0 42
0 0 42
0 0 42
0 0 42
0 0 42
0 0 42
0 0 42
0 0 42
0 0 42
0 0 42
0 0 42
0 0 42
0 0 42
0 0 45
0 0 45
0 0 45
0 0 45
0 0 42
0 0 42
0 0 42
0 0 42
0 0 42
0 0 42
0 0 43
0 0 45
0 0 44
0 0 42
0 0 42
0 0 43
0 0 45
0 0 44
0 0 42
0 0 42
0 0 42
0 0 42
0 0 42
0 0 42
0 0 42
0 0 42
0 0 42
0 0 42
0 0 42
0 0 44
0 0 44
0 0 45
0 0 45
0 0 42
0 0 42
0 0 42
0 0 42
0 0 42
0 0 42
0 0 42
0 0 42
0 0 42
0 0 42
0 0 42
0 0 42
0 0 42
0 0 42
0 0 42
0 0 42
0 0 42
0 0 42
0 0 42
0 0 42
0 0 42
0 0 42
0 0 42
0 0 42
0 0 42
0 0 43
0 0 45
0 0 45
0 0 45
0 0 45
0 0 45
0 0 45
0 0 48
0 0 48
0 0 45
0 0 46
0 0 47
0 0 48
0 0 46
0 0 45
0 0 46
0 0 47
0 0 52
0 0 53
0 0 48
0 0 57
0 0 55
0 0 44
0 6 52
15 38 42
49 72 20
60 79 30
53 71 19
57 84 18
64 100 27
63 98 33
56 91 22
38 62 34
8 15 40
0 0 44
0 0 41
0 0 42
0 0 42
0 0 42
0 0 42
0 0 42
0 0 42
0 0 42
0 0 42
0 0 42
0 0 42
0 0 42
0 0 42
0 0 42
0 0 41
0 0 42
0 0 42
0 0 42
0 0 42
0 0 40
0 0 38
0 1 44
10 10 51
0 0 37
0 0 43
0 0 42
0 0 40
0 0 43
0 0 47
0 0 42
0 0 38
0 0 45
0 0 45
0 0 43
0 0 43
0 0 44
0 0 43
0 0 42
0 0 41
0 0 42
0 0 41
0 0 46
0 0 44
0 0 41
0 0 49
0 0 43
0 0 47
0 0 45
0 0 45
0 0 45
0 0 46
0 0 48
0 0 48
0 0 48
0 0 43
0 0 42
0 0 42
0 0 42
0 0 42
0 0 42
0 0 42
0 0 42
0 0 42
0 0 42
0 0 42
0 0 42
0 0 42
0 0 42
0 0 42
0 0 42
0 0 42
0 0 42
0 0 42
0 0 42
0 0 42
0 0 42
0 0 42
0 0 42
0 0 42
0 0 42
0 0 42
0 0 42
0 0 42
0 0 42
0 0 42
0 0 49
0 4 57
102 116 75
213 228 246
220 235 255
220 235 255
220 235 255
220 235 255
220 235 255
220 235 255
220 235 255
220 235 255
220 235 255
220 235 255
220 235 255
220 235 255
220 235 255
220 235 255
220 235 255
220 235 255
220 235 255
220 235 255
220 235 255
220 235 255
220 235 255
220 235 255
220 235 255
220 235 255
220 235 255
220 235 255
220 235 255
220 235 255
220 235 255
220 235 255
220 235 255
220 235 255
220 235 255
220 235 255
220 235 255
220 235 255
220 235 255
220 235 255
220 235 255
220 235 255
220 235 255
220 235 255
220 235 255
220 235 255
220 235 255
220 235 255
220 235 255
220 235 255
220 235 255
220 235 255
220 235 255
220 235 255
220 235 255
220 235 255
220 235 255
220 235 255
220 235 255
220 235 255
220 235 255
220 235 255
220 235 255
220 235 255
220 235 255
220 235 255
220 235 255
220 235 255
220 235 255
220 235 255
220 235 255
220 235 255
220 235 255
220 235 255
220 235 255
220 235 255
220 235 255
220 235 255
220 235 255
220 235 255
220 235 255
220 235 255
220 235 255
220 235 255
220 235 255
220 235 255
220 235 255
220 235 255
220 235 255
220 235 255
220 235 255
220 235 255
220 235 255
220 235 255
220 235 255
220 235 255
220 235 255
220 235 255
220 235 255
220 235 255
220 235 255
220 235 255
220 235 255
220 235 255
220 235 255
220 235 255
220 235 255
220 235 255
220 235 255
220 235 255
220 235 255
220 235 255
220 235 255
220 235 255
220 235 255
220 235 255
220 235 255
220 235 255
220 235 255
220 235 255
220 235 255
220 235 255
220 235 255
220 235 255
220 235 255
220 235 255
220 235 255
220 235 255
220 235 255
220 235 255
220 235 255
220 235 255
220 235 255
220 235 255
220 235 255
220 235 255
220 235 255
220 235 255
220 235 255
220 235 255
220 235 255
220 235 255
220 235 255
220 235 255
220 235 255
220 235 255
220 235 255
220 235 255
220 235 255
220 235 255
220 235 255
220 235 255
220 235 255
220 235 255
220 235 255
220 235 255
220 235 255
220 235 255
220 235 255
220 235 255
220 235 255
220 235 255
220 235 255
220 235 255
220 235 255
220 235 255
220 235 255
220 235 255
220 235 255
220 235 255
220 235 255
220 235 255
220 235 255
220 235 255
220 235 255
220 235 255
220 235 255
220 235 255
220 235 255
220 235 255
220 235 255
220 235 255
220 235 255
220 235 255
220 235 255
220 235 255
220 235 255
220 235 255
220 235 255
220 235 255
220 235 255
220 235 255
167 179 196
0 0 42
0 0 42
0 0 42
0 0 42
0 0 42
0 0 42
0 0 42
0 0 42
0 0 42
0 0 42
0 0 43
0 0 45
0 0 42
0 0 42
0 0 42
0 0 42
0 0 42
0 0 42
0 0 42
0 0 42
0 0 42
0 0 42
0 0 42
0 0 42
0 0 42
0 0 42
0 0 42
0 0 45
0 0 45
0 0 45
0 0 44
0 0 42
0 0 42
0 0 42
0 0 42
0 0 43
0 0 43
0 0 44
0 0 45
0 0 44
0 0 42
0 0 42
0 0 43
0 0 45
0 0 43
0 0 42
0 0 42
0 0 42
0 0 42
0 0 42
0 0 42
0 0 42
0 0 42
0 0 42
0 0 42
0 0 42
0 0 42
0 0 42
0 0 42
0 0 42
0 0 45
0 0 45
0 0 44
0 0 42
0 0 42
0 0 42
0 0 42
0 0 42
0 0 42
0 0 42
0 0 42
0 0 42
0 0 42
0 0 42
0 0 42
0 0 42
0 0 42
0 0 42
0 0 42
0 0 42
0 0 42
0 0 42
0 0 42
0 0 42
0 0 43
0 0 45
0 0 45
0 0 45
0 0 45
0 0 45
0 0 45
0 0 45
0 0 45
0 0 46
0 0 45
0 0 45
0 0 46
0 0 46
0 0 50
0 0 48
0 0 45
0 0 47
0 0 50
0 0 52
0 4 57
0 20 70
0 18 61
0 0 51
0 0 51
0 0 42
30 42 40
60 80 38
59 82 25
57 87 21
66 102 32
67 103 35
61 95 29
42 66 42
4 9 41
0 0 40
0 0 42
0 0 41
0 0 41
0 0 42
0 0 42
0 0 42
0 0 42
0 0 42
0 0 42
0 0 42
0 0 42
0 0 42
0 0 42
0 0 42
0 0 40
0 0 40
0 0 41
0 0 41
0 0 42
0 0 42
0 0 50
42 39 59
85 79 68
55 53 50
0 0 41
18 19 58
8 6 38
0 0 41
0 5 42
0 0 49
0 0 46
0 0 43
0 0 45
0 0 43
0 0 42
0 0 44
0 0 46
0 0 44
0 0 43
0 0 44
0 0 41
0 0 41
0 0 39
0 0 46
0 0 45
0 0 40
0 0 45
0 0 44
0 0 43
0 0 45
0 0 45
0 0 47
0 0 46
0 0 45
0 0 43
0 0 42
0 0 42
0 0 42
0 0 43
0 0 42
0 0 42
0 0 42
0 0 42
0 0 42
0 0 42
0 0 42
0 0 42
0 0 42
0 0 42
0 0 42
0 0 42
0 0 42
0 0 42
0 0 42
0 0 42
0 0 42
0 0 42
0 0 42
0 0 42
0 0 42
0 0 42
0 0 42
0 0 42
0 0 42
0 0 42
0 0 47
0 0 48
68 80 64
186 202 210
220 235 255
220 235 255
220 235 255
220 235 255
220 235 255
220 235 255
220 235 255
220 235 255
220 235 255
220 235 255
220 235 255
220 235 255
220 235 255
220 235 255
220 235 255
220 235 255
220 235 255
220 235 255
220 235 255
220 235 255
220 235 255
220 235 255
220 235 255
220 235 255
220 235 255
220 235 255
220 235 255
220 235 255
220 235 255
220 235 255
220 235 255
220 235 255
220 235 255
220 235 255
220 235 255
220 235 255
220 235 255
220 235 255
220 235 255
220 235 255
220 235 255
220 235 255
220 235 255
220 235 255
220 235 255
220 235 255
220 235 255
220 235 255
220 235 255
220 235 255
220 235 255
220 235 255
220 235 255
220 235 255
220 235 255
220 235 255
220 235 255
220 235 255
220 235 255
220 235 255
220 235 255
220 235 255
220 235 255
220 235 255
220 235 255
220 235 255
220 235 255
220 235 255
220 235 255
220 235 255
220 235 255
220 235 255
220 235 255
220 235 255
220 235 255
220 235 255
220 235 255
220 235 255
220 235 255
220 235 255
220 235 255
220 235 255
220 235 255
220 235 255
220 235 255
220 235 255
220 235 255
220 235 255
220 235 255
220 235 255
220 235 255
220 235 255
220 235 255
220 235 255
220 235 255
220 235 255
220 235 255
220 235 255
220 235 255
220 235 255
220 235 255
220 235 255
220 235 255
220 235 255
220 235 255
220 235 255
220 235 255
220 235 255
220 235 255
220 235 255
220 235 255
220 235 255
220 235 255
220 235 255
220 235 255
220 235 255
220 235 255
220 235 255
220 235 255
220 235 255
220 235 255
220 235 255
220 235 255
220 235 255
220 235 255
220 235 255
220 235 255
220 235 255
220 235 255
220 235 255
220 235 255
220 235 255
220 235 255
220 235 255
220 235 255
220 235 255
220 235 255
220 235 255
220 235 255
220 235 255
220 235 255
220 235 255
220 235 255
220 235 255
220 235 255
220 235 255
220 235 255
220 235 255
220 235 255
220 235 255
220 235 255
220 235 255
220 235 255
220 235 255
220 235 255
220 235 255
220 235 255
220 235 255
220 235 255
220 235 255
220 235 255
220 235 255
220 235 255
220 235 255
220 235 255
220 235 255
220 235 255
220 235 255
220 235 255
220 235 255
220 235 255
220 235 255
220 235 255
220 235 255
220 235 255
220 235 255
220 235 255
220 235 255
220 235 255
220 235 255
220 235 255
220 235 255
220 235 255
220 235 255
220 235 255
220 235 255
220 235 255
220 235 255
220 235 255
220 235 255
116 124 140
0 0 42
0 0 42
0 0 42
0 0 42
0 0 42
0 0 42
0 0 42
0 0 42
0 0 42
0 0 42
0 0 43
0 0 44
0 0 42
0 0 42
0 0 42
0 0 42
0 0 42
0 0 42
0 0 42
0 0 42
0 0 42
0 0 44
0 0 44
0 0 45
0 0 44
0 0 42
0 0 43
0 0 45
0 0 45
0 0 45
0 0 44
0 0 42
0 0 42
0 0 42
0 0 43
0 0 45
0 0 45
0 0 45
0 0 45
0 0 43
0 0 42
0 0 42
0 0 44
0 0 45
0 0 43
0 0 42
0 0 42
0 0 42
0 0 42
0 0 42
0 0 42
0 0 42
0 0 42
0 0 42
0 0 42
0 0 42
0 0 42
0 0 42
0 0 42
0 0 42
0 0 45
0 0 45
0 0 44
0 0 42
0 0 42
0 0 42
0 0 42
0 0 42
0 0 42
0 0 42
0 0 42
0 0 42
0 0 42
0 0 42
0 0 42
0 0 42
0 0 42
0 0 42
0 0 42
0 0 42
0 0 42
0 0 42
0 0 42
0 0 42
0 0 44
0 0 45
0 0 45
0 0 45
0 0 45
0 0 45
0 0 45
0 0 45
0 0 45
0 0 45
0 0 45
0 0 45
0 0 46
0 0 45
0 0 46
0 0 47
0 0 47
0 0 53
0 0 54
0 0 59
0 9 63
0 35 92
0 28 85
0 0 50
0 0 48
0 0 48
3 5 51
38 54 52
40 66 16
24 48 16
42 76 19
62 97 31
59 94 23
39 59 42
0 0 39
0 0 43
0 0 41
0 0 43
0 0 42
0 0 42
0 0 42
0 0 42
0 0 42
0 0 42
0 0 42
0 0 42
0 0 42
0 0 42
0 0 42
0 0 42
0 0 45
0 0 44
0 0 41
0 0 41
0 0 42
0 0 44
20 21 53
90 89 66
133 121 90
94 88 86
3 4 55
64 66 66
49 51 50
0 0 44
0 8 43
0 0 43
0 0 46
0 0 43
0 0 45
0 0 45
0 0 45
0 0 45
0 0 49
0 0 50
0 0 48
0 0 43
0 0 44
0 0 43
0 0 40
0 0 50
0 0 44
0 0 46
0 0 45
0 0 43
0 0 42
0 0 45
0 0 47
0 0 47
0 0 47
0 0 46
0 0 44
0 0 43
0 0 43
0 0 42
0 0 43
0 0 43
0 0 42
0 0 42
0 0 42
0 0 42
0 0 42
0 0 42
0 0 42
0 0 42
0 0 42
0 0 42
0 0 42
0 0 42
0 0 42
0 0 42
0 0 42
0 0 42
0 0 42
0 0 42
0 0 42
0 0 42
0 0 42
0 0 42
0 0 42
0 0 42
0 0 42
0 0 46
0 0 48
16 43 63
143 160 152
220 235 255
220 235 255
220 235 255
220 235 255
220 235 255
220 235 255
220 235 255
220 235 255
220 235 255
220 235 255
220 235 255
220 235 255
220 235 255
220 235 255
220 235 255
220 235 255
220 235 255
220 235 255
220 235 255
220 235 255
220 235 255
220 235 255
220 235 255
220 235 255
220 235 255
220 235 255
220 235 255
220 235 255
220 235 255
220 235 255
220 235 255
220 235 255
220 235 255
220 235 255
220 235 255
220 235 255
220 235 255
220 235 255
220 235 255
220 235 255
220 235 255
220 235 255
220 235 255
220 235 255
220 235 255
220 235 255
220 235 255
220 235 255
220 235 255
220 235 255
220 235 255
220 235 255
220 235 255
220 235 255
220 235 255
220 235 255
220 235 255
220 235 255
220 235 255
220 235 255
220 235 255
220 235 255
220 235 255
220 235 255
220 235 255
220 235 255
220 235 255
220 235 255
220 235 255
220 235 255
220 235 255
220 235 255
220 235 255
220 235 255
220 235 255
220 235 255
220 235 255
220 235 255
220 235 255
220 235 255
220 235 255
220 235 255
220 235 255
220 235 255
220 235 255
220 235 255
220 235 255
220 235 255
220 235 255
220 235 255
220 235 255
220 235 255
220 235 255
220 235 255
220 235 255
220 235 255
220 235 255
220 235 255
220 235 255
220 235 255
220 235 255
220 235 255
220 235 255
220 235 255
220 235 255
220 235 255
220 235 255
220 235 255
220 235 255
220 235 255
220 235 255
220 235 255
220 235 255
220 235 255
220 235 255
220 235 255
220 235 255
220 235 255
220 235 255
220 235 255
220 235 255
220 235 255
220 235 255
220 235 255
220 235 255
220 235 255
220 235 255
220 235 255
220 235 255
220 235 255
220 235 255
220 235 255
220 235 255
220 235 255
220 235 255
220 235 255
220 235 255
220 235 255
220 235 255
220 235 255
220 235 255
220 235 255
220 235 255
220 235 255
220 235 255
220 235 255
220 235 255
220 235 255
220 235 255
220 235 255
220 235 255
220 235 255
220 235 255
220 235 255
220 235 255
220 235 255
220 235 255
220 235 255
220 235 255
220 235 255
220 235 255
220 235 255
220 235 255
220 235 255
220 235 255
220 235 255
220 235 255
220 235 255
220 235 255
220 235 255
220 235 255
220 235 255
220 235 255
220 235 255
220 235 255
220 235 255
220 235 255
220 235 255
220 235 255
220 235 255
220 235 255
220 235 255
220 235 255
220 235 255
220 235 255
220 235 255
220 235 255
220 235 255
220 235 255
220 235 255
73 78 93
0 0 42
0 0 42
0 0 42
0 0 42
0 0 42
0 0 42
0 0 42
0 0 42
0 0 42
0 0 45
0 0 43
0 0 42
0 0 42
0 0 42
0 0 42
0 0 42
0 0 42
0 0 42
0 0 43
0 0 43
0 0 43
0 0 45
0 0 45
0 0 45
0 0 43
0 0 42
0 0 44
0 0 45
0 0 45
0 0 45
0 0 44
0 0 42
0 0 42
0 0 43
0 0 45
0 0 45
0 0 45
0 0 45
0 0 45
0 0 43
0 0 42
0 0 42
0 0 44
0 0 45
0 0 43
0 0 42
0 0 42
0 0 42
0 0 42
0 0 42
0 0 42
0 0 42
0 0 42
0 0 42
0 0 42
0 0 42
0 0 42
0 0 42
0 0 42
0 0 43
0 0 45
0 0 45
0 0 44
0 0 42
0 0 42
0 0 42
0 0 42
0 0 42
0 0 42
0 0 42
0 0 42
0 0 42
0 0 42
0 0 42
0 0 42
0 0 42
0 0 41
0 0 42
0 0 42
0 0 42
0 0 42
0 0 42
0 0 42
0 0 42
0 0 44
0 0 44
0 0 45
0 0 45
0 0 45
0 0 45
0 0 45
0 0 44
0 0 43
0 0 44
0 0 45
0 0 46
0 0 47
0 0 48
0 0 43
0 0 44
0 0 48
0 0 58
0 0 58
0 0 62
0 20 80
0 31 84
0 18 70
0 0 45
0 0 53
0 0 52
0 0 46
0 0 51
22 42 40
23 52 28
26 47 18
47 79 23
55 86 22
26 41 40
0 0 44
0 0 45
0 0 37
0 0 40
0 0 42
0 0 41
0 0 41
0 0 41
0 0 42
0 0 42
0 0 44
0 0 42
0 0 41
0 0 42
0 0 43
0 0 42
0 0 45
0 3 47
6 11 46
8 17 42
12 18 45
22 34 43
63 75 33
113 106 62
65 63 79
33 31 80
12 14 65
72 73 81
93 98 73
45 51 40
26 32 46
0 0 44
0 0 42
0 0 41
0 0 44
0 0 45
0 0 43
0 0 45
0 0 54
0 0 56
0 0 53
0 0 49
0 0 49
0 0 47
0 0 45
0 0 45
0 0 40
0 0 42
0 0 45
0 0 44
0 0 44
0 0 47
0 0 48
0 0 48
0 0 50
0 0 50
0 0 47
0 0 45
0 0 45
0 0 43
0 0 44
0 0 44
0 0 42
0 0 42
0 0 42
0 0 42
0 0 42
0 0 42
0 0 42
0 0 42
0 0 42
0 0 42
0 0 42
0 0 42
0 0 42
0 0 42
0 0 42
0 0 42
0 0 42
0 0 42
0 0 42
0 0 42
0 0 42
0 0 42
0 0 42
0 0 42
0 0 42
0 0 44
0 0 49
0 12 52
82 108 78
220 235 255
220 235 255
220 235 255
220 235 255
220 235 255
220 235 255
220 235 255
220 235 255
220 235 255
220 235 255
220 235 255
220 235 255
220 235 255
220 235 255
220 235 255
220 235 255
220 235 255
220 235 255
220 235 255
220 235 255
220 235 255
220 235 255
220 235 255
220 235 255
220 235 255
220 235 255
220 235 255
220 235 255
220 235 255
220 235 255
220 235 255
220 235 255
220 235 255
220 235 255
220 235 255
220 235 255
220 235 255
220 235 255
220 235 255
220 235 255
220 235 255
220 235 255
220 235 255
220 235 255
220 235 255
220 235 255
220 235 255
220 235 255
220 235 255
220 235 255
220 235 255
220 235 255
220 235 255
220 235 255
220 235 255
220 235 255
220 235 255
220 235 255
220 235 255
220 235 255
220 235 255
220 235 255
220 235 255
220 235 255
220 235 255
220 235 255
220 235 255
220 235 255
220 235 255
220 235 255
220 235 255
220 235 255
220 235 255
220 235 255
220 235 255
220 235 255
220 235 255
220 235 255
220 235 255
220 235 255
220 235 255
220 235 255
220 235 255
220 235 255
220 235 255
220 235 255
220 235 255
220 235 255
220 235 255
220 235 255
220 235 255
220 235 255
220 235 255
220 235 255
220 235 255
220 235 255
220 235 255
220 235 255
220 235 255
220 235 255
220 235 255
220 235 255
220 235 255
220 235 255
220 235 255
220 235 255
220 235 255
220 235 255
220 235 255
220 235 255
220 235 255
220 235 255
220 235 255
220 235 255
220 235 255
220 235 255
220 235 255
220 235 255
220 235 255
220 235 255
220 235 255
220 235 255
220 235 255
220 235 255
220 235 255
220 235 255
220 235 255
220 235 255
220 235 255
220 235 255
220 235 255
220 235 255
220 235 255
220 235 255
220 235 255
220 235 255
220 235 255
220 235 255
220 235 255
220 235 255
220 235 255
220 235 255
220 235 255
220 235 255
220 235 255
220 235 255
220 235 255
220 235 255
220 235 255
220 235 255
220 235 255
220 235 255
220 235 255
220 235 255
220 235 255
220 235 255
220 235 255
220 235 255
220 235 255
220 235 255
220 235 255
220 235 255
220 235 255
220 235 255
220 235 255
220 235 255
220 235 255
220 235 255
220 235 255
220 235 255
220 235 255
220 235 255
220 235 255
220 235 255
220 235 255
220 235 255
220 235 255
220 235 255
220 235 255
220 235 255
220 235 255
220 235 255
220 235 255
220 235 255
220 235 255
220 235 255
220 235 255
220 235 255
220 235 255
203 216 236
0 0 42
0 0 42
0 0 42
0 0 42
0 0 42
0 0 42
0 0 42
0 0 42
0 0 42
0 0 43
0 0 45
0 0 42
0 0 42
0 0 42
0 0 42
0 0 42
0 0 42
0 0 42
0 0 44
0 0 45
0 0 45
0 0 45
0 0 45
0 0 45
0 0 45
0 0 43
0 0 42
0 0 44
0 0 45
0 0 44
0 0 44
0 0 43
0 0 43
0 0 42
0 0 45
0 0 45
0 0 45
0 0 44
0 0 45
0 0 45
0 0 44
0 0 44
0 0 43
0 0 43
0 0 43
0 0 42
0 0 42
0 0 42
0 0 42
0 0 42
0 0 42
0 0 42
0 0 42
0 0 42
0 0 42
0 0 42
0 0 42
0 0 42
0 0 42
0 0 42
0 0 42
0 0 42
0 0 43
0 0 43
0 0 42
0 0 42
0 0 42
0 0 43
0 0 45
0 0 43
0 0 42
0 0 42
0 0 42
0 0 42
0 0 43
0 0 42
0 0 42
0 0 40
0 0 41
0 0 42
0 0 42
0 0 42
0 0 42
0 0 42
0 0 42
0 0 42
0 0 43
0 0 45
0 0 45
0 0 45
0 0 45
0 0 45
0 0 45
0 0 45
0 0 44
0 0 45
0 0 48
0 0 49
0 0 50
0 0 47
0 0 48
0 0 52
0 0 57
0 0 58
0 0 57
0 29 91
0 41 100
0 18 75
0 0 57
0 0 55
0 0 58
0 0 60
0 0 48
0 0 50
29 51 35
46 73 26
57 83 32
58 84 26
46 62 44
6 9 41
0 0 41
0 0 45
0 0 36
0 0 39
0 0 42
0 0 44
0 0 39
0 0 40
0 0 40
0 0 43
0 0 40
0 0 43
0 0 40
0 0 47
0 0 43
2 3 41
15 24 48
38 57 46
30 52 22
42 62 16
48 67 17
48 71 9
55 72 16
79 90 69
60 79 94
85 94 67
105 100 66
83 87 40
66 77 21
69 86 23
28 41 38
0 0 45
0 0 44
0 3 46
0 2 44
0 0 43
0 0 46
1 2 61
16 26 62
9 17 70
3 5 59
3 5 69
0 1 65
0 0 53
0 0 46
0 0 39
0 0 41
0 0 44
0 0 45
0 0 45
0 0 47
0 0 48
0 0 49
0 0 52
0 0 53
0 0 52
0 0 48
0 0 47
0 0 45
0 0 45
0 0 44
0 0 43
0 0 42
0 0 42
0 0 42
0 0 42
0 0 42
0 0 42
0 0 42
0 0 42
0 0 42
0 0 42
0 0 42
0 0 42
0 0 42
0 0 42
0 0 42
0 0 42
0 0 42
0 0 42
0 0 42
0 0 42
0 0 42
0 0 42
0 0 42
0 0 42
0 0 44
0 0 47
0 0 46
58 80 62
207 222 240
220 235 255
220 235 255
220 235 255
220 235 255
220 235 255
220 235 255
220 235 255
220 235 255
220 235 255
220 235 255
220 235 255
220 235 255
220 235 255
220 235 255
220 235 255
220 235 255
220 235 255
220 235 255
220 235 255
220 235 255
220 235 255
220 235 255
220 235 255
220 235 255
220 235 255
220 235 255
220 235 255
220 235 255
220 235 255
220 235 255
220 235 255
220 235 255
220 235 255
220 235 255
220 235 255
220 235 255
220 235 255
220 235 255
220 235 255
220 235 255
220 235 255
220 235 255
220 235 255
220 235 255
220 235 255
220 235 255
220 235 255
220 235 255
220 235 255
220 235 255
220 235 255
220 235 255
220 235 255
220 235 255
220 235 255
220 235 255
220 235 255
220 235 255
220 235 255
220 235 255
220 235 255
220 235 255
220 235 255
220 235 255
220 235 255
220 235 255
220 235 255
220 235 255
220 235 255
220 235 255
220 235 255
220 235 255
220 235 255
220 235 255
220 235 255
220 235 255
220 235 255
220 235 255
220 235 255
220 235 255
220 235 255
220 235 255
220 235 255
220 235 255
220 235 255
220 235 255
220 235 255
220 235 255
220 235 255
220 235 255
220 235 255
220 235 255
220 235 255
220 235 255
220 235 255
220 235 255
220 235 255
220 235 255
220 235 255
220 235 255
220 235 255
220 235 255
220 235 255
220 235 255
220 235 255
220 235 255
220 235 255
220 235 255
220 235 255
220 235 255
220 235 255
220 235 255
220 235 255
220 235 255
220 235 255
220 235 255
220 235 255
220 235 255
220 235 255
220 235 255
220 235 255
220 235 255
220 235 255
220 235 255
220 235 255
220 235 255
220 235 255
220 235 255
220 235 255
220 235 255
220 235 255
220 235 255
220 235 255
220 235 255
220 235 255
220 235 255
220 235 255
220 235 255
220 235 255
220 235 255
220 235 255
220 235 255
220 235 255
220 235 255
220 235 255
220 235 255
220 235 255
220 235 255
220 235 255
220 235 255
220 235 255
220 235 255
220 235 255
220 235 255
220 235 255
220 235 255
220 235 255
220 235 255
220 235 255
220 235 255
220 235 255
220 235 255
220 235 255
220 235 255
220 235 255
220 235 255
220 235 255
220 235 255
220 235 255
220 235 255
220 235 255
220 235 255
220 235 255
220 235 255
220 235 255
220 235 255
220 235 255
220 235 255
220 235 255
220 235 255
220 235 255
220 235 255
220 235 255
220 235 255
220 235 255
220 235 255
220 235 255
220 235 255
190 203 222
0 0 42
0 0 42
0 0 42
0 0 42
0 0 42
0 0 42
0 0 42
0 0 42
0 0 43
0 0 43
0 0 44
0 0 41
0 0 42
0 0 42
0 0 42
0 0 44
0 0 44
0 0 44
0 0 43
0 0 42
0 0 42
0 0 44
0 0 45
0 0 45
0 0 45
0 0 45
0 0 42
0 0 42
0 0 44
0 0 42
0 0 42
0 0 44
0 0 45
0 0 44
0 0 45
0 0 45
0 0 45
0 0 45
0 0 45
0 0 45
0 0 45
0 0 45
0 0 44
0 0 42
0 0 42
0 0 42
0 0 42
0 0 42
0 0 42
0 0 42
0 0 42
0 0 42
0 0 42
0 0 42
0 0 42
0 0 42
0 0 42
0 0 42
0 0 42
0 0 42
0 0 42
0 0 43
0 0 45
0 0 43
0 0 42
0 0 42
0 0 42
0 0 42
0 0 44
0 0 45
0 0 43
0 0 42
0 0 42
0 0 43
0 0 44
0 0 42
0 0 42
0 0 42
0 0 42
0 0 42
0 0 42
0 0 42
0 0 42
0 0 42
0 0 42
0 0 42
0 0 43
0 0 45
0 0 45
0 0 45
0 0 45
0 0 45
0 0 45
0 0 45
0 0 45
0 0 47
0 0 48
0 0 50
0 0 50
0 0 45
0 0 47
0 0 50
0 0 53
0 0 53
0 0 55
0 20 72
0 32 88
0 26 85
0 13 74
0 18 76
0 14 75
0 4 62
0 0 52
0 0 52
33 55 28
48 81 16
56 88 22
53 79 26
55 81 24
22 35 33
0 0 42
0 0 50
0 0 42
0 0 38
0 0 41
0 0 45
0 0 38
0 0 43
0 0 48
0 0 41
0 0 44
0 0 41
0 0 44
0 0 37
0 0 40
9 12 42
48 67 30
54 80 18
45 71 5
41 58 18
51 70 15
43 67 14
56 77 19
96 113 68
69 114 81
61 81 33
78 74 42
89 84 48
68 76 26
52 74 10
41 60 34
29 41 29
30 41 31
34 51 32
28 42 36
9 14 44
0 0 50
0 0 54
23 40 72
22 46 55
32 57 40
13 62 62
0 13 71
31 46 42
7 23 43
0 0 42
0 0 45
0 0 43
0 0 45
0 0 45
0 0 46
0 0 48
0 0 48
0 0 52
0 0 55
0 0 56
0 0 51
0 0 49
0 0 45
0 0 45
0 0 45
0 0 45
0 0 43
0 0 42
0 0 42
0 0 42
0 0 42
0 0 42
0 0 42
0 0 42
0 0 42
0 0 42
0 0 42
0 0 42
0 0 42
0 0 42
0 0 42
0 0 42
0 0 42
0 0 42
0 0 42
0 0 42
0 0 42
0 0 42
0 0 42
0 0 42
0 0 44
0 0 43
0 0 44
34 55 68
178 193 203
220 235 255
220 235 255
220 235 255
220 235 255
220 235 255
220 235 255
220 235 255
220 235 255
220 235 255
220 235 255
220 235 255
220 235 255
220 235 255
220 235 255
220 235 255
220 235 255
220 235 255
220 235 255
220 235 255
220 235 255
220 235 255
220 235 255
220 235 255
220 235 255
220 235 255
220 235 255
220 235 255
220 235 255
220 235 255
220 235 255
220 235 255
220 235 255
220 235 255
220 235 255
220 235 255
220 235 255
220 235 255
220 235 255
220 235 255
220 235 255
220 235 255
220 235 255
220 235 255
220 235 255
220 235 255
220 235 255
220 235 255
220 235 255
220 235 255
220 235 255
220 235 255
220 235 255
220 235 255
220 235 255
220 235 255
220 235 255
220 235 255
220 235 255
220 235 255
220 235 255
220 235 255
220 235 255
220 235 255
220 235 255
220 235 255
220 235 255
220 235 255
220 235 255
220 235 255
220 235 255
220 235 255
220 235 255
220 235 255
220 235 255
220 235 255
220 235 255
220 235 255
220 235 255
220 235 255
220 235 255
220 235 255
220 235 255
220 235 255
220 235 255
220 235 255
220 235 255
220 235 255
220 235 255
220 235 255
220 235 255
220 235 255
220 235 255
220 235 255
220 235 255
220 235 255
220 235 255
220 235 255
220 235 255
220 235 255
220 235 255
220 235 255
220 235 255
220 235 255
220 235 255
220 235 255
220 235 255
220 235 255
220 235 255
220 235 255
220 235 255
220 235 255
220 235 255
220 235 255
220 235 255
220 235 255
220 235 255
220 235 255
220 235 255
220 235 255
220 235 255
220 235 255
220 235 255
220 235 255
220 235 255
220 235 255
220 235 255
220 235 255
220 235 255
220 235 255
220 235 255
220 235 255
220 235 255
220 235 255
220 235 255
220 235 255
220 235 255
220 235 255
220 235 255
220 235 255
220 235 255
220 235 255
220 235 255
220 235 255
220 235 255
220 235 255
220 235 255
220 235 255
220 235 255
220 235 255
220 235 255
220 235 255
220 235 255
220 235 255
220 235 255
220 235 255
220 235 255
220 235 255
220 235 255
220 235 255
220 235 255
220 235 255
220 235 255
220 235 255
220 235 255
220 235 255
220 235 255
220 235 255
220 235 255
220 235 255
220 235 255
220 235 255
220 235 255
220 235 255
220 235 255
220 235 255
220 235 255
220 235 255
220 235 255
220 235 255
220 235 255
220 235 255
220 235 255
220 235 255
220 235 255
220 235 255
220 235 255
220 235 255
220 235 255
151 161 178
0 0 42
0 0 44
0 0 44
0 0 43
0 0 44
0 0 45
0 0 45
0 0 45
0 0 45
0 0 43
0 0 42
0 0 41
0 0 42
0 0 42
0 0 42
0 0 45
0 0 45
0 0 45
0 0 42
0 0 42
0 0 43
0 0 44
0 0 45
0 0 45
0 0 45
0 0 45
0 0 42
0 0 42
0 0 45
0 0 42
0 0 42
0 0 45
0 0 45
0 0 45
0 0 45
0 0 44
0 0 45
0 0 45
0 0 45
0 0 45
0 0 45
0 0 45
0 0 45
0 0 45
0 0 44
0 0 42
0 0 42
0 0 42
0 0 42
0 0 42
0 0 42
0 0 42
0 0 42
0 0 42
0 0 42
0 0 42
0 0 42
0 0 42
0 0 42
0 0 42
0 0 43
0 0 45
0 0 45
0 0 43
0 0 42
0 0 42
0 0 42
0 0 42
0 0 44
0 0 44
0 0 42
0 0 42
0 0 42
0 0 42
0 0 44
0 0 42
0 0 42
0 0 42
0 0 42
0 0 42
0 0 42
0 0 42
0 0 42
0 0 43
0 0 42
0 0 43
0 0 43
0 0 45
0 0 45
0 0 45
0 0 45
0 0 45
0 0 45
0 0 45
0 0 47
0 0 49
0 0 53
0 0 53
0 0 54
0 0 53
0 0 52
0 0 52
0 0 54
0 0 55
0 0 56
0 7 68
0 23 83
0 23 88
0 12 77
0 12 74
0 8 72
0 0 54
0 0 52
0 0 39
19 34 26
35 61 32
33 61 38
50 79 16
53 78 22
41 64 4
15 25 35
3 5 49
0 0 40
0 0 42
0 0 47
0 0 46
0 0 38
0 4 53
0 0 45
0 0 38
0 0 36
0 0 41
0 0 49
0 0 38
0 0 40
0 0 53
46 69 15
52 75 19
51 71 12
55 74 26
54 75 18
46 62 8
61 82 18
49 82 89
29 86 111
44 75 51
76 79 37
96 93 53
85 96 45
45 76 0
51 76 10
54 75 24
55 76 28
49 74 9
47 74 10
34 56 27
27 47 38
25 45 37
45 59 21
43 68 18
40 72 20
24 87 67
5 53 87
41 64 69
13 30 57
0 0 53
0 0 41
0 0 42
0 0 45
0 0 45
0 0 45
0 0 47
0 0 48
0 0 51
0 0 54
0 0 57
0 0 53
0 0 51
0 0 49
0 0 47
0 0 45
0 0 45
0 0 44
0 0 42
0 0 42
0 0 42
0 0 42
0 0 42
0 0 42
0 0 42
0 0 42
0 0 42
0 0 42
0 0 42
0 0 42
0 0 42
0 0 42
0 0 42
0 0 42
0 0 42
0 0 42
0 0 42
0 0 42
0 0 42
0 0 41
0 0 42
0 0 45
0 0 43
0 0 42
4 29 69
152 167 174
220 235 255
220 235 255
220 235 255
220 235 255
220 235 255
220 235 255
220 235 255
220 235 255
220 235 255
220 235 255
220 235 255
220 235 255
220 235 255
220 235 255
220 235 255
220 235 255
220 235 255
220 235 255
220 235 255
220 235 255
220 235 255
220 235 255
220 235 255
220 235 255
220 235 255
220 235 255
220 235 255
220 235 255
220 235 255
220 235 255
220 235 255
220 235 255
220 235 255
220 235 255
220 235 255
220 235 255
220 235 255
220 235 255
220 235 255
220 235 255
220 235 255
220 235 255
220 235 255
220 235 255
220 235 255
220 235 255
220 235 255
220 235 255
220 235 255
220 235 255
220 235 255
220 235 255
220 235 255
220 235 255
220 235 255
220 235 255
220 235 255
220 235 255
220 235 255
220 235 255
220 235 255
220 235 255
220 235 255
220 235 255
220 235 255
220 235 255
220 235 255
220 235 255
220 235 255
220 235 255
220 235 255
220 235 255
220 235 255
220 235 255
220 235 255
220 235 255
220 235 255
220 235 255
220 235 255
220 235 255
220 235 255
220 235 255
220 235 255
220 235 255
220 235 255
220 235 255
220 235 255
220 235 255
220 235 255
220 235 255
220 235 255
220 235 255
220 235 255
220 235 255
220 235 255
220 235 255
220 235 255
220 235 255
220 235 255
220 235 255
220 235 255
220 235 255
220 235 255
220 235 255
220 235 255
220 235 255
220 235 255
220 235 255
220 235 255
220 235 255
220 235 255
220 235 255
220 235 255
220 235 255
220 235 255
220 235 255
220 235 255
220 235 255
220 235 255
220 235 255
220 235 255
220 235 255
220 235 255
220 235 255
220 235 255
220 235 255
220 235 255
220 235 255
220 235 255
220 235 255
220 235 255
220 235 255
220 235 255
220 235 255
220 235 255
220 235 255
220 235 255
220 235 255
220 235 255
220 235 255
220 235 255
220 235 255
220 235 255
220 235 255
220 235 255
220 235 255
220 235 255
220 235 255
220 235 255
220 235 255
220 235 255
220 235 255
220 235 255
220 235 255
220 235 255
220 235 255
220 235 255
220 235 255
220 235 255
220 235 255
220 235 255
220 235 255
220 235 255
220 235 255
220 235 255
220 235 255
220 235 255
220 235 255
220 235 255
220 235 255
220 235 255
220 235 255
220 235 255
220 235 255
220 235 255
220 235 255
220 235 255
220 235 255
220 235 255
220 235 255
220 235 255
220 235 255
220 235 255
220 235 255
220 235 255
220 235 255
220 235 255
220 235 255
98 105 120
0 0 42
0 0 45
0 0 45
0 0 44
0 0 45
0 0 45
0 0 45
0 0 45
0 0 45
0 0 44
0 0 42
0 0 42
0 0 42
0 0 42
0 0 42
0 0 45
0 0 45
0 0 44
0 0 43
0 0 44
0 0 45
0 0 45
0 0 45
0 0 45
0 0 44
0 0 45
0 0 42
0 0 42
0 0 45
0 0 42
0 0 42
0 0 45
0 0 45
0 0 45
0 0 44
0 0 42
0 0 45
0 0 45
0 0 45
0 0 45
0 0 45
0 0 43
0 0 45
0 0 45
0 0 44
0 0 42
0 0 42
0 0 42
0 0 42
0 0 42
0 0 42
0 0 42
0 0 42
0 0 42
0 0 42
0 0 42
0 0 42
0 0 42
0 0 42
0 0 42
0 0 44
0 0 45
0 0 45
0 0 45
0 0 42
0 0 42
0 0 42
0 0 42
0 0 42
0 0 42
0 0 42
0 0 42
0 0 42
0 0 42
0 0 43
0 0 43
0 0 42
0 0 42
0 0 42
0 0 42
0 0 45
0 0 45
0 0 45
0 0 45
0 0 45
0 0 45
0 0 45
0 0 45
0 0 45
0 0 45
0 0 45
0 0 45
0 0 44
0 0 45
0 0 48
0 0 53
0 0 54
0 0 57
0 0 61
0 0 62
0 0 62
0 0 61
0 0 62
0 0 64
0 0 64
0 11 73
0 18 82
0 24 89
0 14 76
0 7 64
0 0 62
0 0 59
0 0 44
0 0 45
0 0 47
0 15 40
12 25 50
33 51 40
41 63 23
41 66 8
35 57 9
22 37 30
0 0 44
0 0 43
0 0 41
0 0 42
8 14 36
27 45 33
32 51 28
21 36 34
14 18 44
0 0 37
0 0 39
0 0 43
11 12 42
24 34 43
54 78 24
59 84 16
58 79 18
56 77 21
49 72 14
35 51 5
49 78 6
26 64 62
11 72 123
47 96 75
52 70 15
58 68 26
58 77 25
43 75 11
48 73 13
55 77 13
53 78 20
55 80 23
55 83 22
49 79 9
47 79 9
42 74 16
61 83 28
68 87 23
53 79 13
37 63 16
30 67 44
25 71 62
2 59 90
0 9 56
0 0 40
0 0 44
0 0 45
0 0 45
0 0 45
0 0 47
0 0 50
0 0 51
0 0 53
0 0 56
0 0 53
0 0 51
0 0 50
0 0 49
0 0 45
0 0 45
0 0 44
0 0 42
0 0 42
0 0 42
0 0 42
0 0 42
0 0 42
0 0 42
0 0 42
0 0 42
0 0 42
0 0 42
0 0 42
0 0 42
0 0 42
0 0 42
0 0 42
0 0 42
0 0 42
0 0 42
0 0 42
0 0 42
0 0 42
0 0 42
0 0 43
0 0 42
0 0 43
0 12 50
118 133 145
220 235 255
220 235 255
220 235 255
220 235 255
220 235 255
220 235 255
220 235 255
220 235 255
220 235 255
220 235 255
220 235 255
220 235 255
220 235 255
220 235 255
220 235 255
220 235 255
220 235 255
220 235 255
220 235 255
220 235 255
220 235 255
220 235 255
220 235 255
220 235 255
220 235 255
220 235 255
220 235 255
220 235 255
220 235 255
220 235 255
220 235 255
220 235 255
220 235 255
220 235 255
220 235 255
220 235 255
220 235 255
220 235 255
220 235 255
220 235 255
220 235 255
220 235 255
220 235 255
220 235 255
220 235 255
220 235 255
220 235 255
220 235 255
220 235 255
220 235 255
220 235 255
220 235 255
220 235 255
220 235 255
220 235 255
220 235 255
220 235 255
220 235 255
220 235 255
220 235 255
220 235 255
220 235 255
220 235 255
220 235 255
220 235 255
220 235 255
220 235 255
220 235 255
220 235 255
220 235 255
220 235 255
220 235 255
220 235 255
220 235 255
220 235 255
220 235 255
220 235 255
220 235 255
220 235 255
220 235 255
220 235 255
220 235 255
220 235 255
220 235 255
220 235 255
220 235 255
220 235 255
220 235 255
220 235 255
220 235 255
220 235 255
220 235 255
220 235 255
220 235 255
220 235 255
220 235 255
220 235 255
220 235 255
220 235 255
220 235 255
220 235 255
220 235 255
220 235 255
220 235 255
220 235 255
220 235 255
220 235 255
220 235 255
220 235 255
220 235 255
220 235 255
220 235 255
220 235 255
220 235 255
220 235 255
220 235 255
220 235 255
220 235 255
220 235 255
220 235 255
220 235 255
220 235 255
220 235 255
220 235 255
220 235 255
220 235 255
220 235 255
220 235 255
220 235 255
220 235 255
220 235 255
220 235 255
220 235 255
220 235 255
220 235 255
220 235 255
220 235 255
220 235 255
220 235 255
220 235 255
220 235 255
220 235 255
220 235 255
220 235 255
220 235 255
220 235 255
220 235 255
220 235 255
220 235 255
220 235 255
220 235 255
220 235 255
220 235 255
220 235 255
220 235 255
220 235 255
220 235 255
220 235 255
220 235 255
220 235 255
220 235 255
220 235 255
220 235 255
220 235 255
220 235 255
220 235 255
220 235 255
220 235 255
220 235 255
220 235 255
220 235 255
220 235 255
220 235 255
220 235 255
220 235 255
220 235 255
220 235 255
220 235 255
220 235 255
220 235 255
220 235 255
220 235 255
220 235 255
220 235 255
220 235 255
220 235 255
220 235 255
220 235 255
44 47 66
0 0 45
0 0 45
0 0 45
0 0 45
0 0 45
0 0 45
0 0 45
0 0 45
0 0 45
0 0 44
0 0 43
0 0 42
0 0 42
0 0 42
0 0 42
0 0 45
0 0 45
0 0 45
0 0 45
0 0 45
0 0 45
0 0 45
0 0 45
0 0 45
0 0 44
0 0 44
0 0 42
0 0 43
0 0 44
0 0 42
0 0 42
0 0 45
0 0 45
0 0 45
0 0 45
0 0 44
0 0 45
0 0 45
0 0 45
0 0 45
0 0 45
0 0 45
0 0 45
0 0 44
0 0 43
0 0 42
0 0 42
0 0 42
0 0 42
0 0 42
0 0 42
0 0 42
0 0 42
0 0 42
0 0 42
0 0 42
0 0 42
0 0 42
0 0 42
0 0 44
0 0 45
0 0 45
0 0 45
0 0 45
0 0 43
0 0 42
0 0 42
0 0 42
0 0 42
0 0 42
0 0 42
0 0 42
0 0 42
0 0 42
0 0 43
0 0 44
0 0 42
0 0 42
0 0 42
0 0 44
0 0 45
0 0 45
0 0 45
0 0 45
0 0 45
0 0 45
0 0 45
0 0 45
0 0 45
0 0 45
0 0 45
0 0 45
0 0 45
0 0 46
0 0 48
0 0 51
0 0 54
0 0 57
0 0 64
0 0 68
0 10 70
0 12 70
0 0 67
0 0 68
0 0 69
0 19 78
0 21 84
0 24 89
0 19 79
0 5 63
0 0 54
0 0 46
0 0 45
0 0 42
0 0 48
0 0 47
0 0 51
0 0 41
24 38 44
41 64 23
40 65 7
40 64 19
19 32 40
6 13 37
3 7 40
26 43 33
48 75 27
45 72 45
32 59 49
38 67 34
45 69 33
20 28 40
0 0 42
0 5 47
42 55 52
66 88 46
69 94 36
60 85 24
52 78 12
48 73 16
36 56 15
23 45 4
43 66 8
44 74 18
36 111 95
59 86 53
60 73 21
42 66 0
46 73 0
46 77 9
44 73 8
52 79 0
56 81 12
59 83 15
60 84 18
64 88 21
55 82 17
60 81 22
85 96 38
92 93 32
81 90 31
64 70 20
42 65 10
40 58 5
37 88 67
9 81 114
0 12 57
0 0 48
0 0 45
0 0 45
0 0 45
0 0 45
0 0 50
0 0 54
0 0 56
0 0 57
0 0 52
0 0 52
0 0 50
0 0 48
0 0 46
0 0 45
0 0 44
0 0 42
0 0 42
0 0 42
0 0 42
0 0 42
0 0 42
0 0 42
0 0 42
0 0 42
0 0 42
0 0 42
0 0 42
0 0 42
0 0 42
0 0 42
0 0 42
0 0 42
0 0 42
0 0 42
0 0 42
0 0 42
0 0 42
0 0 42
0 0 42
0 0 42
0 0 44
0 0 44
64 79 93
220 235 255
220 235 255
220 235 255
220 235 255
220 235 255
220 235 255
220 235 255
220 235 255
220 235 255
220 235 255
220 235 255
220 235 255
220 235 255
220 235 255
220 235 255
220 235 255
220 235 255
220 235 255
220 235 255
220 235 255
220 235 255
220 235 255
220 235 255
220 235 255
220 235 255
220 235 255
220 235 255
220 235 255
220 235 255
220 235 255
220 235 255
220 235 255
220 235 255
220 235 255
220 235 255
220 235 255
220 235 255
220 235 255
220 235 255
220 235 255
220 235 255
220 235 255
220 235 255
220 235 255
220 235 255
220 235 255
220 235 255
220 235 255
220 235 255
220 235 255
220 235 255
220 235 255
220 235 255
220 235 255
220 235 255
220 235 255
220 235 255
220 235 255
220 235 255
220 235 255
220 235 255
220 235 255
220 235 255
220 235 255
220 235 255
220 235 255
220 235 255
220 235 255
220 235 255
220 235 255
220 235 255
220 235 255
220 235 255
220 235 255
220 235 255
220 235 255
220 235 255
220 235 255
220 235 255
220 235 255
220 235 255
220 235 255
220 235 255
220 235 255
220 235 255
220 235 255
220 235 255
220 235 255
220 235 255
220 235 255
220 235 255
220 235 255
220 235 255
220 235 255
220 235 255
220 235 255
220 235 255
220 235 255
220 235 255
220 235 255
220 235 255
220 235 255
220 235 255
220 235 255
220 235 255
220 235 255
220 235 255
220 235 255
220 235 255
220 235 255
220 235 255
220 235 255
220 235 255
220 235 255
220 235 255
220 235 255
220 235 255
220 235 255
220 235 255
220 235 255
220 235 255
220 235 255
220 235 255
220 235 255
220 235 255
220 235 255
220 235 255
220 235 255
220 235 255
220 235 255
220 235 255
220 235 255
220 235 255
220 235 255
220 235 255
220 235 255
220 235 255
220 235 255
220 235 255
220 235 255
220 235 255
220 235 255
220 235 255
220 235 255
220 235 255
220 235 255
220 235 255
220 235 255
220 235 255
220 235 255
220 235 255
220 235 255
220 235 255
220 235 255
220 235 255
220 235 255
220 235 255
220 235 255
220 235 255
220 235 255
220 235 255
220 235 255
220 235 255
220 235 255
220 235 255
220 235 255
220 235 255
220 235 255
220 235 255
220 235 255
220 235 255
220 235 255
220 235 255
220 235 255
220 235 255
220 235 255
220 235 255
220 235 255
220 235 255
220 235 255
220 235 255
220 235 255
220 235 255
220 235 255
220 235 255
220 235 255
220 235 255
193 206 225
0 0 42
0 0 44
0 0 45
0 0 45
0 0 45
0 0 45
0 0 45
0 0 45
0 0 45
0 0 45
0 0 43
0 0 45
0 0 45
0 0 45
0 0 45
0 0 45
0 0 45
0 0 45
0 0 45
0 0 45
0 0 45
0 0 45
0 0 45
0 0 45
0 0 45
0 0 45
0 0 44
0 0 42
0 0 43
0 0 44
0 0 42
0 0 43
0 0 45
0 0 45
0 0 44
0 0 45
0 0 45
0 0 45
0 0 43
0 0 42
0 0 44
0 0 45
0 0 45
0 0 42
0 0 42
0 0 42
0 0 42
0 0 42
0 0 42
0 0 42
0 0 42
0 0 42
0 0 42
0 0 42
0 0 42
0 0 42
0 0 42
0 0 42
0 0 42
0 0 44
0 0 45
0 0 45
0 0 45
0 0 45
0 0 45
0 0 44
0 0 42
0 0 42
0 0 42
0 0 43
0 0 44
0 0 43
0 0 42
0 0 42
0 0 44
0 0 45
0 0 45
0 0 42
0 0 42
0 0 42
0 0 45
0 0 45
0 0 45
0 0 44
0 0 44
0 0 44
0 0 44
0 0 45
0 0 45
0 0 45
0 0 45
0 0 45
0 0 45
0 0 45
0 0 47
0 0 48
0 0 50
0 0 51
0 0 56
0 0 62
0 8 69
0 16 73
0 12 70
0 0 60
0 0 56
0 0 58
0 7 62
0 14 76
0 13 77
0 12 69
0 0 57
0 0 52
0 0 50
0 0 42
0 0 52
0 0 48
0 0 36
0 0 42
0 0 47
5 9 40
24 42 22
48 76 18
55 85 21
50 78 21
46 70 20
44 67 21
51 81 13
51 81 32
22 40 66
8 18 69
22 46 48
44 73 42
49 76 22
19 39 58
24 53 76
65 99 46
74 103 36
66 92 23
56 83 16
47 75 7
44 72 8
42 66 14
26 50 0
35 72 0
48 77 20
48 75 20
67 73 27
55 71 23
48 76 19
42 76 0
49 75 11
45 75 5
46 81 0
54 76 12
73 91 29
74 91 30
70 87 23
63 80 20
71 86 27
96 100 49
97 95 41
73 74 23
76 79 30
55 72 17
35 61 7
33 75 53
16 94 114
2 31 73
0 14 61
0 0 45
0 0 45
0 0 45
0 0 45
0 0 48
0 0 55
0 0 58
0 0 58
0 0 52
0 0 48
0 0 46
0 0 47
0 0 45
0 0 45
0 0 44
0 0 42
0 0 42
0 0 42
0 0 42
0 0 42
0 0 42
0 0 42
0 0 42
0 0 42
0 0 42
0 0 42
0 0 42
0 0 42
0 0 42
0 0 42
0 0 42
0 0 42
0 0 42
0 0 42
0 0 42
0 0 42
0 0 42
0 0 42
0 0 42
0 0 42
0 0 44
0 0 45
24 45 73
199 214 230
220 235 255
220 235 255
220 235 255
220 235 255
220 235 255
220 235 255
220 235 255
220 235 255
220 235 255
220 235 255
220 235 255
220 235 255
220 235 255
220 235 255
220 235 255
220 235 255
220 235 255
220 235 255
220 235 255
220 235 255
220 235 255
220 235 255
220 235 255
220 235 255
220 235 255
220 235 255
220 235 255
220 235 255
220 235 255
220 235 255
220 235 255
220 235 255
220 235 255
220 235 255
220 235 255
220 235 255
220 235 255
220 235 255
220 235 255
220 235 255
220 235 255
220 235 255
220 235 255
220 235 255
220 235 255
220 235 255
220 235 255
220 235 255
220 235 255
220 235 255
220 235 255
220 235 255
220 235 255
220 235 255
220 235 255
220 235 255
220 235 255
220 235 255
220 235 255
220 235 255
220 235 255
220 235 255
220 235 255
220 235 255
220 235 255
220 235 255
220 235 255
220 235 255
220 235 255
220 235 255
220 235 255
220 235 255
220 235 255
220 235 255
220 235 255
220 235 255
220 235 255
220 235 255
220 235 255
220 235 255
220 235 255
220 235 255
220 235 255
220 235 255
220 235 255
220 235 255
220 235 255
220 235 255
220 235 255
220 235 255
220 235 255
220 235 255
220 235 255
220 235 255
220 235 255
220 235 255
220 235 255
220 235 255
220 235 255
220 235 255
220 235 255
220 235 255
220 235 255
220 235 255
220 235 255
220 235 255
220 235 255
220 235 255
220 235 255
220 235 255
220 235 255
220 235 255
220 235 255
220 235 255
220 235 255
220 235 255
220 235 255
220 235 255
220 235 255
220 235 255
220 235 255
220 235 255
220 235 255
220 235 255
220 235 255
220 235 255
220 235 255
220 235 255
220 235 255
220 235 255
220 235 255
220 235 255
220 235 255
220 235 255
220 235 255
220 235 255
220 235 255
220 235 255
220 235 255
220 235 255
220 235 255
220 235 255
220 235 255
220 235 255
220 235 255
220 235 255
220 235 255
220 235 255
220 235 255
220 235 255
220 235 255
220 235 255
220 235 255
220 235 255
220 235 255
220 235 255
220 235 255
220 235 255
220 235 255
220 235 255
220 235 255
220 235 255
220 235 255
220 235 255
220 235 255
220 235 255
220 235 255
220 235 255
220 235 255
220 235 255
220 235 255
220 235 255
220 235 255
220 235 255
220 235 255
220 235 255
220 235 255
220 235 255
220 235 255
220 235 255
220 235 255
220 235 255
220 235 255
220 235 255
220 235 255
220 235 255
183 195 213
0 0 43
0 0 44
0 0 45
0 0 45
0 0 45
0 0 44
0 0 45
0 0 45
0 0 45
0 0 44
0 0 43
0 0 45
0 0 46
0 0 45
0 0 45
0 0 45
0 0 45
0 0 45
0 0 44
0 0 45
0 0 45
0 0 45
0 0 45
0 0 45
0 0 45
0 0 45
0 0 44
0 0 42
0 0 43
0 0 43
0 0 43
0 0 44
0 0 45
0 0 44
0 0 43
0 0 43
0 0 45
0 0 45
0 0 44
0 0 43
0 0 42
0 0 43
0 0 43
0 0 42
0 0 42
0 0 42
0 0 42
0 0 42
0 0 44
0 0 44
0 0 44
0 0 44
0 0 44
0 0 42
0 0 42
0 0 43
0 0 44
0 0 45
0 0 45
0 0 45
0 0 45
0 0 45
0 0 45
0 0 45
0 0 45
0 0 45
0 0 45
0 0 42
0 0 42
0 0 43
0 0 45
0 0 45
0 0 45
0 0 45
0 0 45
0 0 45
0 0 45
0 0 45
0 0 45
0 0 45
0 0 45
0 0 45
0 0 45
0 0 42
0 0 42
0 0 42
0 0 42
0 0 43
0 0 45
0 0 45
0 0 45
0 0 45
0 0 45
0 0 45
0 0 47
0 0 49
0 0 48
0 0 49
0 0 54
0 0 63
0 0 67
0 0 66
0 0 59
0 0 51
0 0 49
0 0 48
0 0 47
0 0 50
0 0 54
0 0 56
0 0 55
0 0 49
0 0 45
0 0 45
0 0 45
0 0 45
0 0 45
0 0 45
0 0 45
0 0 47
0 6 40
13 21 44
20 33 45
29 48 32
42 73 18
49 82 3
52 83 29
23 34 56
0 0 49
0 5 55
0 8 54
22 61 57
49 81 18
43 69 28
36 111 75
61 98 41
61 94 30
57 89 17
49 76 12
39 65 0
39 64 6
50 70 11
40 55 9
46 63 11
50 70 16
52 70 19
52 72 21
52 77 14
53 81 15
48 78 0
47 79 2
48 81 0
49 81 0
51 78 4
57 73 13
76 81 27
88 91 37
90 93 35
89 95 35
92 89 36
91 92 34
74 81 33
62 76 28
38 58 8
34 56 0
29 54 13
31 55 32
22 49 45
11 51 86
0 9 64
0 0 41
0 0 41
0 0 45
0 0 41
0 0 52
0 0 57
0 0 64
0 0 55
0 0 46
0 0 44
0 0 45
0 0 43
0 0 44
0 0 45
0 0 42
0 0 41
0 0 42
0 0 42
0 0 42
0 0 42
0 0 42
0 0 42
0 0 42
0 0 42
0 0 42
0 0 42
0 0 42
0 0 42
0 0 42
0 0 42
0 0 42
0 0 42
0 0 42
0 0 42
0 0 42
0 0 42
0 0 43
0 0 42
0 0 42
0 0 43
0 0 44
0 5 46
194 208 224
220 235 255
220 235 255
220 235 255
220 235 255
220 235 255
220 235 255
220 235 255
220 235 255
220 235 255
220 235 255
220 235 255
220 235 255
220 235 255
220 235 255
220 235 255
220 235 255
220 235 255
220 235 255
220 235 255
220 235 255
220 235 255
220 235 255
220 235 255
220 235 255
220 235 255
220 235 255
220 235 255
220 235 255
220 235 255
220 235 255
220 235 255
220 235 255
220 235 255
220 235 255
220 235 255
220 235 255
220 235 255
220 235 255
220 235 255
220 235 255
220 235 255
220 235 255
220 235 255
220 235 255
220 235 255
220 235 255
220 235 255
220 235 255
220 235 255
220 235 255
220 235 255
220 235 255
220 235 255
220 235 255
220 235 255
220 235 255
220 235 255
220 235 255
220 235 255
220 235 255
220 235 255
220 235 255
220 235 255
220 235 255
220 235 255
220 235 255
220 235 255
220 235 255
220 235 255
220 235 255
220 235 255
220 235 255
220 235 255
220 235 255
220 235 255
220 235 255
220 235 255
220 235 255
220 235 255
220 235 255
220 235 255
220 235 255
220 235 255
220 235 255
220 235 255
220 235 255
220 235 255
220 235 255
220 235 255
220 235 255
220 235 255
220 235 255
220 235 255
220 235 255
220 235 255
220 235 255
220 235 255
220 235 255
220 235 255
220 235 255
220 235 255
220 235 255
220 235 255
220 235 255
220 235 255
220 235 255
220 235 255
220 235 255
220 235 255
220 235 255
220 235 255
220 235 255
220 235 255
220 235 255
220 235 255
220 235 255
220 235 255
220 235 255
220 235 255
220 235 255
220 235 255
220 235 255
220 235 255
220 235 255
220 235 255
220 235 255
220 235 255
220 235 255
220 235 255
220 235 255
220 235 255
220 235 255
220 235 255
220 235 255
220 235 255
220 235 255
220 235 255
220 235 255
220 235 255
220 235 255
220 235 255
220 235 255
220 235 255
220 235 255
220 235 255
220 235 255
220 235 255
220 235 255
220 235 255
220 235 255
220 235 255
220 235 255
220 235 255
220 235 255
220 235 255
220 235 255
220 235 255
220 235 255
220 235 255
220 235 255
220 235 255
220 235 255
220 235 255
220 235 255
220 235 255
220 235 255
220 235 255
220 235 255
220 235 255
220 235 255
220 235 255
220 235 255
220 235 255
220 235 255
220 235 255
220 235 255
220 235 255
220 235 255
220 235 255
220 235 255
220 235 255
220 235 255
220 235 255
220 235 255
220 235 255
220 235 255
149 159 176
0 0 45
0 0 45
0 0 45
0 0 45
0 0 43
0 0 44
0 0 45
0 0 45
0 0 45
0 0 45
0 0 43
0 0 48
0 0 54
0 0 49
0 0 44
0 0 45
0 0 45
0 0 44
0 0 46
0 0 48
0 0 45
0 0 45
0 0 45
0 0 45
0 0 45
0 0 45
0 0 45
0 0 42
0 0 42
0 0 44
0 0 45
0 0 45
0 0 45
0 0 45
0 0 44
0 0 44
0 0 45
0 0 45
0 0 45
0 0 45
0 0 44
0 0 43
0 0 42
0 0 42
0 0 42
0 0 42
0 0 42
0 0 42
0 0 44
0 0 44
0 0 44
0 0 44
0 0 44
0 0 43
0 0 44
0 0 45
0 0 45
0 0 45
0 0 45
0 0 45
0 0 45
0 0 45
0 0 45
0 0 45
0 0 45
0 0 45
0 0 45
0 0 43
0 0 42
0 0 43
0 0 45
0 0 45
0 0 45
0 0 45
0 0 45
0 0 45
0 0 45
0 0 45
0 0 45
0 0 45
0 0 45
0 0 45
0 0 45
0 0 43
0 0 42
0 0 42
0 0 42
0 0 44
0 0 45
0 0 45
0 0 45
0 0 45
0 0 45
0 0 45
0 0 46
0 0 48
0 0 48
0 0 49
0 0 53
0 0 58
0 0 59
0 0 57
0 0 51
0 0 49
0 0 48
0 0 46
0 0 45
0 0 47
0 0 49
0 0 52
0 0 52
0 0 48
0 0 45
0 0 45
0 0 45
0 0 45
0 0 45
0 0 45
0 0 43
0 0 48
0 0 46
0 0 48
0 0 51
0 0 47
18 32 44
32 55 35
61 92 29
38 55 50
5 7 51
0 0 64
0 0 57
17 35 44
47 71 18
47 67 16
51 103 44
63 90 35
49 74 14
51 79 13
44 69 9
27 52 0
37 63 5
47 68 11
46 61 15
53 71 19
50 71 13
50 73 15
44 71 7
42 72 5
54 77 15
47 70 0
49 77 0
46 78 0
43 75 0
48 80 9
50 79 15
52 69 8
74 82 28
79 82 30
87 88 36
76 85 30
77 84 27
75 80 35
51 58 15
54 73 15
37 60 2
23 51 0
26 53 0
31 54 0
26 58 32
13 68 94
6 34 69
0 0 47
0 0 50
0 0 52
0 0 50
0 0 60
0 0 69
0 2 57
0 0 45
0 0 43
0 0 43
0 0 44
0 0 43
0 0 45
0 0 42
0 0 41
0 0 41
0 0 42
0 0 42
0 0 42
0 0 42
0 0 42
0 0 42
0 0 42
0 0 42
0 0 42
0 0 42
0 0 42
0 0 42
0 0 42
0 0 42
0 0 42
0 0 42
0 0 42
0 0 42
0 0 42
0 0 42
0 0 42
0 0 40
0 0 42
0 0 44
0 0 43
151 163 177
220 235 255
220 235 255
220 235 255
220 235 255
220 235 255
220 235 255
220 235 255
220 235 255
220 235 255
220 235 255
220 235 255
220 235 255
220 235 255
220 235 255
220 235 255
220 235 255
220 235 255
220 235 255
220 235 255
220 235 255
220 235 255
220 235 255
220 235 255
220 235 255
220 235 255
220 235 255
220 235 255
220 235 255
220 235 255
220 235 255
220 235 255
220 235 255
220 235 255
220 235 255
220 235 255
220 235 255
220 235 255
220 235 255
220 235 255
220 235 255
220 235 255
220 235 255
220 235 255
220 235 255
220 235 255
220 235 255
220 235 255
220 235 255
220 235 255
220 235 255
220 235 255
220 235 255
220 235 255
220 235 255
220 235 255
220 235 255
220 235 255
220 235 255
220 235 255
220 235 255
220 235 255
220 235 255
220 235 255
220 235 255
220 235 255
220 235 255
220 235 255
220 235 255
220 235 255
220 235 255
220 235 255
220 235 255
220 235 255
220 235 255
220 235 255
220 235 255
220 235 255
220 235 255
220 235 255
220 235 255
220 235 255
220 235 255
220 235 255
220 235 255
220 235 255
220 235 255
220 235 255
220 235 255
220 235 255
220 235 255
220 235 255
220 235 255
220 235 255
220 235 255
220 235 255
220 235 255
220 235 255
220 235 255
220 235 255
220 235 255
220 235 255
220 235 255
220 235 255
220 235 255
220 235 255
220 235 255
220 235 255
220 235 255
220 235 255
220 235 255
220 235 255
220 235 255
220 235 255
220 235 255
220 235 255
220 235 255
220 235 255
220 235 255
220 235 255
220 235 255
220 235 255
220 235 255
220 235 255
220 235 255
220 235 255
220 235 255
220 235 255
220 235 255
220 235 255
220 235 255
220 235 255
220 235 255
220 235 255
220 235 255
220 235 255
220 235 255
220 235 255
220 235 255
220 235 255
220 235 255
220 235 255
220 235 255
220 235 255
220 235 255
220 235 255
220 235 255
220 235 255
220 235 255
220 235 255
220 235 255
220 235 255
220 235 255
220 235 255
220 235 255
220 235 255
220 235 255
220 235 255
220 235 255
220 235 255
220 235 255
220 235 255
220 235 255
220 235 255
220 235 255
220 235 255
220 235 255
220 235 255
220 235 255
220 235 255
220 235 255
220 235 255
220 235 255
220 235 255
220 235 255
220 235 255
220 235 255
220 235 255
220 235 255
220 235 255
220 235 255
220 235 255
220 235 255
220 235 255
220 235 255
220 235 255
220 235 255
139 148 165
0 0 45
0 0 45
0 0 45
0 0 45
0 0 44
0 0 44
0 0 45
0 0 45
0 0 45
0 0 45
0 0 42
0 0 49
0 0 53
0 0 49
0 0 45
0 0 44
0 0 45
0 0 45
0 0 47
0 0 47
0 0 45
0 0 45
0 0 45
0 0 45
0 0 45
0 0 44
0 0 42
0 0 42
0 0 42
0 0 43
0 0 44
0 0 44
0 0 44
0 0 44
0 0 45
0 0 45
0 0 45
0 0 45
0 0 45
0 0 45
0 0 45
0 0 45
0 0 44
0 0 42
0 0 42
0 0 42
0 0 42
0 0 42
0 0 42
0 0 42
0 0 42
0 0 42
0 0 42
0 0 45
0 0 45
0 0 45
0 0 45
0 0 45
0 0 45
0 0 45
0 0 45
0 0 45
0 0 45
0 0 45
0 0 45
0 0 45
0 0 45
0 0 45
0 0 42
0 0 43
0 0 45
0 0 45
0 0 45
0 0 45
0 0 45
0 0 45
0 0 45
0 0 45
0 0 45
0 0 45
0 0 45
0 0 45
0 0 45
0 0 45
0 0 44
0 0 44
0 0 44
0 0 44
0 0 42
0 0 43
0 0 45
0 0 45
0 0 45
0 0 45
0 0 45
0 0 45
0 0 48
0 0 49
0 0 50
0 0 51
0 0 51
0 0 47
0 0 45
0 0 48
0 0 47
0 0 45
0 0 43
0 0 45
0 0 45
0 0 48
0 0 48
0 0 46
0 0 45
0 0 45
0 0 45
0 0 45
0 0 45
0 0 45
0 0 42
0 0 46
0 0 47
0 0 46
0 0 45
0 0 47
0 4 48
8 14 53
33 52 42
18 31 50
2 4 46
0 0 51
0 0 53
4 7 54
36 57 36
62 89 43
65 97 42
63 90 38
40 64 11
37 58 1
35 56 0
24 48 0
31 58 2
39 62 6
46 58 12
68 81 34
55 74 20
45 71 8
40 73 0
40 72 0
44 71 0
43 66 0
44 67 0
48 67 0
55 70 10
56 70 12
51 71 14
45 64 8
51 70 17
59 73 22
55 66 13
49 70 14
56 68 15
80 85 39
49 53 18
64 78 26
51 66 16
31 57 0
25 55 0
28 49 0
28 49 0
32 69 48
15 73 104
0 0 47
0 0 44
0 0 43
0 0 51
0 0 56
0 9 72
0 10 70
0 8 57
0 0 48
0 0 46
0 0 45
0 0 45
0 0 45
0 0 43
0 0 42
0 0 42
0 0 42
0 0 42
0 0 42
0 0 42
0 0 42
0 0 42
0 0 42
0 0 42
0 0 42
0 0 42
0 0 42
0 0 42
0 0 42
0 0 42
0 0 42
0 0 42
0 0 42
0 0 42
0 0 42
0 0 41
0 0 42
0 0 41
0 0 44
0 0 45
0 0 42
117 129 138
220 235 255
220 235 255
220 235 255
220 235 255
220 235 255
220 235 255
220 235 255
220 235 255
220 235 255
220 235 255
220 235 255
220 235 255
220 235 255
220 235 255
220 235 255
220 235 255
220 235 255
220 235 255
220 235 255
220 235 255
220 235 255
220 235 255
220 235 255
220 235 255
220 235 255
220 235 255
220 235 255
220 235 255
220 235 255
220 235 255
220 235 255
220 235 255
220 235 255
220 235 255
220 235 255
220 235 255
220 235 255
220 235 255
220 235 255
220 235 255
220 235 255
220 235 255
220 235 255
220 235 255
220 235 255
220 235 255
220 235 255
220 235 255
220 235 255
220 235 255
220 235 255
220 235 255
220 235 255
220 235 255
220 235 255
220 235 255
220 235 255
220 235 255
220 235 255
220 235 255
220 235 255
220 235 255
220 235 255
220 235 255
220 235 255
220 235 255
220 235 255
220 235 255
220 235 255
220 235 255
220 235 255
220 235 255
220 235 255
220 235 255
220 235 255
220 235 255
220 235 255
220 235 255
220 235 255
220 235 255
220 235 255
220 235 255
220 235 255
220 235 255
220 235 255
220 235 255
220 235 255
220 235 255
220 235 255
220 235 255
220 235 255
220 235 255
220 235 255
220 235 255
220 235 255
220 235 255
220 235 255
220 235 255
220 235 255
220 235 255
220 235 255
220 235 255
220 235 255
220 235 255
220 235 255
220 235 255
220 235 255
220 235 255
220 235 255
220 235 255
220 235 255
220 235 255
220 235 255
220 235 255
220 235 255
220 235 255
220 235 255
220 235 255
220 235 255
220 235 255
220 235 255
220 235 255
220 235 255
220 235 255
220 235 255
220 235 255
220 235 255
220 235 255
220 235 255
220 235 255
220 235 255
220 235 255
220 235 255
220 235 255
220 235 255
220 235 255
220 235 255
220 235 255
220 235 255
220 235 255
220 235 255
220 235 255
220 235 255
220 235 255
220 235 255
220 235 255
220 235 255
220 235 255
220 235 255
220 235 255
220 235 255
220 235 255
220 235 255
220 235 255
220 235 255
220 235 255
220 235 255
220 235 255
220 235 255
220 235 255
220 235 255
220 235 255
220 235 255
220 235 255
220 235 255
220 235 255
220 235 255
220 235 255
220 235 255
220 235 255
220 235 255
220 235 255
220 235 255
220 235 255
220 235 255
220 235 255
220 235 255
220 235 255
220 235 255
220 235 255
220 235 255
220 235 255
220 235 255
220 235 255
220 235 255
220 235 255
91 97 112
0 0 45
0 0 45
0 0 45
0 0 45
0 0 44
0 0 44
0 0 45
0 0 45
0 0 45
0 0 45
0 0 44
0 0 48
0 0 51
0 0 48
0 0 45
0 0 45
0 0 45
0 0 45
0 0 45
0 0 45
0 0 45
0 0 45
0 0 45
0 0 45
0 0 45
0 0 44
0 0 42
0 0 42
0 0 42
0 0 42
0 0 42
0 0 42
0 0 42
0 0 42
0 0 43
0 0 43
0 0 43
0 0 43
0 0 45
0 0 45
0 0 45
0 0 45
0 0 45
0 0 44
0 0 44
0 0 44
0 0 44
0 0 44
0 0 42
0 0 42
0 0 42
0 0 42
0 0 42
0 0 45
0 0 45
0 0 45
0 0 45
0 0 45
0 0 45
0 0 45
0 0 45
0 0 45
0 0 45
0 0 45
0 0 45
0 0 45
0 0 45
0 0 45
0 0 45
0 0 45
0 0 45
0 0 45
0 0 45
0 0 45
0 0 45
0 0 45
0 0 45
0 0 45
0 0 45
0 0 45
0 0 45
0 0 45
0 0 45
0 0 45
0 0 45
0 0 45
0 0 42
0 0 42
0 0 42
0 0 42
0 0 43
0 0 45
0 0 45
0 0 44
0 0 45
0 0 45
0 0 47
0 0 48
0 0 48
0 0 46
0 0 44
0 0 44
0 0 45
0 0 45
0 0 44
0 0 45
0 0 42
0 0 44
0 0 45
0 0 47
0 0 46
0 0 45
0 0 45
0 0 45
0 0 45
0 0 45
0 0 45
0 0 45
0 0 45
0 0 47
0 0 51
0 0 51
0 0 47
0 0 47
0 0 52
0 0 56
0 0 54
0 0 61
0 0 57
0 0 52
0 0 53
0 0 53
15 21 54
49 76 51
63 85 46
55 86 33
35 56 0
42 60 6
37 56 2
33 57 0
34 60 0
38 59 0
56 66 21
71 77 36
76 89 41
55 77 18
41 69 1
43 67 0
46 65 0
47 65 3
53 68 7
65 74 20
75 78 29
79 79 31
67 73 24
43 57 5
44 67 13
34 59 3
31 56 0
37 65 0
46 66 0
67 78 29
45 57 14
45 65 16
42 60 11
31 53 0
27 53 0
29 52 0
28 54 0
31 54 13
30 85 78
5 57 102
0 11 57
0 0 44
0 0 48
0 0 59
0 10 70
0 16 79
0 10 68
0 3 57
0 0 49
0 0 44
0 0 44
0 0 45
0 0 44
0 0 42
0 0 42
0 0 42
0 0 42
0 0 42
0 0 42
0 0 42
0 0 42
0 0 42
0 0 42
0 0 42
0 0 42
0 0 42
0 0 42
0 0 42
0 0 42
0 0 42
0 0 42
0 0 42
0 0 42
0 0 42
0 0 42
0 0 42
0 0 42
0 0 44
0 0 44
0 0 42
105 114 126
220 235 255
220 235 255
220 235 255
220 235 255
220 235 255
220 235 255
220 235 255
220 235 255
220 235 255
220 235 255
220 235 255
220 235 255
220 235 255
220 235 255
220 235 255
220 235 255
220 235 255
220 235 255
220 235 255
220 235 255
220 235 255
220 235 255
220 235 255
220 235 255
220 235 255
220 235 255
220 235 255
220 235 255
220 235 255
220 235 255
220 235 255
220 235 255
220 235 255
220 235 255
220 235 255
220 235 255
220 235 255
220 235 255
220 235 255
220 235 255
220 235 255
220 235 255
220 235 255
220 235 255
220 235 255
220 235 255
220 235 255
220 235 255
220 235 255
220 235 255
220 235 255
220 235 255
220 235 255
220 235 255
220 235 255
220 235 255
220 235 255
220 235 255
220 235 255
220 235 255
220 235 255
220 235 255
220 235 255
220 235 255
220 235 255
220 235 255
220 235 255
220 235 255
220 235 255
220 235 255
220 235 255
220 235 255
220 235 255
220 235 255
220 235 255
220 235 255
220 235 255
220 235 255
220 235 255
220 235 255
220 235 255
220 235 255
220 235 255
220 235 255
220 235 255
220 235 255
220 235 255
220 235 255
220 235 255
220 235 255
220 235 255
220 235 255
220 235 255
220 235 255
220 235 255
220 235 255
220 235 255
220 235 255
220 235 255
220 235 255
220 235 255
220 235 255
220 235 255
220 235 255
220 235 255
220 235 255
220 235 255
220 235 255
220 235 255
220 235 255
220 235 255
220 235 255
220 235 255
220 235 255
220 235 255
220 235 255
220 235 255
220 235 255
220 235 255
220 235 255
220 235 255
220 235 255
220 235 255
220 235 255
220 235 255
220 235 255
220 235 255
220 235 255
220 235 255
220 235 255
220 235 255
220 235 255
220 235 255
220 235 255
220 235 255
220 235 255
220 235 255
220 235 255
220 235 255
220 235 255
220 235 255
220 235 255
220 235 255
220 235 255
220 235 255
220 235 255
220 235 255
220 235 255
220 235 255
220 235 255
220 235 255
220 235 255
220 235 255
220 235 255
220 235 255
220 235 255
220 235 255
220 235 255
220 235 255
220 235 255
220 235 255
220 235 255
220 235 255
220 235 255
220 235 255
220 235 255
220 235 255
220 235 255
220 235 255
220 235 255
220 235 255
220 235 255
220 235 255
220 235 255
220 235 255
220 235 255
220 235 255
220 235 255
220 235 255
220 235 255
220 235 255
220 235 255
220 235 255
220 235 255
220 235 255
220 235 255
62 66 84
0 0 45
0 0 45
0 0 45
0 0 45
0 0 45
0 0 45
0 0 45
0 0 45
0 0 45
0 0 44
0 0 45
0 0 46
0 0 47
0 0 46
0 0 47
0 0 45
0 0 45
0 0 45
0 0 45
0 0 45
0 0 45
0 0 45
0 0 45
0 0 45
0 0 45
0 0 45
0 0 44
0 0 42
0 0 42
0 0 42
0 0 42
0 0 42
0 0 42
0 0 42
0 0 42
0 0 42
0 0 42
0 0 42
0 0 45
0 0 45
0 0 45
0 0 45
0 0 45
0 0 45
0 0 45
0 0 45
0 0 45
0 0 44
0 0 43
0 0 43
0 0 43
0 0 43
0 0 43
0 0 44
0 0 45
0 0 45
0 0 45
0 0 45
0 0 45
0 0 45
0 0 45
0 0 45
0 0 45
0 0 45
0 0 45
0 0 45
0 0 45
0 0 45
0 0 45
0 0 45
0 0 45
0 0 45
0 0 45
0 0 45
0 0 45
0 0 45
0 0 45
0 0 45
0 0 45
0 0 45
0 0 45
0 0 44
0 0 45
0 0 45
0 0 45
0 0 44
0 0 42
0 0 41
0 0 40
0 0 42
0 0 42
0 0 44
0 0 45
0 0 44
0 0 43
0 0 45
0 0 45
0 0 47
0 0 46
0 0 45
0 0 43
0 0 43
0 0 45
0 0 44
0 0 42
0 0 44
0 0 43
0 0 45
0 0 45
0 0 45
0 0 47
0 0 46
0 0 45
0 0 45
0 0 45
0 0 45
0 0 45
0 0 45
0 0 46
0 0 44
0 0 48
0 0 51
0 0 43
0 0 44
0 0 52
0 0 52
0 0 53
0 0 53
0 0 49
0 0 46
0 0 47
0 0 47
0 0 50
43 61 55
71 92 48
62 93 44
45 60 15
43 60 9
35 55 3
38 63 0
38 66 0
36 57 0
45 56 9
70 75 34
79 88 43
57 78 20
41 66 2
48 62 7
49 57 5
56 65 15
65 75 22
71 81 30
75 83 32
69 78 28
54 69 22
37 56 2
38 59 0
33 52 0
39 57 0
43 68 7
43 66 0
40 59 0
32 52 0
20 46 0
21 52 0
25 51 0
30 50 0
31 51 0
28 50 1
35 52 4
37 58 20
35 89 74
13 77 116
0 13 62
0 14 64
0 29 93
0 34 99
0 33 90
0 27 83
0 7 67
0 0 55
0 0 47
0 0 45
0 0 45
0 0 45
0 0 44
0 0 43
0 0 42
0 0 42
0 0 42
0 0 42
0 0 42
0 0 42
0 0 42
0 0 42
0 0 42
0 0 42
0 0 42
0 0 42
0 0 42
0 0 42
0 0 42
0 0 42
0 0 42
0 0 42
0 0 42
0 0 42
0 0 42
0 0 42
0 0 44
0 0 44
0 0 42
51 57 69
220 235 255
220 235 255
220 235 255
220 235 255
220 235 255
220 235 255
220 235 255
220 235 255
220 235 255
220 235 255
220 235 255
220 235 255
220 235 255
220 235 255
220 235 255
220 235 255
220 235 255
220 235 255
220 235 255
220 235 255
220 235 255
220 235 255
220 235 255
220 235 255
220 235 255
220 235 255
220 235 255
220 235 255
220 235 255
220 235 255
220 235 255
220 235 255
220 235 255
220 235 255
220 235 255
220 235 255
220 235 255
220 235 255
220 235 255
220 235 255
220 235 255
220 235 255
220 235 255
220 235 255
220 235 255
220 235 255
220 235 255
220 235 255
220 235 255
220 235 255
220 235 255
220 235 255
220 235 255
220 235 255
220 235 255
220 235 255
220 235 255
220 235 255
220 235 255
220 235 255
220 235 255
220 235 255
220 235 255
220 235 255
220 235 255
220 235 255
220 235 255
220 235 255
220 235 255
220 235 255
220 235 255
220 235 255
220 235 255
220 235 255
220 235 255
220 235 255
220 235 255
220 235 255
220 235 255
220 235 255
220 235 255
220 235 255
220 235 255
220 235 255
220 235 255
220 235 255
220 235 255
220 235 255
220 235 255
220 235 255
220 235 255
220 235 255
220 235 255
220 235 255
220 235 255
220 235 255
220 235 255
220 235 255
220 235 255
220 235 255
220 235 255
220 235 255
220 235 255
220 235 255
220 235 255
220 235 255
220 235 255
220 235 255
220 235 255
220 235 255
220 235 255
220 235 255
220 235 255
220 235 255
220 235 255
220 235 255
220 235 255
220 235 255
220 235 255
220 235 255
220 235 255
220 235 255
220 235 255
220 235 255
220 235 255
220 235 255
220 235 255
220 235 255
220 235 255
220 235 255
220 235 255
220 235 255
220 235 255
220 235 255
220 235 255
220 235 255
220 235 255
220 235 255
220 235 255
220 235 255
220 235 255
220 235 255
220 235 255
220 235 255
220 235 255
220 235 255
220 235 255
220 235 255
220 235 255
220 235 255
220 235 255
220 235 255
220 235 255
220 235 255
220 235 255
220 235 255
220 235 255
220 235 255
220 235 255
220 235 255
220 235 255
220 235 255
220 235 255
220 235 255
220 235 255
220 235 255
220 235 255
220 235 255
220 235 255
220 235 255
220 235 255
220 235 255
220 235 255
220 235 255
220 235 255
220 235 255
220 235 255
220 235 255
220 235 255
220 235 255
220 235 255
220 235 255
220 235 255
220 235 255
220 235 255
211 225 245
0 0 44
0 0 45
0 0 45
0 0 45
0 0 45
0 0 45
0 0 45
0 0 45
0 0 45
0 0 45
0 0 45
0 0 45
0 0 45
0 0 45
0 0 47
0 0 47
0 0 45
0 0 45
0 0 45
0 0 45
0 0 45
0 0 45
0 0 45
0 0 45
0 0 45
0 0 45
0 0 45
0 0 45
0 0 42
0 0 42
0 0 45
0 0 45
0 0 45
0 0 45
0 0 43
0 0 42
0 0 42
0 0 42
0 0 41
0 0 45
0 0 45
0 0 45
0 0 45
0 0 45
0 0 45
0 0 45
0 0 45
0 0 45
0 0 45
0 0 45
0 0 45
0 0 45
0 0 45
0 0 45
0 0 42
0 0 43
0 0 44
0 0 45
0 0 45
0 0 45
0 0 45
0 0 45
0 0 45
0 0 45
0 0 45
0 0 45
0 0 45
0 0 45
0 0 45
0 0 45
0 0 45
0 0 45
0 0 45
0 0 45
0 0 45
0 0 45
0 0 45
0 0 45
0 0 45
0 0 45
0 0 45
0 0 45
0 0 43
0 0 43
0 0 45
0 0 45
0 0 42
0 0 42
0 0 40
0 0 39
0 0 42
0 0 42
0 0 44
0 0 45
0 0 44
0 0 42
0 0 45
0 0 45
0 0 45
0 0 45
0 0 43
0 0 43
0 0 42
0 0 45
0 0 45
0 0 43
0 0 43
0 0 43
0 0 45
0 0 43
0 0 43
0 0 45
0 0 45
0 0 45
0 0 45
0 0 45
0 0 45
0 0 45
0 0 45
0 0 48
0 0 44
0 0 50
0 0 52
0 0 43
0 0 50
0 0 54
0 0 53
0 0 53
0 0 50
0 0 56
0 0 41
0 0 50
0 0 48
0 0 55
38 56 50
57 86 38
62 101 64
60 73 32
40 56 0
35 55 4
43 68 10
33 60 0
45 64 12
53 67 21
73 84 38
61 73 23
56 80 18
48 73 11
50 59 11
55 68 19
57 72 19
61 75 23
65 76 25
68 76 25
64 73 24
34 55 10
28 49 0
37 58 0
31 51 0
40 58 0
48 70 13
40 62 0
36 56 0
34 54 0
24 45 0
30 45 0
35 51 0
33 50 0
28 51 0
27 49 5
34 53 7
30 59 13
44 65 10
32 90 67
19 56 84
12 54 85
18 73 101
13 76 103
15 70 108
3 47 109
0 27 85
0 3 62
0 0 53
0 0 47
0 0 45
0 0 45
0 0 45
0 0 45
0 0 42
0 0 42
0 0 42
0 0 42
0 0 42
0 0 42
0 0 42
0 0 42
0 0 42
0 0 42
0 0 42
0 0 42
0 0 42
0 0 42
0 0 42
0 0 42
0 0 42
0 0 42
0 0 42
0 0 42
0 0 44
0 0 42
0 0 44
0 0 45
0 0 43
5 8 42
216 231 250
220 235 255
220 235 255
220 235 255
220 235 255
220 235 255
220 235 255
220 235 255
220 235 255
220 235 255
220 235 255
220 235 255
220 235 255
220 235 255
220 235 255
220 235 255
220 235 255
220 235 255
220 235 255
220 235 255
220 235 255
220 235 255
220 235 255
220 235 255
220 235 255
220 235 255
220 235 255
220 235 255
220 235 255
220 235 255
220 235 255
220 235 255
220 235 255
220 235 255
220 235 255
220 235 255
220 235 255
220 235 255
220 235 255
220 235 255
220 235 255
220 235 255
220 235 255
220 235 255
220 235 255
220 235 255
220 235 255
220 235 255
220 235 255
220 235 255
220 235 255
220 235 255
220 235 255
220 235 255
220 235 255
220 235 255
220 235 255
220 235 255
220 235 255
220 235 255
220 235 255
220 235 255
220 235 255
220 235 255
220 235 255
220 235 255
220 235 255
220 235 255
220 235 255
220 235 255
220 235 255
220 235 255
220 235 255
220 235 255
220 235 255
220 235 255
220 235 255
220 235 255
220 235 255
220 235 255
220 235 255
220 235 255
220 235 255
220 235 255
220 235 255
220 235 255
220 235 255
220 235 255
220 235 255
220 235 255
220 235 255
220 235 255
220 235 255
221 235 255
221 235 255
221 235 255
221 235 255
221 235 255
221 235 255
221 235 255
221 235 255
221 235 255
221 235 255
221 235 255
221 235 255
221 235 255
221 235 255
221 235 255
221 235 255
221 235 255
221 235 255
221 235 255
221 235 255
221 235 255
221 235 255
221 235 255
221 235 255
221 235 255
221 235 255
221 235 255
221 235 255
221 235 255
221 235 255
221 235 255
221 235 255
221 235 255
221 235 255
221 235 255
221 235 255
221 235 255
221 235 255
221 235 255
221 235 255
221 235 255
221 235 255
221 235 255
221 235 255
221 235 255
221 235 255
221 235 255
221 235 255
221 235 255
221 235 255
221 235 255
221 235 255
221 235 255
221 235 255
221 235 255
221 235 255
221 235 255
221 235 255
221 235 255
221 235 255
221 235 255
221 235 255
221 235 255
221 235 255
221 235 255
221 235 255
221 235 255
221 235 255
221 235 255
221 235 255
221 235 255
221 235 255
221 235 255
221 235 255
221 235 255
221 235 255
221 235 255
221 235 255
221 235 255
221 235 255
221 235 255
221 235 255
221 235 255
221 235 255
221 235 255
221 235 255
221 235 255
221 235 255
221 235 255
221 235 255
221 235 255
221 235 255
192 205 224
0 0 45
0 0 46
0 0 47
0 0 45
0 0 45
0 0 45
0 0 45
0 0 45
0 0 45
0 0 45
0 0 45
0 0 45
0 0 44
0 0 44
0 0 46
0 0 46
0 0 44
0 0 45
0 0 45
0 0 45
0 0 45
0 0 45
0 0 45
0 0 45
0 0 45
0 0 45
0 0 45
0 0 45
0 0 43
0 0 42
0 0 44
0 0 45
0 0 45
0 0 44
0 0 43
0 0 43
0 0 42
0 0 42
0 0 42
0 0 44
0 0 45
0 0 45
0 0 45
0 0 45
0 0 45
0 0 45
0 0 45
0 0 45
0 0 45
0 0 45
0 0 45
0 0 43
0 0 43
0 0 43
0 0 44
0 0 44
0 0 44
0 0 45
0 0 45
0 0 45
0 0 45
0 0 45
0 0 45
0 0 45
0 0 45
0 0 45
0 0 45
0 0 45
0 0 45
0 0 45
0 0 45
0 0 45
0 0 45
0 0 45
0 0 45
0 0 45
0 0 45
0 0 45
0 0 45
0 0 45
0 0 45
0 0 45
0 0 43
0 0 42
0 0 42
0 0 42
0 0 42
0 0 42
0 0 42
0 0 42
0 0 42
0 0 43
0 0 45
0 0 45
0 0 45
0 0 45
0 0 45
0 0 45
0 0 45
0 0 45
0 0 44
0 0 43
0 0 44
0 0 45
0 0 45
0 0 45
0 0 44
0 0 45
0 0 45
0 0 45
0 0 45
0 0 45
0 0 45
0 0 45
0 0 45
0 0 45
0 0 45
0 0 45
0 0 43
0 0 44
0 0 44
0 0 45
0 0 48
0 0 47
0 0 51
0 0 52
0 0 53
0 0 52
0 0 50
0 0 51
0 0 50
0 0 49
0 0 54
1 4 51
45 65 64
67 98 40
61 98 46
51 79 22
44 62 3
40 56 5
43 64 3
41 65 15
69 82 42
72 83 34
64 80 29
55 76 19
52 75 16
52 72 14
53 68 11
61 76 25
65 76 26
64 74 23
71 78 27
70 74 25
56 62 18
27 47 0
28 50 0
29 52 0
28 51 0
33 55 0
39 60 5
38 60 0
35 56 0
33 52 0
31 47 0
36 45 0
46 57 0
30 49 0
28 52 0
30 52 0
32 53 0
31 53 7
39 57 0
31 57 0
27 57 12
25 59 25
29 57 20
24 50 0
26 62 44
21 65 78
11 58 96
0 29 86
0 6 61
0 0 57
0 0 48
0 0 44
0 0 45
0 0 47
0 0 42
0 0 42
0 0 42
0 0 42
0 0 42
0 0 42
0 0 42
0 0 42
0 0 42
0 0 42
0 0 42
0 0 42
0 0 42
0 0 42
0 0 42
0 0 42
0 0 42
0 0 42
0 0 42
0 0 42
0 0 44
0 0 42
0 0 43
0 0 45
0 0 44
0 0 41
201 214 233
221 235 255
221 235 255
221 235 255
221 235 255
221 235 255
221 235 255
221 235 255
221 235 255
221 235 255
221 235 255
221 235 255
221 235 255
221 235 255
221 235 255
221 235 255
221 235 255
221 235 255
221 235 255
221 235 255
221 235 255
221 235 255
221 235 255
221 235 255
221 235 255
221 235 255
221 235 255
221 235 255
221 235 255
221 235 255
221 235 255
221 235 255
221 235 255
221 235 255
221 235 255
221 235 255
221 235 255
221 235 255
221 235 255
221 235 255
221 235 255
221 235 255
221 235 255
221 235 255
221 235 255
221 235 255
221 235 255
221 235 255
221 235 255
221 235 255
221 235 255
221 235 255
221 235 255
221 235 255
221 235 255
221 235 255
221 235 255
221 235 255
221 235 255
221 235 255
221 235 255
221 235 255
221 235 255
221 235 255
221 235 255
221 235 255
221 235 255
221 235 255
221 235 255
221 235 255
221 235 255
221 235 255
221 235 255
221 235 255
221 235 255
221 235 255
221 235 255
221 235 255
221 235 255
221 235 255
221 235 255
221 235 255
221 235 255
221 235 255
221 235 255
221 235 255
221 235 255
221 235 255
221 235 255
221 235 255
221 235 255
221 235 255
221 235 255
221 235 255
221 235 255
221 235 255
221 235 255
221 235 255
221 235 255
221 235 255
221 235 255
221 235 255
221 235 255
221 235 255
221 235 255
221 235 255
221 235 255
221 235 255
221 235 255
221 235 255
221 235 255
221 235 255
221 235 255
221 235 255
221 235 255
221 235 255
221 235 255
221 235 255
221 235 255
221 235 255
221 235 255
221 235 255
221 235 255
221 235 255
221 235 255
221 235 255
221 235 255
221 235 255
221 235 255
221 235 255
221 235 255
221 235 255
221 235 255
221 235 255
221 235 255
221 235 255
221 235 255
221 235 255
221 235 255
221 235 255
221 235 255
221 235 255
221 235 255
221 235 255
221 235 255
221 235 255
221 235 255
221 235 255
221 235 255
221 235 255
221 235 255
221 235 255
221 235 255
221 235 255
221 235 255
221 235 255
221 235 255
221 235 255
221 235 255
221 235 255
221 235 255
221 235 255
221 235 255
221 235 255
221 235 255
221 235 255
221 235 255
221 235 255
221 235 255
221 235 255
221 235 255
221 235 255
221 235 255
221 235 255
221 235 255
221 235 255
221 235 255
221 235 255
221 235 255
221 235 255
221 235 255
221 235 255
221 235 255
221 235 255
221 235 255
182 194 212
0 0 45
0 0 46
0 0 47
0 0 45
0 0 45
0 0 45
0 0 45
0 0 45
0 0 45
0 0 45
0 0 45
0 0 45
0 0 45
0 0 45
0 0 45
0 0 45
0 0 45
0 0 45
0 0 45
0 0 45
0 0 45
0 0 45
0 0 45
0 0 45
0 0 45
0 0 45
0 0 45
0 0 45
0 0 45
0 0 44
0 0 45
0 0 45
0 0 45
0 0 45
0 0 45
0 0 45
0 0 42
0 0 42
0 0 42
0 0 45
0 0 45
0 0 45
0 0 45
0 0 45
0 0 45
0 0 45
0 0 45
0 0 45
0 0 45
0 0 45
0 0 45
0 0 42
0 0 42
0 0 43
0 0 45
0 0 45
0 0 45
0 0 45
0 0 45
0 0 45
0 0 45
0 0 45
0 0 45
0 0 45
0 0 45
0 0 45
0 0 45
0 0 45
0 0 45
0 0 45
0 0 45
0 0 45
0 0 45
0 0 45
0 0 45
0 0 45
0 0 45
0 0 45
0 0 45
0 0 45
0 0 45
0 0 45
0 0 44
0 0 42
0 0 42
0 0 42
0 0 42
0 0 42
0 0 42
0 0 42
0 0 42
0 0 44
0 0 45
0 0 45
0 0 45
0 0 45
0 0 45
0 0 45
0 0 45
0 0 45
0 0 45
0 0 45
0 0 45
0 0 45
0 0 45
0 0 45
0 0 44
0 0 45
0 0 45
0 0 45
0 0 45
0 0 45
0 0 45
0 0 45
0 0 45
0 0 45
0 0 45
0 0 45
0 0 45
0 0 45
0 0 43
0 0 43
0 0 46
0 0 45
0 0 48
0 0 50
0 0 52
0 0 50
0 0 50
0 0 50
0 0 50
0 0 51
0 0 58
0 4 54
42 67 75
68 99 47
59 88 36
47 73 16
50 68 15
49 67 17
48 67 6
61 79 30
75 89 44
60 76 22
54 76 19
54 74 18
55 74 14
60 76 17
67 78 23
67 78 27
69 79 31
72 82 30
72 84 32
59 72 22
43 57 6
31 52 0
29 50 0
22 45 0
24 45 0
35 56 0
40 60 0
33 53 0
32 51 0
30 49 0
28 45 0
37 48 0
54 61 13
59 61 13
48 54 12
41 57 11
34 54 0
37 57 0
32 53 0
25 49 0
22 46 0
25 47 0
25 44 0
22 40 0
27 47 0
28 53 12
26 62 51
17 90 108
0 32 92
0 2 61
0 0 54
0 0 44
0 0 42
0 0 45
0 0 43
0 0 42
0 0 42
0 0 42
0 0 42
0 0 42
0 0 42
0 0 42
0 0 42
0 0 42
0 0 42
0 0 42
0 0 42
0 0 40
0 0 42
0 0 42
0 0 42
0 0 42
0 0 42
0 0 42
0 0 44
0 0 44
0 0 44
0 0 45
0 0 44
0 0 42
187 200 218
221 235 255
221 235 255
221 235 255
221 235 255
221 235 255
221 235 255
221 235 255
221 235 255
221 235 255
221 235 255
221 235 255
221 235 255
221 235 255
221 235 255
221 235 255
221 235 255
221 235 255
221 235 255
221 235 255
221 235 255
221 235 255
221 235 255
221 235 255
221 235 255
221 235 255
221 235 255
221 235 255
221 235 255
221 235 255
221 235 255
221 235 255
221 235 255
221 235 255
221 235 255
221 235 255
221 235 255
221 235 255
221 235 255
221 235 255
221 235 255
221 235 255
221 235 255
221 235 255
221 235 255
221 235 255
221 235 255
221 235 255
221 235 255
221 235 255
221 235 255
221 235 255
221 235 255
221 235 255
221 235 255
221 235 255
221 235 255
221 235 255
221 235 255
221 235 255
221 235 255
221 235 255
221 235 255
221 235 255
221 235 255
221 235 255
221 235 255
221 235 255
221 235 255
221 235 255
221 235 255
221 235 255
221 235 255
221 235 255
221 235 255
221 235 255
221 235 255
221 235 255
221 235 255
221 235 255
221 235 255
221 235 255
221 235 255
221 235 255
221 235 255
221 235 255
221 235 255
221 235 255
221 235 255
221 235 255
221 235 255
221 235 255
221 235 255
221 235 255
221 235 255
221 235 255
221 235 255
221 235 255
221 235 255
221 235 255
221 235 255
221 235 255
221 235 255
221 235 255
221 235 255
221 235 255
221 235 255
221 235 255
221 235 255
221 235 255
221 235 255
221 235 255
221 235 255
221 235 255
221 235 255
221 235 255
221 235 255
221 235 255
221 235 255
221 235 255
221 235 255
221 235 255
221 235 255
221 235 255
221 235 255
221 235 255
221 235 255
221 235 255
221 235 255
221 235 255
221 235 255
221 235 255
221 235 255
221 235 255
221 235 255
221 235 255
221 235 255
221 235 255
221 235 255
221 235 255
221 235 255
221 235 255
221 235 255
221 235 255
221 235 255
221 235 255
221 235 255
221 235 255
221 235 255
221 235 255
221 235 255
221 235 255
221 235 255
221 235 255
221 235 255
221 235 255
221 235 255
221 235 255
221 235 255
221 235 255
221 235 255
221 235 255
221 235 255
221 235 255
221 235 255
221 235 255
221 235 255
221 235 255
221 235 255
221 235 255
221 235 255
221 235 255
221 235 255
221 235 255
221 235 255
221 235 255
221 235 255
221 235 255
221 235 255
221 235 255
221 235 255
221 235 255
221 235 255
221 235 255
221 235 255
172 184 201
0 0 45
0 0 45
0 0 46
0 0 45
0 0 45
0 0 45
0 0 45
0 0 45
0 0 45
0 0 45
0 0 45
0 0 45
0 0 45
0 0 45
0 0 45
0 0 45
0 0 45
0 0 45
0 0 45
0 0 45
0 0 45
0 0 45
0 0 45
0 0 45
0 0 45
0 0 45
0 0 45
0 0 45
0 0 45
0 0 45
0 0 45
0 0 45
0 0 45
0 0 45
0 0 45
0 0 44
0 0 42
0 0 42
0 0 43
0 0 45
0 0 45
0 0 45
0 0 45
0 0 45
0 0 45
0 0 45
0 0 45
0 0 45
0 0 45
0 0 45
0 0 45
0 0 42
0 0 42
0 0 43
0 0 45
0 0 45
0 0 45
0 0 45
0 0 45
0 0 45
0 0 45
0 0 45
0 0 45
0 0 45
0 0 45
0 0 45
0 0 45
0 0 45
0 0 45
0 0 45
0 0 45
0 0 45
0 0 45
0 0 45
0 0 45
0 0 45
0 0 45
0 0 45
0 0 45
0 0 45
0 0 45
0 0 45
0 0 45
0 0 44
0 0 42
0 0 42
0 0 42
0 0 44
0 0 43
0 0 42
0 0 44
0 0 45
0 0 45
0 0 45
0 0 45
0 0 45
0 0 45
0 0 45
0 0 45
0 0 45
0 0 45
0 0 45
0 0 45
0 0 45
0 0 45
0 0 45
0 0 45
0 0 45
0 0 45
0 0 45
0 0 45
0 0 45
0 0 45
0 0 43
0 0 43
0 0 45
0 0 45
0 0 45
0 0 43
0 0 44
0 0 44
0 0 44
0 0 45
0 0 45
0 0 46
0 0 48
0 0 48
0 0 49
0 0 49
0 0 49
0 0 48
0 0 51
0 0 52
0 2 54
36 71 75
60 94 37
64 84 38
49 72 14
60 76 23
54 73 20
57 70 17
70 81 33
72 87 37
54 77 19
53 75 14
57 74 15
58 71 11
66 79 21
70 83 26
67 80 28
63 75 27
61 74 21
57 72 22
43 62 8
32 52 0
31 50 0
28 48 0
26 45 0
32 51 0
33 52 0
36 54 0
33 51 0
31 51 0
26 47 0
25 44 0
29 49 0
43 54 8
72 72 24
81 82 32
50 64 16
37 62 0
35 57 0
29 52 0
26 49 0
23 45 0
25 48 0
26 46 0
18 37 0
26 49 0
28 52 0
27 50 6
32 63 32
17 104 126
1 43 97
0 0 58
0 0 46
0 0 43
0 0 42
0 0 45
0 0 44
0 0 42
0 0 42
0 0 42
0 0 42
0 0 42
0 0 42
0 0 42
0 0 42
0 0 42
0 0 42
0 0 42
0 0 41
0 0 42
0 0 42
0 0 42
0 0 42
0 0 42
0 0 42
0 0 44
0 0 45
0 0 45
0 0 45
0 0 45
0 0 43
163 174 191
221 235 255
221 235 255
221 235 255
221 235 255
221 235 255
221 235 255
221 235 255
221 235 255
221 235 255
221 235 255
221 235 255
221 235 255
221 235 255
221 235 255
221 235 255
221 235 255
221 235 255
221 235 255
221 235 255
221 235 255
221 235 255
221 235 255
221 235 255
221 235 255
221 235 255
221 235 255
221 235 255
221 235 255
221 235 255
221 235 255
221 235 255
221 235 255
221 235 255
221 235 255
221 235 255
221 235 255
221 235 255
221 235 255
221 235 255
221 235 255
221 235 255
221 235 255
221 235 255
221 235 255
221 235 255
221 235 255
221 235 255
221 235 255
221 235 255
221 235 255
221 235 255
221 235 255
221 235 255
221 235 255
221 235 255
221 235 255
221 235 255
221 235 255
221 235 255
221 235 255
221 235 255
221 235 255
221 235 255
221 235 255
221 235 255
221 235 255
221 235 255
221 235 255
221 235 255
221 235 255
221 235 255
221 235 255
221 235 255
221 235 255
221 235 255
221 235 255
221 235 255
221 235 255
221 235 255
221 235 255
221 235 255
221 235 255
221 235 255
221 235 255
221 235 255
221 235 255
221 235 255
221 235 255
221 235 255
221 235 255
221 235 255
221 235 255
221 235 255
221 235 255
221 235 255
221 235 255
221 235 255
221 235 255
221 235 255
221 235 255
221 235 255
221 235 255
221 235 255
221 235 255
221 235 255
221 235 255
221 235 255
221 235 255
221 235 255
221 235 255
221 235 255
221 235 255
221 235 255
221 235 255
221 235 255
221 235 255
221 235 255
221 235 255
221 235 255
221 235 255
221 235 255
221 235 255
221 235 255
221 235 255
221 235 255
221 235 255
221 235 255
221 235 255
221 235 255
221 235 255
221 235 255
221 235 255
221 235 255
221 235 255
221 235 255
221 235 255
221 235 255
221 235 255
221 235 255
221 235 255
221 235 255
221 235 255
221 235 255
221 235 255
221 235 255
221 235 255
221 235 255
221 235 255
221 235 255
221 235 255
221 235 255
221 235 255
221 235 255
221 235 255
221 235 255
221 235 255
221 235 255
221 235 255
221 235 255
221 235 255
221 235 255
221 235 255
221 235 255
221 235 255
221 235 255
221 235 255
221 235 255
221 235 255
221 235 255
221 235 255
221 235 255
221 235 255
221 235 255
221 235 255
221 235 255
221 235 255
221 235 255
221 235 255
221 235 255
221 235 255
221 235 255
221 235 255
221 235 255
221 235 255
161 171 188
0 0 45
0 0 45
0 0 45
0 0 45
0 0 45
0 0 44
0 0 45
0 0 45
0 0 45
0 0 45
0 0 45
0 0 45
0 0 45
0 0 45
0 0 45
0 0 45
0 0 45
0 0 45
0 0 45
0 0 45
0 0 45
0 0 45
0 0 45
0 0 45
0 0 45
0 0 45
0 0 45
0 0 45
0 0 45
0 0 45
0 0 45
0 0 45
0 0 45
0 0 45
0 0 45
0 0 44
0 0 42
0 0 42
0 0 42
0 0 43
0 0 43
0 0 43
0 0 43
0 0 44
0 0 45
0 0 45
0 0 45
0 0 45
0 0 45
0 0 45
0 0 45
0 0 42
0 0 42
0 0 43
0 0 45
0 0 45
0 0 45
0 0 45
0 0 45
0 0 45
0 0 45
0 0 45
0 0 45
0 0 45
0 0 45
0 0 45
0 0 45
0 0 45
0 0 45
0 0 45
0 0 45
0 0 45
0 0 45
0 0 45
0 0 45
0 0 45
0 0 45
0 0 45
0 0 45
0 0 45
0 0 45
0 0 45
0 0 45
0 0 44
0 0 42
0 0 42
0 0 43
0 0 45
0 0 45
0 0 44
0 0 45
0 0 45
0 0 45
0 0 45
0 0 45
0 0 45
0 0 45
0 0 45
0 0 45
0 0 45
0 0 45
0 0 45
0 0 45
0 0 45
0 0 46
0 0 45
0 0 45
0 0 45
0 0 45
0 0 45
0 0 45
0 0 45
0 0 45
0 0 43
0 0 42
0 0 44
0 0 45
0 0 45
0 0 45
0 0 46
0 0 47
0 0 47
0 0 47
0 0 46
0 0 45
0 0 46
0 0 47
0 0 45
0 0 46
0 0 48
0 0 48
0 0 49
0 0 47
0 0 62
26 61 83
55 86 38
67 84 34
55 74 20
63 78 25
55 73 17
65 77 28
73 81 32
62 79 24
58 81 21
61 78 17
63 76 16
60 73 16
61 76 16
57 78 17
50 70 13
45 62 10
45 63 6
41 59 6
34 53 0
32 51 0
33 52 0
30 49 0
25 42 0
29 48 0
32 50 0
34 51 0
32 51 0
33 52 0
29 50 0
28 50 0
29 51 0
44 61 12
64 72 17
72 78 23
57 73 21
41 64 0
40 64 0
31 54 0
26 49 0
23 46 0
27 49 0
30 50 0
27 49 0
30 53 0
29 51 0
29 46 6
30 50 0
28 86 65
9 82 97
0 10 67
0 0 52
0 0 48
0 0 43
0 0 45
0 0 45
0 0 42
0 0 42
0 0 42
0 0 42
0 0 42
0 0 42
0 0 42
0 0 42
0 0 42
0 0 42
0 0 42
0 0 42
0 0 42
0 0 42
0 0 42
0 0 42
0 0 42
0 0 42
0 0 44
0 0 45
0 0 45
0 0 45
0 0 45
0 0 44
161 171 188
221 235 255
221 235 255
221 235 255
221 235 255
221 235 255
221 235 255
221 235 255
221 235 255
221 235 255
221 235 255
221 235 255
221 235 255
221 235 255
221 235 255
221 235 255
221 235 255
221 235 255
221 235 255
221 235 255
221 235 255
221 235 255
221 235 255
221 235 255
221 235 255
221 235 255
221 235 255
221 235 255
221 235 255
221 235 255
221 235 255
221 235 255
221 235 255
221 235 255
221 235 255
221 235 255
221 235 255
221 235 255
221 235 255
221 235 255
221 235 255
221 235 255
221 235 255
221 235 255
221 235 255
221 235 255
221 235 255
221 235 255
221 235 255
221 235 255
221 235 255
221 235 255
221 235 255
221 235 255
221 235 255
221 235 255
221 235 255
221 235 255
221 235 255
221 235 255
221 235 255
221 235 255
221 235 255
221 235 255
221 235 255
221 235 255
221 235 255
221 235 255
221 235 255
221 235 255
221 235 255
221 235 255
221 235 255
221 235 255
221 235 255
221 235 255
221 235 255
221 235 255
221 235 255
221 235 255
221 235 255
221 235 255
221 235 255
221 235 255
221 235 255
221 235 255
221 235 255
221 235 255
221 235 255
221 235 255
221 235 255
221 235 255
221 235 255
221 235 255
221 235 255
221 235 255
221 235 255
221 235 255
221 235 255
221 235 255
221 235 255
221 235 255
221 235 255
221 235 255
221 235 255
221 235 255
221 235 255
221 235 255
221 235 255
221 235 255
221 235 255
221 235 255
221 235 255
221 235 255
221 235 255
221 235 255
221 235 255
221 235 255
221 235 255
221 235 255
221 235 255
221 235 255
221 235 255
221 235 255
221 235 255
221 235 255
221 235 255
221 235 255
221 235 255
221 235 255
221 235 255
221 235 255
221 235 255
221 235 255
221 235 255
221 235 255
221 235 255
221 235 255
221 235 255
221 235 255
221 235 255
221 235 255
221 235 255
221 235 255
221 235 255
221 235 255
221 235 255
221 235 255
221 235 255
221 235 255
221 235 255
221 235 255
221 235 255
221 235 255
221 235 255
221 235 255
221 235 255
221 235 255
221 235 255
221 235 255
221 235 255
221 235 255
221 235 255
221 235 255
221 235 255
221 235 255
221 235 255
221 235 255
221 235 255
221 235 255
221 235 255
221 235 255
221 235 255
221 235 255
221 235 255
221 235 255
221 235 255
221 235 255
221 235 255
221 235 255
221 235 255
221 235 255
221 235 255
221 235 255
221 235 255
159 170 187
0 0 45
0 0 45
0 0 45
0 0 45
0 0 43
0 0 43
0 0 45
0 0 45
0 0 45
0 0 45
0 0 45
0 0 45
0 0 45
0 0 45
0 0 45
0 0 45
0 0 45
0 0 45
0 0 45
0 0 45
0 0 45
0 0 45
0 0 45
0 0 45
0 0 45
0 0 45
0 0 45
0 0 45
0 0 45
0 0 45
0 0 45
0 0 45
0 0 45
0 0 45
0 0 45
0 0 44
0 0 42
0 0 42
0 0 42
0 0 42
0 0 42
0 0 42
0 0 42
0 0 44
0 0 44
0 0 45
0 0 44
0 0 44
0 0 43
0 0 42
0 0 42
0 0 44
0 0 45
0 0 45
0 0 45
0 0 45
0 0 45
0 0 45
0 0 45
0 0 45
0 0 45
0 0 45
0 0 45
0 0 45
0 0 45
0 0 45
0 0 45
0 0 45
0 0 45
0 0 45
0 0 45
0 0 45
0 0 45
0 0 45
0 0 45
0 0 45
0 0 45
0 0 45
0 0 45
0 0 45
0 0 45
0 0 45
0 0 45
0 0 45
0 0 43
0 0 42
0 0 45
0 0 45
0 0 45
0 0 45
0 0 45
0 0 45
0 0 45
0 0 45
0 0 43
0 0 44
0 0 45
0 0 46
0 0 48
0 0 48
0 0 48
0 0 49
0 0 49
0 0 48
0 0 47
0 0 45
0 0 45
0 0 45
0 0 45
0 0 45
0 0 45
0 0 45
0 0 45
0 0 45
0 0 46
0 0 46
0 0 47
0 0 48
0 0 49
0 0 50
0 0 51
0 0 51
0 0 50
0 0 49
0 0 48
0 0 46
0 0 46
0 0 45
0 0 45
0 0 46
0 0 48
0 0 49
0 0 46
0 0 59
16 37 82
53 78 46
57 77 15
61 73 34
59 71 21
60 73 19
67 80 34
68 83 32
59 79 17
56 76 18
59 74 18
59 73 15
59 73 14
45 66 5
36 59 0
38 61 0
37 58 0
38 60 0
34 54 0
34 52 0
39 54 0
32 52 0
29 47 0
31 50 0
31 50 0
27 45 0
34 54 0
30 50 0
30 50 0
31 52 0
33 56 0
37 58 0
57 70 18
75 80 27
83 86 35
69 78 29
44 59 4
43 66 1
36 59 0
29 51 0
21 45 0
28 47 0
28 48 0
31 53 0
28 51 0
28 49 0
28 49 0
36 52 0
33 50 0
18 71 71
0 26 80
0 11 68
0 0 57
0 0 43
0 0 42
0 0 44
0 0 42
0 0 42
0 0 42
0 0 42
0 0 42
0 0 42
0 0 42
0 0 42
0 0 42
0 0 42
0 0 42
0 0 42
0 0 42
0 0 43
0 0 45
0 0 42
0 0 42
0 0 42
0 0 43
0 0 45
0 0 45
0 0 45
0 0 45
0 0 44
156 166 183
221 235 255
221 235 255
221 235 255
221 235 255
221 235 255
221 235 255
221 235 255
221 235 255
221 235 255
221 235 255
221 235 255
221 235 255
221 235 255
221 235 255
221 235 255
221 235 255
221 235 255
221 235 255
221 235 255
221 235 255
221 235 255
221 235 255
221 235 255
221 235 255
221 235 255
221 235 255
221 235 255
221 235 255
221 235 255
221 235 255
221 235 255
221 235 255
221 235 255
221 235 255
221 235 255
221 235 255
221 235 255
221 235 255
221 235 255
221 235 255
221 235 255
221 235 255
221 235 255
221 235 255
221 235 255
221 235 255
221 235 255
221 235 255
221 235 255
221 235 255
221 235 255
221 235 255
221 235 255
221 235 255
221 235 255
221 235 255
221 235 255
221 235 255
221 235 255
221 235 255
221 235 255
221 235 255
221 235 255
221 235 255
221 235 255
221 235 255
221 235 255
221 235 255
221 235 255
221 235 255
221 235 255
221 235 255
221 235 255
221 235 255
221 235 255
221 235 255
221 235 255
221 235 255
221 235 255
221 235 255
221 235 255
221 235 255
221 235 255
221 235 255
221 235 255
221 235 255
221 235 255
221 235 255
221 235 255
221 235 255
221 235 255
221 235 255
221 235 255
221 235 255
221 235 255
221 235 255
221 235 255
221 235 255
221 235 255
221 235 255
221 235 255
221 235 255
221 235 255
221 235 255
221 235 255
221 235 255
221 235 255
221 235 255
221 235 255
221 235 255
221 235 255
221 235 255
221 235 255
221 235 255
221 235 255
221 235 255
221 235 255
221 235 255
221 235 255
221 235 255
221 235 255
221 235 255
221 235 255
221 235 255
221 235 255
221 235 255
221 235 255
221 235 255
221 235 255
221 235 255
221 235 255
221 235 255
221 235 255
221 235 255
221 235 255
221 235 255
221 235 255
221 235 255
221 235 255
221 235 255
221 235 255
221 235 255
221 235 255
221 235 255
221 235 255
221 235 255
221 235 255
221 235 255
221 235 255
221 235 255
221 235 255
221 235 255
221 235 255
221 235 255
221 235 255
221 235 255
221 235 255
221 235 255
221 235 255
221 235 255
221 235 255
221 235 255
221 235 255
221 235 255
221 235 255
221 235 255
221 235 255
221 235 255
221 235 255
221 235 255
221 235 255
221 235 255
221 235 255
221 235 255
221 235 255
221 235 255
221 235 255
221 235 255
221 235 255
221 235 255
221 235 255
221 235 255
221 235 255
221 235 255
139 149 165
0 0 45
0 0 45
0 0 45
0 0 45
0 0 44
0 0 44
0 0 45
0 0 45
0 0 45
0 0 45
0 0 45
0 0 45
0 0 45
0 0 45
0 0 45
0 0 45
0 0 45
0 0 45
0 0 45
0 0 45
0 0 45
0 0 45
0 0 45
0 0 45
0 0 45
0 0 44
0 0 42
0 0 42
0 0 42
0 0 43
0 0 45
0 0 44
0 0 45
0 0 45
0 0 45
0 0 44
0 0 42
0 0 42
0 0 42
0 0 42
0 0 42
0 0 42
0 0 42
0 0 42
0 0 42
0 0 42
0 0 42
0 0 42
0 0 42
0 0 42
0 0 42
0 0 45
0 0 45
0 0 45
0 0 45
0 0 45
0 0 45
0 0 45
0 0 45
0 0 45
0 0 45
0 0 45
0 0 45
0 0 45
0 0 45
0 0 45
0 0 45
0 0 45
0 0 45
0 0 45
0 0 45
0 0 45
0 0 45
0 0 45
0 0 45
0 0 45
0 0 45
0 0 45
0 0 45
0 0 45
0 0 45
0 0 45
0 0 45
0 0 45
0 0 44
0 0 43
0 0 45
0 0 45
0 0 45
0 0 45
0 0 45
0 0 45
0 0 45
0 0 45
0 0 43
0 0 43
0 0 45
0 0 47
0 0 48
0 0 50
0 0 50
0 0 51
0 0 51
0 0 48
0 0 47
0 0 45
0 0 45
0 0 45
0 0 45
0 0 45
0 0 45
0 0 45
0 0 45
0 0 47
0 0 48
0 0 49
0 0 51
0 0 52
0 0 53
0 0 54
0 0 55
0 0 54
0 0 53
0 0 51
0 0 51
0 0 49
0 0 48
0 0 46
0 0 46
0 0 47
0 0 48
0 0 47
0 0 50
0 16 78
36 66 49
57 82 35
50 72 19
60 69 30
60 72 25
70 80 30
60 73 29
47 68 16
52 75 12
55 72 17
55 73 17
54 74 15
44 65 7
34 55 0
35 55 0
41 59 0
38 57 0
38 57 0
32 53 0
34 54 0
38 57 0
31 49 0
29 49 0
29 51 0
30 49 0
22 40 0
30 50 0
33 52 0
34 54 0
31 52 0
33 57 0
37 60 0
55 73 14
85 89 38
85 87 43
58 67 21
42 61 10
41 61 7
38 58 0
33 53 0
25 46 0
28 48 0
29 48 0
30 50 0
33 53 0
30 50 0
26 50 0
33 48 5
39 53 0
36 81 78
0 86 129
4 66 115
0 21 69
0 0 45
0 0 42
0 0 42
0 0 42
0 0 42
0 0 42
0 0 42
0 0 42
0 0 42
0 0 42
0 0 42
0 0 42
0 0 42
0 0 42
0 0 42
0 0 42
0 0 44
0 0 45
0 0 43
0 0 42
0 0 42
0 0 43
0 0 45
0 0 45
0 0 45
0 0 45
0 0 43
134 143 159
221 235 255
221 235 255
221 235 255
221 235 255
221 235 255
221 235 255
221 235 255
221 235 255
221 235 255
221 235 255
221 235 255
221 235 255
221 235 255
221 235 255
221 235 255
221 235 255
221 235 255
221 235 255
221 235 255
221 235 255
221 235 255
221 235 255
221 235 255
221 235 255
221 235 255
221 235 255
221 235 255
221 235 255
221 235 255
221 235 255
221 235 255
221 235 255
221 235 255
221 235 255
221 235 255
221 235 255
221 235 255
221 235 255
221 235 255
221 235 255
221 235 255
221 235 255
221 235 255
221 235 255
221 235 255
221 235 255
221 235 255
221 235 255
221 235 255
221 235 255
221 235 255
221 235 255
221 235 255
221 235 255
221 235 255
221 235 255
221 235 255
221 235 255
221 235 255
221 235 255
221 235 255
221 235 255
221 235 255
221 235 255
221 235 255
221 235 255
221 235 255
221 235 255
221 235 255
221 235 255
221 235 255
221 235 255
221 235 255
221 235 255
221 235 255
221 235 255
221 235 255
221 235 255
221 235 255
221 235 255
221 235 255
221 235 255
221 235 255
221 235 255
221 235 255
221 235 255
221 235 255
221 235 255
221 235 255
221 235 255
221 235 255
221 235 255
221 235 255
221 235 255
221 235 255
221 235 255
221 235 255
221 235 255
221 235 255
221 235 255
221 235 255
221 235 255
221 235 255
221 235 255
221 235 255
221 235 255
221 235 255
221 235 255
221 235 255
221 235 255
221 235 255
221 235 255
221 235 255
221 235 255
221 235 255
221 235 255
221 235 255
221 235 255
221 235 255
221 235 255
221 235 255
221 235 255
221 235 255
221 235 255
221 235 255
221 235 255
221 235 255
221 235 255
221 235 255
221 235 255
221 235 255
221 235 255
221 235 255
221 235 255
221 235 255
221 235 255
221 235 255
221 235 255
221 235 255
221 235 255
221 235 255
221 235 255
221 235 255
221 235 255
221 235 255
221 235 255
221 235 255
221 235 255
221 235 255
221 235 255
221 235 255
221 235 255
221 235 255
221 235 255
221 235 255
221 235 255
221 235 255
221 235 255
221 235 255
221 235 255
221 235 255
221 235 255
221 235 255
221 235 255
221 235 255
221 235 255
221 235 255
221 235 255
221 235 255
221 235 255
221 235 255
221 235 255
221 235 255
221 235 255
221 235 255
221 235 255
221 235 255
221 235 255
221 235 255
221 235 255
221 235 255
221 235 255
221 235 255
221 235 255
138 147 163
0 0 45
0 0 45
0 0 45
0 0 45
0 0 45
0 0 45
0 0 45
0 0 45
0 0 45
0 0 45
0 0 45
0 0 45
0 0 45
0 0 45
0 0 45
0 0 45
0 0 45
0 0 44
0 0 44
0 0 45
0 0 45
0 0 45
0 0 45
0 0 44
0 0 43
0 0 43
0 0 42
0 0 42
0 0 42
0 0 43
0 0 45
0 0 44
0 0 44
0 0 43
0 0 43
0 0 43
0 0 42
0 0 42
0 0 42
0 0 42
0 0 42
0 0 42
0 0 42
0 0 43
0 0 44
0 0 44
0 0 43
0 0 44
0 0 42
0 0 42
0 0 42
0 0 43
0 0 44
0 0 45
0 0 45
0 0 45
0 0 45
0 0 45
0 0 45
0 0 45
0 0 45
0 0 45
0 0 45
0 0 45
0 0 45
0 0 45
0 0 45
0 0 45
0 0 45
0 0 45
0 0 45
0 0 45
0 0 45
0 0 45
0 0 45
0 0 45
0 0 45
0 0 45
0 0 45
0 0 45
0 0 45
0 0 45
0 0 45
0 0 45
0 0 45
0 0 45
0 0 45
0 0 45
0 0 45
0 0 45
0 0 45
0 0 45
0 0 45
0 0 45
0 0 43
0 0 43
0 0 47
0 0 48
0 0 48
0 0 48
0 0 48
0 0 53
0 0 52
0 0 49
0 0 47
0 0 45
0 0 45
0 0 45
0 0 45
0 0 43
0 0 43
0 0 45
0 0 45
0 0 47
0 0 50
0 0 51
0 0 52
0 0 53
0 0 54
0 0 53
0 0 55
0 0 55
0 0 54
0 0 53
0 0 53
0 0 52
0 0 51
0 0 52
0 0 54
0 0 49
0 0 61
0 8 47
14 32 60
32 64 65
50 78 37
49 69 13
44 60 10
69 77 29
64 77 34
60 74 28
44 62 13
36 58 0
36 59 1
42 62 9
47 68 8
46 67 9
40 61 6
35 57 0
36 55 0
39 57 0
35 54 0
35 54 0
34 55 0
34 54 0
31 53 0
29 51 0
30 51 0
28 50 0
27 48 0
23 43 0
25 46 0
32 52 0
36 54 0
33 52 0
33 55 0
36 60 0
48 71 12
73 87 32
64 71 23
66 76 25
58 71 21
39 58 0
37 55 0
32 50 0
28 47 0
27 43 0
30 46 0
29 48 0
32 53 0
30 50 0
29 51 0
36 54 7
30 53 0
27 70 57
11 111 139
6 122 153
0 57 99
0 11 64
0 0 43
0 0 42
0 0 41
0 0 42
0 0 42
0 0 42
0 0 42
0 0 42
0 0 42
0 0 42
0 0 42
0 0 42
0 0 42
0 0 42
0 0 42
0 0 44
0 0 44
0 0 43
0 0 42
0 0 42
0 0 43
0 0 44
0 0 45
0 0 45
0 0 45
0 0 42
125 133 149
221 235 255
221 235 255
221 235 255
221 235 255
221 235 255
221 235 255
221 235 255
221 235 255
221 235 255
221 235 255
221 235 255
221 235 255
221 235 255
221 235 255
221 235 255
221 235 255
221 235 255
221 235 255
221 235 255
221 235 255
221 235 255
221 235 255
221 235 255
221 235 255
221 235 255
221 235 255
221 235 255
221 235 255
221 235 255
221 235 255
221 235 255
221 235 255
221 235 255
221 235 255
221 235 255
221 235 255
221 235 255
221 235 255
221 235 255
221 235 255
221 235 255
221 235 255
221 235 255
221 235 255
221 235 255
221 235 255
221 235 255
221 235 255
221 235 255
221 235 255
221 235 255
221 235 255
221 235 255
221 235 255
221 235 255
221 235 255
221 235 255
221 235 255
221 235 255
221 235 255
221 235 255
221 235 255
221 235 255
221 235 255
221 235 255
221 235 255
221 235 255
221 235 255
221 235 255
221 235 255
221 235 255
221 235 255
221 235 255
221 235 255
221 235 255
221 235 255
221 235 255
221 235 255
221 235 255
221 235 255
221 235 255
221 235 255
221 235 255
221 235 255
221 235 255
221 235 255
221 235 255
221 235 255
221 235 255
221 235 255
221 235 255
221 235 255
221 235 255
221 235 255
221 235 255
221 235 255
221 235 255
221 235 255
221 235 255
221 235 255
221 235 255
221 235 255
221 235 255
221 235 255
221 235 255
221 235 255
221 235 255
221 235 255
221 235 255
221 235 255
221 235 255
221 235 255
221 235 255
221 235 255
221 235 255
221 235 255
221 235 255
221 235 255
221 235 255
221 235 255
221 235 255
221 235 255
221 235 255
221 235 255
221 235 255
221 235 255
221 235 255
221 235 255
221 235 255
221 235 255
221 235 255
221 235 255
221 235 255
221 235 255
221 235 255
221 235 255
221 235 255
221 235 255
221 235 255
221 235 255
221 235 255
221 235 255
221 235 255
221 235 255
221 235 255
221 235 255
221 235 255
221 235 255
221 235 255
221 235 255
221 235 255
221 235 255
221 235 255
221 235 255
221 235 255
221 235 255
221 235 255
221 235 255
221 235 255
221 235 255
221 235 255
221 235 255
221 235 255
221 235 255
221 235 255
221 235 255
221 235 255
221 235 255
221 235 255
221 235 255
221 235 255
221 235 255
221 235 255
221 235 255
221 235 255
221 235 255
221 235 255
221 235 255
221 235 255
221 235 255
221 235 255
221 235 255
221 235 255
221 235 255
110 117 133
0 0 45
0 0 45
0 0 45
0 0 45
0 0 45
0 0 45
0 0 45
0 0 45
0 0 45
0 0 45
0 0 45
0 0 45
0 0 45
0 0 45
0 0 45
0 0 45
0 0 44
0 0 42
0 0 44
0 0 45
0 0 45
0 0 45
0 0 45
0 0 44
0 0 42
0 0 42
0 0 42
0 0 42
0 0 42
0 0 43
0 0 44
0 0 43
0 0 42
0 0 42
0 0 42
0 0 42
0 0 42
0 0 42
0 0 43
0 0 44
0 0 44
0 0 44
0 0 44
0 0 45
0 0 45
0 0 45
0 0 45
0 0 45
0 0 43
0 0 45
0 0 44
0 0 45
0 0 45
0 0 45
0 0 45
0 0 45
0 0 45
0 0 45
0 0 45
0 0 45
0 0 45
0 0 45
0 0 45
0 0 45
0 0 45
0 0 45
0 0 45
0 0 45
0 0 45
0 0 45
0 0 45
0 0 45
0 0 45
0 0 45
0 0 45
0 0 45
0 0 45
0 0 45
0 0 45
0 0 45
0 0 45
0 0 45
0 0 45
0 0 45
0 0 45
0 0 45
0 0 45
0 0 45
0 0 45
0 0 45
0 0 45
0 0 45
0 0 45
0 0 45
0 0 44
0 0 44
0 0 47
0 0 48
0 0 48
0 0 47
0 0 47
0 0 50
0 0 50
0 0 48
0 0 48
0 0 48
0 0 44
0 0 47
0 0 45
0 0 45
0 0 45
0 0 46
0 0 48
0 0 48
0 0 51
0 0 53
0 0 53
0 0 53
0 0 54
0 0 54
0 0 57
0 0 57
0 0 56
0 0 55
0 0 56
0 0 53
0 0 56
0 0 53
0 0 53
0 0 49
0 0 47
22 35 61
66 100 67
63 99 43
47 73 37
47 61 5
68 76 43
64 77 30
63 77 34
58 75 27
49 69 14
43 64 0
43 65 0
36 57 0
43 64 0
37 59 0
33 55 0
32 53 0
32 52 0
35 55 0
30 49 0
27 47 0
32 52 0
34 55 0
34 55 0
34 55 0
28 49 0
28 49 0
28 48 0
25 43 0
25 44 0
28 47 0
32 50 0
35 54 0
33 54 0
35 57 0
38 62 0
44 65 8
44 61 7
60 72 18
50 63 9
42 61 0
37 56 0
29 47 0
29 47 0
28 44 0
33 50 0
30 50 0
32 52 0
30 51 0
30 54 0
33 52 0
29 51 10
30 53 15
20 110 119
33 177 176
11 103 135
0 24 76
0 0 51
0 0 43
0 0 40
0 0 42
0 0 42
0 0 42
0 0 42
0 0 42
0 0 42
0 0 42
0 0 42
0 0 42
0 0 42
0 0 42
0 0 42
0 0 42
0 0 42
0 0 42
0 0 42
0 0 42
0 0 42
0 0 42
0 0 42
0 0 42
0 0 42
0 0 42
123 131 146
221 235 255
221 235 255
221 235 255
221 235 255
221 235 255
221 235 255
221 235 255
221 235 255
221 235 255
221 235 255
221 235 255
221 235 255
221 235 255
221 235 255
221 235 255
221 235 255
221 235 255
221 235 255
221 235 255
221 235 255
221 235 255
221 235 255
221 235 255
221 235 255
221 235 255
221 235 255
221 235 255
221 235 255
221 235 255
221 235 255
221 235 255
221 235 255
221 235 255
221 235 255
221 235 255
221 235 255
221 235 255
221 235 255
221 235 255
221 235 255
221 235 255
221 235 255
221 235 255
221 235 255
221 235 255
221 235 255
221 235 255
221 235 255
221 235 255
221 235 255
221 235 255
221 235 255
221 235 255
221 235 255
221 235 255
221 235 255
221 235 255
221 235 255
221 235 255
221 235 255
221 235 255
221 235 255
221 235 255
221 235 255
221 235 255
221 235 255
221 235 255
221 235 255
221 235 255
221 235 255
221 235 255
221 235 255
221 235 255
221 235 255
221 235 255
221 235 255
221 235 255
221 235 255
221 235 255
221 235 255
221 235 255
221 235 255
221 235 255
221 235 255
221 235 255
221 235 255
221 235 255
221 235 255
221 235 255
221 235 255
221 235 255
221 235 255
221 235 255
221 235 255
221 235 255
221 235 255
221 235 255
221 235 255
221 235 255
221 235 255
221 235 255
221 235 255
221 235 255
221 235 255
221 235 255
221 235 255
221 235 255
221 235 255
221 235 255
221 235 255
221 235 255
221 235 255
221 235 255
221 235 255
221 235 255
221 235 255
221 235 255
221 235 255
221 235 255
221 235 255
221 235 255
221 235 255
221 235 255
221 235 255
221 235 255
221 235 255
221 235 255
221 235 255
221 235 255
221 235 255
221 235 255
221 235 255
221 235 255
221 235 255
221 235 255
221 235 255
221 235 255
221 235 255
221 235 255
221 235 255
221 235 255
221 235 255
221 235 255
221 235 255
221 235 255
221 235 255
221 235 255
221 235 255
221 235 255
221 235 255
221 235 255
221 235 255
221 235 255
221 235 255
221 235 255
221 235 255
221 235 255
221 235 255
221 235 255
221 235 255
221 235 255
221 235 255
221 235 255
221 235 255
221 235 255
221 235 255
221 235 255
221 235 255
221 235 255
221 235 255
221 235 255
221 235 255
221 235 255
221 235 255
221 235 255
221 235 255
221 235 255
221 235 255
221 235 255
221 235 255
221 235 255
221 235 255
221 235 255
221 235 255
91 97 113
0 0 45
0 0 45
0 0 45
0 0 45
0 0 45
0 0 45
0 0 45
0 0 45
0 0 45
0 0 45
0 0 45
0 0 45
0 0 45
0 0 45
0 0 45
0 0 45
0 0 45
0 0 42
0 0 44
0 0 45
0 0 45
0 0 45
0 0 45
0 0 45
0 0 45
0 0 45
0 0 45
0 0 45
0 0 45
0 0 44
0 0 42
0 0 42
0 0 42
0 0 42
0 0 42
0 0 42
0 0 42
0 0 43
0 0 44
0 0 45
0 0 45
0 0 45
0 0 45
0 0 45
0 0 45
0 0 45
0 0 45
0 0 45
0 0 45
0 0 45
0 0 45
0 0 45
0 0 45
0 0 45
0 0 45
0 0 45
0 0 45
0 0 45
0 0 45
0 0 45
0 0 45
0 0 45
0 0 45
0 0 45
0 0 45
0 0 45
0 0 45
0 0 45
0 0 45
0 0 45
0 0 45
0 0 45
0 0 45
0 0 45
0 0 45
0 0 45
0 0 45
0 0 45
0 0 45
0 0 45
0 0 45
0 0 45
0 0 45
0 0 45
0 0 45
0 0 45
0 0 45
0 0 45
0 0 45
0 0 45
0 0 45
0 0 45
0 0 45
0 0 45
0 0 45
0 0 45
0 0 47
0 0 48
0 0 48
0 0 48
0 0 48
0 0 48
0 0 49
0 0 49
0 0 49
0 0 49
0 0 47
0 0 48
0 0 48
0 0 48
0 0 48
0 0 48
0 0 48
0 0 50
0 0 53
0 0 53
0 0 53
0 0 53
0 0 56
0 0 56
0 0 57
0 0 56
0 0 56
0 0 57
0 0 57
0 0 56
0 0 64
0 0 61
0 5 59
0 6 59
0 0 62
31 52 77
60 91 62
64 89 37
50 71 25
60 71 18
70 77 37
53 71 22
55 73 25
50 69 18
52 74 19
44 66 0
39 60 0
34 54 0
38 58 0
37 58 0
36 57 0
32 53 0
34 55 0
35 55 0
28 49 0
25 45 0
28 49 0
32 54 0
36 56 0
36 56 0
30 50 0
24 44 0
27 46 0
30 50 0
34 52 0
33 53 0
29 52 0
30 55 0
28 52 0
33 54 0
34 55 0
32 56 0
33 56 0
37 56 0
36 54 0
35 55 0
33 52 0
28 47 0
30 48 0
37 54 0
44 61 0
31 50 0
30 49 0
30 50 0
31 52 0
31 53 0
28 49 0
32 49 0
35 71 49
11 116 131
18 163 173
0 62 111
0 6 56
0 0 45
0 0 41
0 0 41
0 0 42
0 0 42
0 0 42
0 0 42
0 0 42
0 0 42
0 0 42
0 0 42
0 0 42
0 0 42
0 0 42
0 0 42
0 0 42
0 0 42
0 0 42
0 0 42
0 0 42
0 0 42
0 0 42
0 0 42
0 0 42
0 0 42
123 131 146
221 235 255
221 235 255
221 235 255
221 235 255
221 235 255
221 235 255
221 235 255
221 235 255
221 235 255
221 235 255
221 235 255
221 235 255
221 235 255
221 235 255
221 235 255
221 235 255
221 235 255
221 235 255
221 235 255
221 235 255
221 235 255
221 235 255
221 235 255
221 235 255
221 235 255
221 235 255
221 235 255
221 235 255
221 235 255
221 235 255
221 235 255
221 235 255
221 235 255
221 235 255
221 235 255
221 235 255
221 235 255
221 235 255
221 235 255
221 235 255
221 235 255
221 235 255
221 235 255
221 235 255
221 235 255
221 235 255
221 235 255
221 235 255
221 235 255
221 235 255
221 235 255
221 235 255
221 235 255
221 235 255
221 235 255
221 235 255
221 235 255
221 235 255
221 235 255
221 235 255
221 235 255
221 235 255
221 235 255
221 235 255
221 235 255
221 235 255
221 235 255
221 235 255
221 235 255
221 235 255
221 235 255
221 235 255
221 235 255
221 235 255
221 235 255
221 235 255
221 235 255
221 235 255
221 235 255
221 235 255
221 235 255
221 235 255
221 235 255
221 235 255
221 235 255
221 235 255
221 235 255
221 235 255
221 235 255
221 235 255
221 235 255
221 235 255
221 235 255
221 235 255
221 235 255
221 235 255
221 235 255
221 235 255
221 235 255
221 235 255
221 235 255
221 235 255
221 235 255
221 235 255
221 235 255
221 235 255
221 235 255
221 235 255
221 235 255
221 235 255
221 235 255
221 235 255
221 235 255
221 235 255
221 235 255
221 235 255
221 235 255
221 235 255
221 235 255
221 235 255
221 235 255
221 235 255
221 235 255
221 235 255
221 235 255
221 235 255
221 235 255
221 235 255
221 235 255
221 235 255
221 235 255
221 235 255
221 235 255
221 235 255
221 235 255
221 235 255
221 235 255
221 235 255
221 235 255
221 235 255
221 235 255
221 235 255
221 235 255
221 235 255
221 235 255
221 235 255
221 235 255
221 235 255
221 235 255
221 235 255
221 235 255
221 235 255
221 235 255
221 235 255
221 235 255
221 235 255
221 235 255
221 235 255
221 235 255
221 235 255
221 235 255
221 235 255
221 235 255
221 235 255
221 235 255
221 235 255
221 235 255
221 235 255
221 235 255
221 235 255
221 235 255
221 235 255
221 235 255
221 235 255
221 235 255
221 235 255
221 235 255
221 235 255
221 235 255
221 235 255
221 235 255
221 235 255
221 235 255
221 235 255
99 105 121
0 0 45
0 0 45
0 0 45
0 0 45
0 0 45
0 0 45
0 0 45
0 0 45
0 0 45
0 0 45
0 0 45
0 0 45
0 0 45
0 0 45
0 0 45
0 0 45
0 0 45
0 0 44
0 0 44
0 0 45
0 0 45
0 0 45
0 0 45
0 0 45
0 0 45
0 0 45
0 0 45
0 0 45
0 0 45
0 0 44
0 0 43
0 0 43
0 0 42
0 0 42
0 0 42
0 0 42
0 0 44
0 0 45
0 0 45
0 0 45
0 0 45
0 0 45
0 0 45
0 0 45
0 0 45
0 0 45
0 0 45
0 0 45
0 0 45
0 0 45
0 0 45
0 0 45
0 0 43
0 0 44
0 0 45
0 0 45
0 0 45
0 0 45
0 0 45
0 0 45
0 0 45
0 0 45
0 0 45
0 0 45
0 0 45
0 0 45
0 0 45
0 0 45
0 0 45
0 0 45
0 0 45
0 0 45
0 0 45
0 0 45
0 0 45
0 0 45
0 0 45
0 0 45
0 0 45
0 0 45
0 0 45
0 0 45
0 0 45
0 0 45
0 0 45
0 0 45
0 0 45
0 0 45
0 0 45
0 0 45
0 0 45
0 0 45
0 0 45
0 0 45
0 0 46
0 0 46
0 0 48
0 0 48
0 0 48
0 0 49
0 0 49
0 0 48
0 0 49
0 0 50
0 0 51
0 0 50
0 0 50
0 0 49
0 0 49
0 0 49
0 0 49
0 0 49
0 0 49
0 0 52
0 0 55
0 0 54
0 0 53
0 0 54
0 0 57
0 0 57
0 0 57
0 0 57
0 0 57
0 0 57
0 0 57
0 0 54
0 8 61
0 6 64
0 8 72
0 17 74
0 24 76
53 89 76
64 94 36
57 80 25
66 75 29
72 82 41
59 71 31
54 70 21
51 71 19
48 69 14
44 65 0
40 61 0
36 56 0
34 52 0
36 56 0
38 59 0
39 60 0
36 55 0
32 53 0
30 51 0
27 49 0
30 50 0
27 49 0
28 51 0
31 52 0
32 52 0
30 50 0
25 44 0
28 45 0
31 51 0
30 48 0
28 48 0
26 52 0
29 55 0
29 52 0
33 53 0
33 51 0
29 50 0
28 50 0
26 50 0
27 48 0
30 49 0
31 51 0
31 50 0
29 48 0
35 52 0
42 59 0
32 51 0
29 49 0
30 48 0
30 48 0
33 49 0
31 50 0
30 53 0
35 52 5
16 93 95
9 130 156
8 101 132
0 23 77
0 0 50
0 0 44
0 0 41
0 0 41
0 0 42
0 0 42
0 0 42
0 0 42
0 0 42
0 0 42
0 0 42
0 0 42
0 0 42
0 0 42
0 0 42
0 0 42
0 0 42
0 0 42
0 0 42
0 0 42
0 0 42
0 0 42
0 0 42
0 0 42
0 0 42
99 105 120
221 235 255
221 235 255
221 235 255
221 235 255
221 235 255
221 235 255
221 235 255
221 235 255
221 235 255
221 235 255
221 235 255
221 235 255
221 235 255
221 235 255
221 235 255
221 235 255
221 235 255
221 235 255
221 235 255
221 235 255
221 235 255
221 235 255
221 235 255
221 235 255
221 235 255
221 235 255
221 235 255
221 235 255
221 235 255
221 235 255
221 235 255
221 235 255
221 235 255
221 235 255
221 235 255
221 235 255
221 235 255
221 235 255
221 235 255
221 235 255
221 235 255
221 235 255
221 235 255
221 235 255
221 235 255
221 235 255
221 235 255
221 235 255
221 235 255
221 235 255
221 235 255
221 235 255
221 235 255
221 235 255
221 235 255
221 235 255
221 235 255
221 235 255
221 235 255
221 235 255
221 235 255
221 235 255
221 235 255
221 235 255
221 235 255
221 235 255
221 235 255
221 235 255
221 235 255
221 235 255
221 235 255
221 235 255
221 235 255
221 235 255
221 235 255
221 235 255
221 235 255
221 235 255
221 235 255
221 235 255
221 235 255
221 235 255
221 235 255
221 235 255
221 235 255
221 235 255
221 235 255
221 235 255
221 235 255
221 235 255
221 235 255
221 235 255
221 235 255
221 235 255
221 235 255
221 235 255
221 235 255
221 235 255
221 235 255
221 235 255
221 235 255
221 235 255
221 235 255
221 235 255
221 235 255
221 235 255
221 235 255
221 235 255
221 235 255
221 235 255
221 235 255
221 235 255
221 235 255
221 235 255
221 235 255
221 235 255
221 235 255
221 235 255
221 235 255
221 235 255
221 235 255
221 235 255
221 235 255
221 235 255
221 235 255
221 235 255
221 235 255
221 235 255
221 235 255
221 235 255
221 235 255
221 235 255
221 235 255
221 235 255
221 235 255
221 235 255
221 235 255
221 235 255
221 235 255
221 235 255
221 235 255
221 235 255
221 235 255
221 235 255
221 235 255
221 235 255
221 235 255
221 235 255
221 235 255
221 235 255
221 235 255
221 235 255
221 235 255
221 235 255
221 235 255
221 235 255
221 235 255
221 235 255
221 235 255
221 235 255
221 235 255
221 235 255
221 235 255
221 235 255
221 235 255
221 235 255
221 235 255
221 235 255
221 235 255
221 235 255
221 235 255
221 235 255
221 235 255
221 235 255
221 235 255
221 235 255
221 235 255
221 235 255
221 235 255
221 235 255
221 235 255
221 235 255
221 235 255
221 235 255
101 108 124
0 0 45
0 0 45
0 0 45
0 0 45
0 0 45
0 0 45
0 0 45
0 0 45
0 0 45
0 0 45
0 0 45
0 0 45
0 0 45
0 0 45
0 0 45
0 0 45
0 0 45
0 0 45
0 0 45
0 0 45
0 0 45
0 0 45
0 0 45
0 0 45
0 0 45
0 0 45
0 0 45
0 0 45
0 0 45
0 0 45
0 0 45
0 0 45
0 0 44
0 0 44
0 0 44
0 0 44
0 0 45
0 0 45
0 0 45
0 0 45
0 0 45
0 0 45
0 0 45
0 0 45
0 0 45
0 0 45
0 0 45
0 0 45
0 0 45
0 0 45
0 0 45
0 0 45
0 0 44
0 0 45
0 0 45
0 0 45
0 0 45
0 0 45
0 0 45
0 0 47
0 0 47
0 0 47
0 0 47
0 0 47
0 0 46
0 0 45
0 0 45
0 0 45
0 0 45
0 0 45
0 0 45
0 0 45
0 0 45
0 0 45
0 0 45
0 0 45
0 0 45
0 0 45
0 0 45
0 0 45
0 0 45
0 0 45
0 0 45
0 0 45
0 0 45
0 0 45
0 0 45
0 0 45
0 0 47
0 0 47
0 0 47
0 0 47
0 0 47
0 0 47
0 0 47
0 0 48
0 0 48
0 0 48
0 0 48
0 0 50
0 0 51
0 0 51
0 0 50
0 0 52
0 0 50
0 0 50
0 0 50
0 0 50
0 0 50
0 0 50
0 0 50
0 0 50
0 0 50
0 0 52
0 0 55
0 0 54
0 0 54
0 0 57
0 0 57
0 0 57
0 0 57
0 0 57
0 0 57
0 0 56
0 0 55
0 0 56
0 5 76
0 19 83
26 38 85
57 87 97
44 82 49
52 94 50
60 80 42
59 75 22
87 90 53
83 94 47
46 65 16
39 55 10
48 66 13
41 61 2
44 65 12
35 55 0
33 54 0
29 48 0
34 53 0
36 53 0
34 55 0
33 53 0
29 51 0
26 48 0
25 47 0
31 51 0
27 48 0
23 46 0
24 46 0
27 47 0
23 41 0
26 46 0
31 50 0
26 45 0
24 42 0
24 44 0
24 47 0
26 48 0
25 45 0
29 45 0
33 49 0
30 48 0
29 51 0
30 51 0
28 47 0
28 47 0
31 49 0
29 49 0
26 45 0
27 45 0
32 50 0
31 50 0
28 48 0
28 46 0
27 47 0
23 45 0
27 49 0
39 51 0
36 58 19
16 85 103
5 107 141
10 117 140
0 34 91
0 8 59
0 0 47
0 0 42
0 0 42
0 0 42
0 0 42
0 0 42
0 0 42
0 0 42
0 0 42
0 0 42
0 0 42
0 0 42
0 0 42
0 0 42
0 0 42
0 0 42
0 0 42
0 0 42
0 0 42
0 0 42
0 0 42
0 0 42
0 0 42
0 0 42
101 108 123
221 235 255
221 235 255
221 235 255
221 235 255
221 235 255
221 235 255
221 235 255
221 235 255
221 235 255
221 235 255
221 235 255
221 235 255
221 235 255
221 235 255
221 235 255
221 235 255
221 235 255
221 235 255
221 235 255
221 235 255
221 235 255
221 235 255
221 235 255
221 235 255
221 235 255
221 235 255
221 235 255
221 235 255
221 235 255
221 235 255
221 235 255
221 235 255
221 235 255
221 235 255
221 235 255
221 235 255
221 235 255
221 235 255
221 235 255
221 235 255
221 235 255
221 235 255
221 235 255
221 235 255
221 235 255
221 235 255
221 235 255
221 235 255
221 235 255
221 235 255
221 235 255
221 235 255
221 235 255
221 235 255
221 235 255
221 235 255
221 235 255
221 235 255
221 235 255
221 235 255
221 235 255
221 235 255
221 235 255
221 235 255
221 235 255
221 235 255
221 235 255
221 235 255
221 235 255
221 235 255
221 235 255
221 235 255
221 235 255
221 235 255
221 235 255
221 235 255
221 235 255
221 235 255
221 235 255
221 235 255
221 235 255
221 235 255
221 235 255
221 235 255
221 235 255
221 235 255
221 235 255
221 235 255
221 235 255
221 235 255
221 235 255
221 235 255
221 235 255
221 235 255
221 235 255
221 235 255
221 235 255
221 235 255
221 235 255
221 235 255
221 235 255
221 235 255
221 235 255
221 235 255
221 235 255
221 235 255
221 235 255
221 235 255
221 235 255
221 235 255
221 235 255
221 235 255
221 235 255
221 235 255
221 235 255
221 235 255
221 235 255
221 235 255
221 235 255
221 235 255
221 235 255
221 235 255
221 235 255
221 235 255
221 235 255
221 235 255
221 235 255
221 235 255
221 235 255
221 235 255
221 235 255
221 235 255
221 235 255
221 235 255
221 235 255
221 235 255
221 235 255
221 235 255
221 235 255
221 235 255
221 235 255
221 235 255
221 235 255
221 235 255
221 235 255
221 235 255
221 235 255
221 235 255
221 235 255
221 235 255
221 235 255
221 235 255
221 235 255
221 235 255
221 235 255
221 235 255
221 235 255
221 235 255
221 235 255
221 235 255
221 235 255
221 235 255
221 235 255
221 235 255
221 235 255
221 235 255
221 235 255
221 235 255
221 235 255
221 235 255
221 235 255
221 235 255
221 235 255
221 235 255
221 235 255
221 235 255
221 235 255
221 235 255
221 235 255
221 235 255
221 235 255
221 235 255
221 235 255
221 235 255
91 97 113
0 0 45
0 0 45
0 0 45
0 0 45
0 0 45
0 0 45
0 0 45
0 0 45
0 0 45
0 0 45
0 0 45
0 0 45
0 0 45
0 0 45
0 0 45
0 0 45
0 0 45
0 0 45
0 0 45
0 0 45
0 0 45
0 0 45
0 0 45
0 0 45
0 0 46
0 0 45
0 0 45
0 0 45
0 0 45
0 0 45
0 0 45
0 0 45
0 0 45
0 0 45
0 0 45
0 0 45
0 0 45
0 0 45
0 0 45
0 0 45
0 0 46
0 0 46
0 0 46
0 0 45
0 0 45
0 0 45
0 0 45
0 0 45
0 0 45
0 0 45
0 0 45
0 0 46
0 0 45
0 0 47
0 0 48
0 0 48
0 0 48
0 0 48
0 0 48
0 0 48
0 0 48
0 0 48
0 0 48
0 0 48
0 0 48
0 0 48
0 0 48
0 0 48
0 0 48
0 0 48
0 0 48
0 0 48
0 0 48
0 0 48
0 0 48
0 0 48
0 0 48
0 0 48
0 0 48
0 0 48
0 0 48
0 0 48
0 0 45
0 0 45
0 0 45
0 0 45
0 0 45
0 0 45
0 0 47
0 0 48
0 0 48
0 0 48
0 0 48
0 0 48
0 0 49
0 0 48
0 0 48
0 0 48
0 0 48
0 0 50
0 0 53
0 0 54
0 0 53
0 0 54
0 0 54
0 0 50
0 0 50
0 0 51
0 0 50
0 0 50
0 0 50
0 0 50
0 0 50
0 0 51
0 0 53
0 0 55
0 0 56
0 0 57
0 0 57
0 0 57
0 0 58
0 0 58
0 0 57
0 0 57
0 0 59
0 6 63
0 10 72
0 3 70
49 60 97
110 138 144
96 127 79
53 76 33
50 62 17
72 77 36
94 101 80
56 72 34
41 61 8
29 47 0
37 52 0
36 55 0
30 49 0
34 56 0
29 49 0
30 48 0
30 48 0
30 48 0
31 51 0
29 49 0
29 50 0
26 48 0
22 43 0
22 44 0
19 41 0
19 41 0
21 43 0
19 42 0
20 42 0
19 40 0
25 45 0
23 42 0
19 41 0
19 43 0
20 40 0
23 39 0
23 40 0
28 44 0
28 46 0
26 45 0
24 45 0
26 47 0
27 47 0
25 45 0
25 44 0
24 44 0
24 44 0
24 42 0
28 47 0
24 45 0
27 47 0
27 47 0
25 45 0
21 42 0
25 48 0
46 56 9
28 70 46
14 79 103
0 99 142
15 147 158
0 102 143
0 19 77
0 0 53
0 0 45
0 0 43
0 0 42
0 0 42
0 0 42
0 0 42
0 0 42
0 0 42
0 0 42
0 0 42
0 0 42
0 0 42
0 0 42
0 0 42
0 0 42
0 0 42
0 0 42
0 0 42
0 0 42
0 0 42
0 0 42
0 0 42
0 0 44
85 91 107
221 235 255
221 235 255
221 235 255
221 235 255
221 235 255
221 235 255
221 235 255
221 235 255
221 235 255
221 235 255
221 235 255
221 235 255
221 235 255
221 235 255
221 235 255
221 235 255
221 235 255
221 235 255
221 235 255
221 235 255
221 235 255
221 235 255
221 235 255
221 235 255
221 235 255
221 235 255
221 235 255
221 235 255
221 235 255
221 235 255
221 235 255
221 235 255
221 235 255
221 235 255
221 235 255
221 235 255
221 235 255
221 235 255
221 235 255
221 235 255
221 235 255
221 235 255
221 235 255
221 235 255
221 235 255
221 235 255
221 235 255
221 235 255
221 235 255
221 235 255
221 235 255
221 235 255
221 235 255
221 235 255
221 235 255
221 235 255
221 235 255
221 235 255
221 235 255
221 235 255
221 235 255
221 235 255
221 235 255
221 235 255
221 235 255
221 235 255
221 235 255
221 235 255
221 235 255
221 235 255
221 235 255
221 235 255
221 235 255
221 235 255
221 235 255
221 235 255
221 235 255
221 235 255
221 235 255
221 235 255
221 235 255
221 235 255
221 235 255
221 235 255
221 235 255
221 235 255
221 235 255
221 235 255
221 235 255
221 235 255
221 235 255
221 235 255
221 236 255
221 236 255
221 236 255
221 236 255
221 236 255
221 236 255
221 236 255
221 236 255
221 236 255
221 236 255
221 236 255
221 236 255
221 236 255
221 236 255
221 236 255
221 236 255
221 236 255
221 236 255
221 236 255
221 236 255
221 236 255
221 236 255
221 236 255
221 236 255
221 236 255
221 236 255
221 236 255
221 236 255
221 236 255
221 236 255
221 236 255
221 236 255
221 236 255
221 236 255
221 236 255
221 236 255
221 236 255
221 236 255
221 236 255
221 236 255
221 236 255
221 236 255
221 236 255
221 236 255
221 236 255
221 236 255
221 236 255
221 236 255
221 236 255
221 236 255
221 236 255
221 236 255
221 236 255
221 236 255
221 236 255
221 236 255
221 236 255
221 236 255
221 236 255
221 236 255
221 236 255
221 236 255
221 236 255
221 236 255
221 236 255
221 236 255
221 236 255
221 236 255
221 236 255
221 236 255
221 236 255
221 236 255
221 236 255
221 236 255
221 236 255
221 236 255
221 236 255
221 236 255
221 236 255
221 236 255
221 236 255
221 236 255
221 236 255
221 236 255
221 236 255
221 236 255
221 236 255
221 236 255
221 236 255
221 236 255
221 236 255
221 236 255
76 81 98
0 0 45
0 0 45
0 0 45
0 0 45
0 0 45
0 0 45
0 0 45
0 0 45
0 0 45
0 0 45
0 0 45
0 0 45
0 0 45
0 0 45
0 0 45
0 0 45
0 0 45
0 0 45
0 0 46
0 0 46
0 0 46
0 0 46
0 0 45
0 0 46
0 0 48
0 0 46
0 0 45
0 0 45
0 0 45
0 0 45
0 0 45
0 0 45
0 0 45
0 0 45
0 0 45
0 0 45
0 0 45
0 0 45
0 0 46
0 0 48
0 0 48
0 0 48
0 0 48
0 0 47
0 0 46
0 0 46
0 0 45
0 0 45
0 0 45
0 0 45
0 0 45
0 0 46
0 0 46
0 0 46
0 0 46
0 0 46
0 0 47
0 0 48
0 0 48
0 0 48
0 0 48
0 0 48
0 0 48
0 0 48
0 0 48
0 0 48
0 0 48
0 0 48
0 0 48
0 0 48
0 0 48
0 0 48
0 0 48
0 0 48
0 0 48
0 0 48
0 0 48
0 0 48
0 0 48
0 0 48
0 0 48
0 0 48
0 0 47
0 0 46
0 0 46
0 0 46
0 0 46
0 0 46
0 0 47
0 0 48
0 0 48
0 0 48
0 0 48
0 0 48
0 0 48
0 0 48
0 0 49
0 0 49
0 0 49
0 0 51
0 0 53
0 0 54
0 0 55
4 6 50
11 16 46
0 6 54
0 0 52
0 0 51
0 0 51
0 0 51
0 0 51
0 0 50
0 0 51
0 0 52
0 0 53
0 0 54
0 0 56
0 0 57
0 0 58
0 0 58
0 0 58
0 0 58
0 0 58
0 0 62
0 0 66
0 0 73
0 15 84
0 16 82
38 52 65
90 115 87
103 138 97
43 62 20
57 64 25
70 78 35
58 75 23
41 59 6
45 64 7
30 51 0
35 52 0
35 55 0
34 53 0
30 51 0
27 47 0
26 47 0
30 48 0
27 45 0
26 46 0
25 44 0
25 45 0
23 45 0
19 41 0
14 38 0
16 39 0
22 45 0
24 47 0
20 45 0
22 46 0
17 40 0
15 38 0
19 41 0
19 41 0
20 41 0
23 39 0
26 41 0
26 43 0
26 45 0
25 46 0
26 46 0
25 46 0
26 47 0
26 45 0
24 42 0
25 43 0
24 45 0
26 45 0
21 40 0
25 45 0
23 46 0
27 51 0
28 49 0
26 45 0
28 45 0
29 51 0
37 63 21
21 65 46
30 81 52
18 99 119
17 121 131
15 136 157
0 31 90
0 0 60
0 0 46
0 0 41
0 0 44
0 0 40
0 0 44
0 0 42
0 0 42
0 0 41
0 0 42
0 0 42
0 0 42
0 0 42
0 0 42
0 0 42
0 0 42
0 0 42
0 0 42
0 0 42
0 0 42
0 0 42
0 0 42
0 0 42
0 0 43
96 102 118
221 236 255
221 236 255
221 236 255
221 236 255
221 236 255
221 236 255
221 236 255
221 236 255
221 236 255
221 236 255
221 236 255
221 236 255
221 236 255
221 236 255
221 236 255
221 236 255
221 236 255
221 236 255
221 236 255
221 236 255
221 236 255
221 236 255
221 236 255
221 236 255
221 236 255
221 236 255
221 236 255
221 236 255
221 236 255
221 236 255
221 236 255
221 236 255
221 236 255
221 236 255
221 236 255
221 236 255
221 236 255
221 236 255
221 236 255
221 236 255
221 236 255
221 236 255
221 236 255
221 236 255
221 236 255
221 236 255
221 236 255
221 236 255
221 236 255
221 236 255
221 236 255
221 236 255
221 236 255
221 236 255
221 236 255
221 236 255
221 236 255
221 236 255
221 236 255
221 236 255
221 236 255
221 236 255
221 236 255
221 236 255
221 236 255
221 236 255
221 236 255
221 236 255
221 236 255
221 236 255
221 236 255
221 236 255
221 236 255
221 236 255
221 236 255
221 236 255
221 236 255
221 236 255
221 236 255
221 236 255
221 236 255
221 236 255
221 236 255
221 236 255
221 236 255
221 236 255
221 236 255
221 236 255
221 236 255
221 236 255
221 236 255
221 236 255
221 236 255
221 236 255
221 236 255
221 236 255
221 236 255
221 236 255
221 236 255
221 236 255
221 236 255
221 236 255
221 236 255
221 236 255
221 236 255
221 236 255
221 236 255
221 236 255
221 236 255
221 236 255
221 236 255
221 236 255
221 236 255
221 236 255
221 236 255
221 236 255
221 236 255
221 236 255
221 236 255
221 236 255
221 236 255
221 236 255
221 236 255
221 236 255
221 236 255
221 236 255
221 236 255
221 236 255
221 236 255
221 236 255
221 236 255
221 236 255
221 236 255
221 236 255
221 236 255
221 236 255
221 236 255
221 236 255
221 236 255
221 236 255
221 236 255
221 236 255
221 236 255
221 236 255
221 236 255
221 236 255
221 236 255
221 236 255
221 236 255
221 236 255
221 236 255
221 236 255
221 236 255
221 236 255
221 236 255
221 236 255
221 236 255
221 236 255
221 236 255
221 236 255
221 236 255
221 236 255
221 236 255
221 236 255
221 236 255
221 236 255
221 236 255
221 236 255
221 236 255
221 236 255
221 236 255
221 236 255
221 236 255
221 236 255
221 236 255
221 236 255
221 236 255
221 236 255
221 236 255
221 236 255
221 236 255
221 236 255
221 236 255
221 236 255
88 94 110
0 0 45
0 0 45
0 0 45
0 0 45
0 0 45
0 0 45
0 0 45
0 0 45
0 0 45
0 0 45
0 0 45
0 0 45
0 0 45
0 0 45
0 0 45
0 0 45
0 0 45
0 0 45
0 0 45
0 0 46
0 0 46
0 0 45
0 0 45
0 0 46
0 0 48
0 0 46
0 0 45
0 0 45
0 0 45
0 0 45
0 0 45
0 0 45
0 0 45
0 0 45
0 0 45
0 0 45
0 0 45
0 0 45
0 0 45
0 0 45
0 0 46
0 0 46
0 0 46
0 0 47
0 0 48
0 0 47
0 0 45
0 0 45
0 0 45
0 0 45
0 0 45
0 0 45
0 0 45
0 0 45
0 0 45
0 0 45
0 0 47
0 0 48
0 0 48
0 0 48
0 0 48
0 0 48
0 0 48
0 0 48
0 0 48
0 0 48
0 0 48
0 0 48
0 0 48
0 0 48
0 0 48
0 0 48
0 0 48
0 0 48
0 0 48
0 0 48
0 0 48
0 0 48
0 0 48
0 0 48
0 0 48
0 0 48
0 0 48
0 0 48
0 0 48
0 0 48
0 0 48
0 0 48
0 0 48
0 0 48
0 0 48
0 0 48
0 0 48
0 0 48
0 0 48
0 0 48
0 0 50
0 0 50
0 0 50
0 0 50
0 0 53
0 0 52
0 0 57
7 11 46
17 25 36
11 16 49
5 18 45
0 0 53
0 0 54
0 0 52
0 0 51
0 0 52
0 0 53
0 0 53
0 0 53
0 0 53
0 0 53
0 0 57
0 0 58
0 0 58
0 0 57
0 0 58
0 0 59
0 0 64
0 0 69
0 0 69
0 19 79
9 19 85
63 88 56
86 110 100
94 132 123
37 51 14
64 68 30
63 77 33
47 67 15
36 56 0
38 57 0
37 58 0
35 54 0
33 53 0
32 53 0
34 53 0
36 54 0
31 51 0
28 46 0
25 45 0
24 42 0
24 43 0
23 42 0
20 43 0
22 45 0
21 45 0
20 44 0
22 45 0
23 46 0
23 46 0
21 44 0
22 43 0
18 40 0
19 41 0
22 42 0
23 41 0
22 40 0
24 42 0
26 46 0
30 50 0
26 48 0
26 47 0
27 49 0
27 49 0
24 44 0
23 41 0
23 42 0
24 44 0
22 43 0
23 41 0
25 43 0
27 46 0
31 50 0
32 51 0
27 46 0
34 51 0
35 58 0
33 64 17
27 58 23
28 58 24
46 70 32
47 108 98
30 156 139
2 69 112
1 31 93
0 6 52
0 0 48
0 0 44
0 0 41
0 0 42
0 0 43
0 0 40
0 0 40
0 0 42
0 0 42
0 0 42
0 0 42
0 0 42
0 0 42
0 0 42
0 0 42
0 0 42
0 0 42
0 0 42
0 0 42
0 0 42
0 0 42
0 0 42
91 97 112
221 236 255
221 236 255
221 236 255
221 236 255
221 236 255
221 236 255
221 236 255
221 236 255
221 236 255
221 236 255
221 236 255
221 236 255
221 236 255
221 236 255
221 236 255
221 236 255
221 236 255
221 236 255
221 236 255
221 236 255
221 236 255
221 236 255
221 236 255
221 236 255
221 236 255
221 236 255
221 236 255
221 236 255
221 236 255
221 236 255
221 236 255
221 236 255
221 236 255
221 236 255
221 236 255
221 236 255
221 236 255
221 236 255
221 236 255
221 236 255
221 236 255
221 236 255
221 236 255
221 236 255
221 236 255
221 236 255
221 236 255
221 236 255
221 236 255
221 236 255
221 236 255
221 236 255
221 236 255
221 236 255
221 236 255
221 236 255
221 236 255
221 236 255
221 236 255
221 236 255
221 236 255
221 236 255
221 236 255
221 236 255
221 236 255
221 236 255
221 236 255
221 236 255
221 236 255
221 236 255
221 236 255
221 236 255
221 236 255
221 236 255
221 236 255
221 236 255
221 236 255
221 236 255
221 236 255
221 236 255
221 236 255
221 236 255
221 236 255
221 236 255
221 236 255
221 236 255
221 236 255
221 236 255
221 236 255
221 236 255
221 236 255
221 236 255
221 236 255
221 236 255
221 236 255
221 236 255
221 236 255
221 236 255
221 236 255
221 236 255
221 236 255
221 236 255
221 236 255
221 236 255
221 236 255
221 236 255
221 236 255
221 236 255
221 236 255
221 236 255
221 236 255
221 236 255
221 236 255
221 236 255
221 236 255
221 236 255
221 236 255
221 236 255
221 236 255
221 236 255
221 236 255
221 236 255
221 236 255
221 236 255
221 236 255
221 236 255
221 236 255
221 236 255
221 236 255
221 236 255
221 236 255
221 236 255
221 236 255
221 236 255
221 236 255
221 236 255
221 236 255
221 236 255
221 236 255
221 236 255
221 236 255
221 236 255
221 236 255
221 236 255
221 236 255
221 236 255
221 236 255
221 236 255
221 236 255
221 236 255
221 236 255
221 236 255
221 236 255
221 236 255
221 236 255
221 236 255
221 236 255
221 236 255
221 236 255
221 236 255
221 236 255
221 236 255
221 236 255
221 236 255
221 236 255
221 236 255
221 236 255
221 236 255
221 236 255
221 236 255
221 236 255
221 236 255
221 236 255
221 236 255
221 236 255
221 236 255
221 236 255
221 236 255
221 236 255
221 236 255
221 236 255
221 236 255
221 236 255
221 236 255
101 108 124
0 0 44
0 0 45
0 0 45
0 0 45
0 0 45
0 0 44
0 0 44
0 0 43
0 0 45
0 0 45
0 0 45
0 0 45
0 0 45
0 0 45
0 0 45
0 0 45
0 0 45
0 0 45
0 0 45
0 0 45
0 0 45
0 0 45
0 0 45
0 0 45
0 0 45
0 0 45
0 0 45
0 0 45
0 0 45
0 0 45
0 0 45
0 0 45
0 0 45
0 0 45
0 0 45
0 0 45
0 0 45
0 0 45
0 0 45
0 0 45
0 0 45
0 0 45
0 0 45
0 0 47
0 0 47
0 0 45
0 0 45
0 0 45
0 0 45
0 0 45
0 0 45
0 0 45
0 0 45
0 0 45
0 0 45
0 0 45
0 0 47
0 0 48
0 0 48
0 0 48
0 0 48
0 0 48
0 0 48
0 0 48
0 0 48
0 0 48
0 0 48
0 0 48
0 0 48
0 0 48
0 0 48
0 0 48
0 0 48
0 0 48
0 0 48
0 0 48
0 0 48
0 0 48
0 0 48
0 0 48
0 0 48
0 0 48
0 0 48
0 0 48
0 0 48
0 0 48
0 0 48
0 0 48
0 0 48
0 0 48
0 0 48
0 0 48
0 0 48
0 0 48
0 0 48
0 0 48
0 0 48
0 0 50
0 0 50
0 0 50
0 0 53
0 0 53
0 0 55
8 12 50
19 29 36
9 13 48
1 12 42
0 0 53
0 0 56
0 0 52
0 0 50
0 0 53
0 0 51
0 0 48
0 0 50
0 0 52
0 0 53
0 0 54
0 0 56
0 0 57
0 0 57
0 0 57
0 0 59
0 0 63
0 0 67
0 2 68
0 18 73
33 47 78
59 74 30
86 96 89
108 136 124
56 68 23
72 76 38
53 64 20
34 54 4
31 51 0
34 53 0
37 57 0
32 53 0
31 51 0
34 55 0
38 58 0
36 55 0
31 50 0
28 48 0
28 46 0
26 45 0
28 48 0
24 45 0
20 42 0
23 46 0
26 48 0
23 46 0
20 43 0
17 40 0
14 38 0
16 40 0
19 43 0
19 41 0
20 43 0
21 43 0
23 43 0
27 46 0
24 44 0
23 41 0
24 44 0
27 48 0
26 48 0
23 45 0
22 43 0
23 43 0
21 42 0
25 44 0
24 45 0
20 39 0
27 46 0
24 46 0
26 48 0
26 47 0
30 51 0
27 50 0
30 50 0
37 57 0
33 56 0
27 53 0
24 54 0
47 63 13
30 98 81
35 60 10
34 69 25
23 86 93
11 50 90
0 17 54
0 0 35
0 0 49
0 0 39
0 0 41
0 0 42
0 0 41
0 0 42
0 0 42
0 0 42
0 0 42
0 0 42
0 0 42
0 0 42
0 0 42
0 0 42
0 0 42
0 0 42
0 0 42
0 0 42
0 0 42
0 0 42
85 91 106
221 236 255
221 236 255
221 236 255
221 236 255
221 236 255
221 236 255
221 236 255
221 236 255
221 236 255
221 236 255
221 236 255
221 236 255
221 236 255
221 236 255
221 236 255
221 236 255
221 236 255
221 236 255
221 236 255
221 236 255
221 236 255
221 236 255
221 236 255
221 236 255
221 236 255
221 236 255
221 236 255
221 236 255
221 236 255
221 236 255
221 236 255
221 236 255
221 236 255
221 236 255
221 236 255
221 236 255
221 236 255
221 236 255
221 236 255
221 236 255
221 236 255
221 236 255
221 236 255
221 236 255
221 236 255
221 236 255
221 236 255
221 236 255
221 236 255
221 236 255
221 236 255
221 236 255
221 236 255
221 236 255
221 236 255
221 236 255
221 236 255
221 236 255
221 236 255
221 236 255
221 236 255
221 236 255
221 236 255
221 236 255
221 236 255
221 236 255
221 236 255
221 236 255
221 236 255
221 236 255
221 236 255
221 236 255
221 236 255
221 236 255
221 236 255
221 236 255
221 236 255
221 236 255
221 236 255
221 236 255
221 236 255
221 236 255
221 236 255
221 236 255
221 236 255
221 236 255
221 236 255
221 236 255
221 236 255
221 236 255
221 236 255
221 236 255
221 236 255
221 236 255
221 236 255
221 236 255
221 236 255
221 236 255
221 236 255
221 236 255
221 236 255
221 236 255
221 236 255
221 236 255
221 236 255
221 236 255
221 236 255
221 236 255
221 236 255
221 236 255
221 236 255
221 236 255
221 236 255
221 236 255
221 236 255
221 236 255
221 236 255
221 236 255
221 236 255
221 236 255
221 236 255
221 236 255
221 236 255
221 236 255
221 236 255
221 236 255
221 236 255
221 236 255
221 236 255
221 236 255
221 236 255
221 236 255
221 236 255
221 236 255
221 236 255
221 236 255
221 236 255
221 236 255
221 236 255
221 236 255
221 236 255
221 236 255
221 236 255
221 236 255
221 236 255
221 236 255
221 236 255
221 236 255
221 236 255
221 236 255
221 236 255
221 236 255
221 236 255
221 236 255
221 236 255
221 236 255
221 236 255
221 236 255
221 236 255
221 236 255
221 236 255
221 236 255
221 236 255
221 236 255
221 236 255
221 236 255
221 236 255
221 236 255
221 236 255
221 236 255
221 236 255
221 236 255
221 236 255
221 236 255
221 236 255
221 236 255
221 236 255
221 236 255
221 236 255
221 236 255
221 236 255
221 236 255
221 236 255
221 236 255
101 108 123
0 0 42
0 0 44
0 0 45
0 0 44
0 0 43
0 0 42
0 0 42
0 0 42
0 0 43
0 0 44
0 0 45
0 0 45
0 0 44
0 0 43
0 0 43
0 0 43
0 0 43
0 0 43
0 0 44
0 0 45
0 0 45
0 0 45
0 0 45
0 0 45
0 0 45
0 0 44
0 0 43
0 0 44
0 0 43
0 0 44
0 0 45
0 0 45
0 0 45
0 0 45
0 0 45
0 0 45
0 0 45
0 0 45
0 0 45
0 0 45
0 0 45
0 0 45
0 0 45
0 0 45
0 0 45
0 0 45
0 0 45
0 0 45
0 0 45
0 0 45
0 0 45
0 0 45
0 0 45
0 0 45
0 0 45
0 0 45
0 0 45
0 0 47
0 0 46
0 0 46
0 0 46
0 0 47
0 0 47
0 0 46
0 0 47
0 0 46
0 0 46
0 0 47
0 0 47
0 0 47
0 0 47
0 0 48
0 0 48
0 0 48
0 0 48
0 0 48
0 0 47
0 0 47
0 0 46
0 0 47
0 0 47
0 0 48
0 0 48
0 0 48
0 0 48
0 0 48
0 0 48
0 0 48
0 0 48
0 0 48
0 0 48
0 0 48
0 0 48
0 0 48
0 0 47
0 0 47
0 0 47
0 0 48
0 0 50
0 0 50
0 0 50
0 0 47
0 0 54
0 4 57
0 9 49
0 0 52
0 0 52
0 0 48
0 0 50
0 0 47
0 0 49
0 0 51
0 0 50
0 0 48
0 0 48
0 0 50
0 0 52
0 0 53
0 0 54
0 0 56
0 0 57
0 0 57
0 0 60
0 0 64
0 0 67
0 10 76
0 27 93
51 69 70
57 69 23
120 133 118
130 147 128
62 71 30
72 76 38
50 61 15
33 53 0
34 54 0
33 51 0
32 52 0
33 54 0
30 51 0
31 52 0
32 52 0
28 48 0
27 46 0
32 52 0
32 51 0
26 46 0
28 49 0
26 47 0
26 49 0
25 48 0
23 45 0
23 46 0
24 47 0
19 41 0
14 35 0
14 38 0
18 41 0
18 40 0
22 43 0
21 41 0
21 41 0
23 44 0
25 46 0
22 43 0
18 37 0
24 43 0
28 50 0
21 41 0
13 32 0
22 42 0
21 42 0
25 45 0
26 46 0
23 42 0
25 47 0
28 52 0
28 52 0
28 51 0
34 58 0
30 51 0
33 52 0
37 56 0
30 52 0
26 50 0
23 56 0
36 75 40
35 89 54
43 66 0
41 64 0
39 65 11
30 77 62
15 55 79
0 5 52
0 0 45
0 0 44
0 0 41
0 0 42
0 0 40
0 0 42
0 0 42
0 0 42
0 0 42
0 0 42
0 0 42
0 0 42
0 0 42
0 0 42
0 0 42
0 0 42
0 0 42
0 0 42
0 0 42
0 0 42
94 100 115
221 236 255
221 236 255
221 236 255
221 236 255
221 236 255
221 236 255
221 236 255
221 236 255
221 236 255
221 236 255
221 236 255
221 236 255
221 236 255
221 236 255
221 236 255
221 236 255
221 236 255
221 236 255
221 236 255
221 236 255
221 236 255
221 236 255
221 236 255
221 236 255
221 236 255
221 236 255
221 236 255
221 236 255
221 236 255
221 236 255
221 236 255
221 236 255
221 236 255
221 236 255
221 236 255
221 236 255
221 236 255
221 236 255
221 236 255
221 236 255
221 236 255
221 236 255
221 236 255
221 236 255
221 236 255
221 236 255
221 236 255
221 236 255
221 236 255
221 236 255
221 236 255
221 236 255
221 236 255
221 236 255
221 236 255
221 236 255
221 236 255
221 236 255
221 236 255
221 236 255
221 236 255
221 236 255
221 236 255
221 236 255
221 236 255
221 236 255
221 236 255
221 236 255
221 236 255
221 236 255
221 236 255
221 236 255
221 236 255
221 236 255
221 236 255
221 236 255
221 236 255
221 236 255
221 236 255
221 236 255
221 236 255
221 236 255
221 236 255
221 236 255
221 236 255
221 236 255
221 236 255
221 236 255
221 236 255
221 236 255
221 236 255
221 236 255
221 236 255
221 236 255
221 236 255
221 236 255
221 236 255
221 236 255
221 236 255
221 236 255
221 236 255
221 236 255
221 236 255
221 236 255
221 236 255
221 236 255
221 236 255
221 236 255
221 236 255
221 236 255
221 236 255
221 236 255
221 236 255
221 236 255
221 236 255
221 236 255
221 236 255
221 236 255
221 236 255
221 236 255
221 236 255
221 236 255
221 236 255
221 236 255
221 236 255
221 236 255
221 236 255
221 236 255
221 236 255
221 236 255
221 236 255
221 236 255
221 236 255
221 236 255
221 236 255
221 236 255
221 236 255
221 236 255
221 236 255
221 236 255
221 236 255
221 236 255
221 236 255
221 236 255
221 236 255
221 236 255
221 236 255
221 236 255
221 236 255
221 236 255
221 236 255
221 236 255
221 236 255
221 236 255
221 236 255
221 236 255
221 236 255
221 236 255
221 236 255
221 236 255
221 236 255
221 236 255
221 236 255
221 236 255
221 236 255
221 236 255
221 236 255
221 236 255
221 236 255
221 236 255
221 236 255
221 236 255
221 236 255
221 236 255
221 236 255
221 236 255
221 236 255
221 236 255
221 236 255
221 236 255
221 236 255
221 236 255
221 236 255
221 236 255
99 105 121
0 0 42
0 0 45
0 0 42
0 0 42
0 0 42
0 0 42
0 0 42
0 0 42
0 0 42
0 0 42
0 0 42
0 0 42
0 0 42
0 0 42
0 0 42
0 0 42
0 0 42
0 0 42
0 0 42
0 0 42
0 0 42
0 0 43
0 0 43
0 0 43
0 0 42
0 0 42
0 0 42
0 0 42
0 0 42
0 0 43
0 0 45
0 0 45
0 0 45
0 0 45
0 0 45
0 0 45
0 0 45
0 0 45
0 0 45
0 0 45
0 0 45
0 0 45
0 0 45
0 0 45
0 0 45
0 0 45
0 0 45
0 0 45
0 0 45
0 0 45
0 0 45
0 0 45
0 0 45
0 0 45
0 0 45
0 0 45
0 0 45
0 0 45
0 0 45
0 0 45
0 0 45
0 0 45
0 0 45
0 0 45
0 0 45
0 0 45
0 0 45
0 0 45
0 0 45
0 0 45
0 0 46
0 0 46
0 0 46
0 0 46
0 0 46
0 0 46
0 0 45
0 0 45
0 0 45
0 0 45
0 0 45
0 0 46
0 0 47
0 0 48
0 0 48
0 0 48
0 0 48
0 0 48
0 0 47
0 0 46
0 0 46
0 0 46
0 0 46
0 0 46
0 0 45
0 0 45
0 0 45
0 0 48
0 0 48
0 0 50
0 0 49
0 0 47
0 0 48
0 0 49
0 0 47
0 0 47
0 0 56
0 0 48
0 0 46
0 0 45
0 0 47
0 0 46
0 0 48
0 0 48
0 0 48
0 0 49
0 0 52
0 0 53
0 0 53
0 0 55
0 0 57
0 0 58
0 0 61
0 0 65
0 2 71
0 12 74
0 29 96
59 79 78
54 73 20
113 133 124
148 162 161
54 64 24
69 74 34
39 53 9
27 47 0
31 51 0
29 48 0
30 50 0
32 54 0
30 53 0
29 50 0
27 48 0
26 46 0
27 46 0
33 53 0
31 52 0
24 45 0
24 46 0
28 49 0
30 52 0
30 52 0
22 46 0
20 45 0
25 47 0
21 45 0
14 38 0
17 41 0
20 43 0
22 43 0
22 44 0
19 40 0
20 41 0
19 41 0
21 43 0
23 45 0
21 43 0
20 41 0
24 47 0
25 46 0
16 35 0
21 42 0
20 43 0
25 45 0
27 48 0
26 46 0
30 46 0
41 56 0
38 53 0
40 56 0
44 59 0
40 56 0
40 56 0
33 54 0
22 47 0
26 54 14
21 67 24
23 80 43
36 64 13
36 63 0
40 66 0
39 67 0
34 62 8
29 68 60
8 26 70
3 11 51
0 0 41
0 0 43
0 0 44
0 0 42
0 0 42
0 0 42
0 0 42
0 0 42
0 0 42
0 0 42
0 0 42
0 0 42
0 0 42
0 0 42
0 0 42
0 0 42
0 0 42
0 0 42
0 0 42
110 118 133
221 236 255
221 236 255
221 236 255
221 236 255
221 236 255
221 236 255
221 236 255
221 236 255
221 236 255
221 236 255
221 236 255
221 236 255
221 236 255
221 236 255
221 236 255
221 236 255
221 236 255
221 236 255
221 236 255
221 236 255
221 236 255
221 236 255
221 236 255
221 236 255
221 236 255
221 236 255
221 236 255
221 236 255
221 236 255
221 236 255
221 236 255
221 236 255
221 236 255
221 236 255
221 236 255
221 236 255
221 236 255
221 236 255
221 236 255
221 236 255
221 236 255
221 236 255
221 236 255
221 236 255
221 236 255
221 236 255
221 236 255
221 236 255
221 236 255
221 236 255
221 236 255
221 236 255
221 236 255
221 236 255
221 236 255
221 236 255
221 236 255
221 236 255
221 236 255
221 236 255
221 236 255
221 236 255
221 236 255
221 236 255
221 236 255
221 236 255
221 236 255
221 236 255
221 236 255
221 236 255
221 236 255
221 236 255
221 236 255
221 236 255
221 236 255
221 236 255
221 236 255
221 236 255
221 236 255
221 236 255
221 236 255
221 236 255
221 236 255
221 236 255
221 236 255
221 236 255
221 236 255
221 236 255
221 236 255
221 236 255
221 236 255
221 236 255
221 236 255
221 236 255
221 236 255
221 236 255
221 236 255
221 236 255
221 236 255
221 236 255
221 236 255
221 236 255
221 236 255
221 236 255
221 236 255
221 236 255
221 236 255
221 236 255
221 236 255
221 236 255
221 236 255
221 236 255
221 236 255
221 236 255
221 236 255
221 236 255
221 236 255
221 236 255
221 236 255
221 236 255
221 236 255
221 236 255
221 236 255
221 236 255
221 236 255
221 236 255
221 236 255
221 236 255
221 236 255
221 236 255
221 236 255
221 236 255
221 236 255
221 236 255
221 236 255
221 236 255
221 236 255
221 236 255
221 236 255
221 236 255
221 236 255
221 236 255
221 236 255
221 236 255
221 236 255
221 236 255
221 236 255
221 236 255
221 236 255
221 236 255
221 236 255
221 236 255
221 236 255
221 236 255
221 236 255
221 236 255
221 236 255
221 236 255
221 236 255
221 236 255
221 236 255
221 236 255
221 236 255
221 236 255
221 236 255
221 236 255
221 236 255
221 236 255
221 236 255
221 236 255
221 236 255
221 236 255
221 236 255
221 236 255
221 236 255
221 236 255
221 236 255
221 236 255
221 236 255
221 236 255
221 236 255
221 236 255
221 236 255
221 236 255
101 108 123
0 0 42
0 0 44
0 0 41
0 0 41
0 0 42
0 0 42
0 0 42
0 0 42
0 0 42
0 0 42
0 0 42
0 0 42
0 0 42
0 0 42
0 0 42
0 0 41
0 0 41
0 0 40
0 0 41
0 0 42
0 0 42
0 0 42
0 0 42
0 0 42
0 0 42
0 0 42
0 0 42
0 0 42
0 0 42
0 0 42
0 0 42
0 0 42
0 0 42
0 0 42
0 0 42
0 0 42
0 0 42
0 0 42
0 0 43
0 0 44
0 0 44
0 0 44
0 0 44
0 0 44
0 0 45
0 0 45
0 0 45
0 0 45
0 0 45
0 0 45
0 0 45
0 0 45
0 0 45
0 0 45
0 0 45
0 0 45
0 0 45
0 0 45
0 0 45
0 0 45
0 0 45
0 0 45
0 0 45
0 0 45
0 0 45
0 0 45
0 0 45
0 0 45
0 0 45
0 0 45
0 0 45
0 0 45
0 0 45
0 0 45
0 0 45
0 0 45
0 0 45
0 0 45
0 0 45
0 0 45
0 0 45
0 0 45
0 0 45
0 0 45
0 0 46
0 0 45
0 0 45
0 0 45
0 0 45
0 0 45
0 0 45
0 0 45
0 0 45
0 0 45
0 0 45
0 0 45
0 0 47
0 0 48
0 0 48
0 0 48
0 0 48
0 0 45
0 0 44
0 0 52
0 0 47
0 0 38
0 0 42
0 0 48
0 0 46
0 0 45
0 0 45
0 0 44
0 0 44
0 0 47
0 0 48
0 0 50
0 0 52
0 0 53
0 0 53
0 0 57
0 0 61
0 0 62
0 0 64
0 10 70
0 19 79
0 22 85
8 36 105
72 92 99
55 77 30
120 143 122
173 183 183
56 60 32
57 66 23
40 56 7
28 51 0
27 49 0
27 48 0
29 52 0
29 52 0
31 53 0
30 51 0
30 51 0
31 51 0
29 49 0
32 53 0
30 51 0
23 43 0
24 44 0
24 48 0
27 50 0
30 51 0
24 46 0
20 42 0
21 45 0
20 43 0
16 40 0
22 45 0
23 48 0
26 50 0
27 50 0
22 44 0
23 44 0
21 42 0
19 39 0
19 43 0
21 44 0
23 44 0
19 41 0
24 47 0
21 45 0
22 44 0
23 42 0
26 45 0
32 49 0
35 51 0
36 51 0
39 53 0
35 50 0
44 60 0
35 52 0
32 52 0
31 53 0
26 50 0
29 52 0
29 50 0
34 53 0
39 52 0
36 62 0
39 61 0
35 62 0
36 60 4
41 64 3
32 64 33
22 69 81
44 61 67
13 20 51
0 2 47
0 0 50
0 0 43
0 0 42
0 0 42
0 0 42
0 0 42
0 0 42
0 0 42
0 0 42
0 0 42
0 0 42
0 0 42
0 0 42
0 0 42
0 0 42
0 0 42
0 0 42
115 122 137
221 236 255
221 236 255
221 236 255
221 236 255
221 236 255
221 236 255
221 236 255
221 236 255
221 236 255
221 236 255
221 236 255
221 236 255
221 236 255
221 236 255
221 236 255
221 236 255
221 236 255
221 236 255
221 236 255
221 236 255
221 236 255
221 236 255
221 236 255
221 236 255
221 236 255
221 236 255
221 236 255
221 236 255
221 236 255
221 236 255
221 236 255
221 236 255
221 236 255
221 236 255
221 236 255
221 236 255
221 236 255
221 236 255
221 236 255
221 236 255
221 236 255
221 236 255
221 236 255
221 236 255
221 236 255
221 236 255
221 236 255
221 236 255
221 236 255
221 236 255
221 236 255
221 236 255
221 236 255
221 236 255
221 236 255
221 236 255
221 236 255
221 236 255
221 236 255
221 236 255
221 236 255
221 236 255
221 236 255
221 236 255
221 236 255
221 236 255
221 236 255
221 236 255
221 236 255
221 236 255
221 236 255
221 236 255
221 236 255
221 236 255
221 236 255
221 236 255
221 236 255
221 236 255
221 236 255
221 236 255
221 236 255
221 236 255
221 236 255
221 236 255
221 236 255
221 236 255
221 236 255
221 236 255
221 236 255
221 236 255
221 236 255
221 236 255
222 236 255
222 236 255
222 236 255
222 236 255
222 236 255
222 236 255
222 236 255
222 236 255
222 236 255
222 236 255
222 236 255
222 236 255
222 236 255
222 236 255
222 236 255
222 236 255
222 236 255
222 236 255
222 236 255
222 236 255
222 236 255
222 236 255
222 236 255
222 236 255
222 236 255
222 236 255
222 236 255
222 236 255
222 236 255
222 236 255
222 236 255
222 236 255
222 236 255
222 236 255
222 236 255
222 236 255
222 236 255
222 236 255
222 236 255
222 236 255
222 236 255
222 236 255
222 236 255
222 236 255
222 236 255
222 236 255
222 236 255
222 236 255
222 236 255
222 236 255
222 236 255
222 236 255
222 236 255
222 236 255
222 236 255
222 236 255
222 236 255
222 236 255
222 236 255
222 236 255
222 236 255
222 236 255
222 236 255
222 236 255
222 236 255
222 236 255
222 236 255
222 236 255
222 236 255
222 236 255
222 236 255
222 236 255
222 236 255
222 236 255
222 236 255
222 236 255
222 236 255
222 236 255
222 236 255
222 236 255
222 236 255
222 236 255
222 236 255
222 236 255
222 236 255
222 236 255
222 236 255
222 236 255
222 236 255
222 236 255
222 236 255
222 236 255
129 137 153
0 0 42
0 0 42
0 0 42
0 0 42
0 0 42
0 0 42
0 0 42
0 0 42
0 0 42
0 0 42
0 0 42
0 0 42
0 0 42
0 0 42
0 0 42
0 0 41
0 0 41
0 0 41
0 0 42
0 0 42
0 0 42
0 0 42
0 0 42
0 0 42
0 0 42
0 0 42
0 0 42
0 0 42
0 0 42
0 0 42
0 0 42
0 0 42
0 0 42
0 0 42
0 0 42
0 0 42
0 0 42
0 0 42
0 0 42
0 0 42
0 0 42
0 0 42
0 0 42
0 0 42
0 0 44
0 0 44
0 0 44
0 0 44
0 0 44
0 0 44
0 0 43
0 0 44
0 0 44
0 0 44
0 0 44
0 0 44
0 0 44
0 0 44
0 0 44
0 0 44
0 0 44
0 0 44
0 0 45
0 0 45
0 0 45
0 0 45
0 0 45
0 0 45
0 0 45
0 0 45
0 0 45
0 0 45
0 0 45
0 0 45
0 0 45
0 0 45
0 0 45
0 0 45
0 0 45
0 0 45
0 0 45
0 0 45
0 0 45
0 0 45
0 0 45
0 0 45
0 0 45
0 0 45
0 0 45
0 0 45
0 0 45
0 0 45
0 0 45
0 0 45
0 0 45
0 0 45
0 0 47
0 0 48
0 0 48
0 0 48
0 0 49
0 0 49
0 0 42
0 0 49
0 0 47
0 0 47
0 0 52
0 0 46
0 0 46
0 0 44
0 0 44
0 0 45
0 0 45
0 0 48
0 0 50
0 0 51
0 0 52
0 0 53
0 0 56
0 0 61
0 0 64
0 3 65
0 11 69
0 16 76
0 25 86
0 33 94
0 32 89
12 26 87
47 83 96
108 142 149
83 97 83
62 73 26
55 67 23
39 56 7
23 45 0
30 52 0
32 53 0
30 51 0
31 53 0
28 50 0
22 43 0
25 47 0
30 52 0
29 51 0
29 52 0
27 49 0
24 44 0
24 45 0
24 47 0
25 48 0
27 48 0
24 46 0
25 47 0
26 49 0
23 46 0
23 48 0
22 47 0
26 49 0
28 52 0
29 52 0
26 49 0
23 46 0
17 40 0
14 36 0
16 39 0
22 43 0
23 44 0
19 38 0
22 44 0
27 48 0
25 44 0
24 43 0
26 47 0
29 47 0
31 49 0
30 49 0
27 50 0
28 50 0
34 56 0
26 49 0
27 49 0
39 62 0
32 55 0
30 52 0
28 51 0
29 53 0
36 56 0
33 59 0
39 59 0
33 55 0
37 54 5
45 64 4
37 67 28
34 63 29
63 77 41
39 56 43
29 42 42
40 57 35
25 30 47
0 0 38
0 0 38
0 0 41
0 0 40
0 0 42
0 0 41
0 0 42
0 0 42
0 0 42
0 0 42
0 0 42
0 0 42
0 0 42
0 0 42
0 0 42
140 149 165
222 236 255
222 236 255
222 236 255
222 236 255
222 236 255
222 236 255
222 236 255
222 236 255
222 236 255
222 236 255
222 236 255
222 236 255
222 236 255
222 236 255
222 236 255
222 236 255
222 236 255
222 236 255
222 236 255
222 236 255
222 236 255
222 236 255
222 236 255
222 236 255
222 236 255
222 236 255
222 236 255
222 236 255
222 236 255
222 236 255
222 236 255
222 236 255
222 236 255
222 236 255
222 236 255
222 236 255
222 236 255
222 236 255
222 236 255
222 236 255
222 236 255
222 236 255
222 236 255
222 236 255
222 236 255
222 236 255
222 236 255
222 236 255
222 236 255
222 236 255
222 236 255
222 236 255
222 236 255
222 236 255
222 236 255
222 236 255
222 236 255
222 236 255
222 236 255
222 236 255
222 236 255
222 236 255
222 236 255
222 236 255
222 236 255
222 236 255
222 236 255
222 236 255
222 236 255
222 236 255
222 236 255
222 236 255
222 236 255
222 236 255
222 236 255
222 236 255
222 236 255
222 236 255
222 236 255
222 236 255
222 236 255
222 236 255
222 236 255
222 236 255
222 236 255
222 236 255
222 236 255
222 236 255
222 236 255
222 236 255
222 236 255
222 236 255
222 236 255
222 236 255
222 236 255
222 236 255
222 236 255
222 236 255
222 236 255
222 236 255
222 236 255
222 236 255
222 236 255
222 236 255
222 236 255
222 236 255
222 236 255
222 236 255
222 236 255
222 236 255
222 236 255
222 236 255
222 236 255
222 236 255
222 236 255
222 236 255
222 236 255
222 236 255
222 236 255
222 236 255
222 236 255
222 236 255
222 236 255
222 236 255
222 236 255
222 236 255
222 236 255
222 236 255
222 236 255
222 236 255
222 236 255
222 236 255
222 236 255
222 236 255
222 236 255
222 236 255
222 236 255
222 236 255
222 236 255
222 236 255
222 236 255
222 236 255
222 236 255
222 236 255
222 236 255
222 236 255
222 236 255
222 236 255
222 236 255
222 236 255
222 236 255
222 236 255
222 236 255
222 236 255
222 236 255
222 236 255
222 236 255
222 236 255
222 236 255
222 236 255
222 236 255
222 236 255
222 236 255
222 236 255
222 236 255
222 236 255
222 236 255
222 236 255
222 236 255
222 236 255
222 236 255
222 236 255
222 236 255
222 236 255
222 236 255
222 236 255
222 236 255
222 236 255
222 236 255
222 236 255
222 236 255
222 236 255
222 236 255
222 236 255
138 147 163
0 0 42
0 0 42
0 0 42
0 0 42
0 0 42
0 0 42
0 0 42
0 0 42
0 0 42
0 0 42
0 0 42
0 0 42
0 0 42
0 0 42
0 0 42
0 0 42
0 0 42
0 0 42
0 0 42
0 0 42
0 0 42
0 0 42
0 0 42
0 0 42
0 0 42
0 0 42
0 0 42
0 0 42
0 0 42
0 0 42
0 0 42
0 0 42
0 0 42
0 0 42
0 0 42
0 0 42
0 0 42
0 0 42
0 0 42
0 0 42
0 0 42
0 0 42
0 0 42
0 0 42
0 0 42
0 0 42
0 0 42
0 0 42
0 0 42
0 0 42
0 0 42
0 0 42
0 0 42
0 0 42
0 0 42
0 0 42
0 0 42
0 0 42
0 0 42
0 0 42
0 0 42
0 0 43
0 0 45
0 0 45
0 0 45
0 0 45
0 0 45
0 0 45
0 0 45
0 0 45
0 0 45
0 0 45
0 0 45
0 0 45
0 0 45
0 0 45
0 0 45
0 0 45
0 0 45
0 0 45
0 0 45
0 0 45
0 0 45
0 0 45
0 0 45
0 0 45
0 0 45
0 0 45
0 0 45
0 0 45
0 0 45
0 0 45
0 0 45
0 0 45
0 0 46
0 0 48
0 0 48
0 0 48
0 0 48
0 0 48
0 0 48
0 0 48
0 0 47
0 0 47
0 0 48
0 0 47
0 0 45
0 0 48
0 0 46
0 0 45
0 0 43
0 0 44
0 0 45
0 0 45
0 0 48
0 0 49
0 0 52
0 0 55
0 0 59
0 0 63
0 0 65
0 4 67
0 10 72
0 15 77
0 23 84
0 24 88
0 25 88
2 27 89
58 103 129
99 141 140
66 77 50
63 67 31
43 60 11
33 52 0
25 45 0
25 47 0
26 49 0
30 52 0
31 50 0
26 46 0
22 43 0
23 44 0
26 46 0
26 47 0
25 50 0
24 48 0
24 45 0
24 46 0
23 48 0
22 44 0
22 45 0
23 47 0
30 53 0
30 53 0
27 51 0
20 44 0
19 44 0
24 45 0
23 46 0
26 47 0
26 48 0
24 47 0
21 44 0
14 37 0
18 40 0
23 43 0
23 43 0
23 42 0
28 45 0
32 52 0
27 46 0
27 48 0
27 49 0
25 45 0
24 48 0
25 48 0
25 48 0
28 49 0
28 50 0
28 50 0
33 53 0
43 65 0
37 60 0
37 59 0
29 52 0
34 57 1
35 57 3
30 53 0
37 58 0
36 57 0
39 60 0
40 60 0
35 63 6
34 54 0
42 59 3
41 60 6
44 66 10
47 69 6
50 68 25
22 30 46
0 0 43
0 0 42
0 0 43
0 0 44
0 0 41
0 0 42
0 0 42
0 0 42
0 0 42
0 0 42
0 0 42
0 0 42
0 0 42
0 0 42
140 149 165
222 236 255
222 236 255
222 236 255
222 236 255
222 236 255
222 236 255
222 236 255
222 236 255
222 236 255
222 236 255
222 236 255
222 236 255
222 236 255
222 236 255
222 236 255
222 236 255
222 236 255
222 236 255
222 236 255
222 236 255
222 236 255
222 236 255
222 236 255
222 236 255
222 236 255
222 236 255
222 236 255
222 236 255
222 236 255
222 236 255
222 236 255
222 236 255
222 236 255
222 236 255
222 236 255
222 236 255
222 236 255
222 236 255
222 236 255
222 236 255
222 236 255
222 236 255
222 236 255
222 236 255
222 236 255
222 236 255
222 236 255
222 236 255
222 236 255
222 236 255
222 236 255
222 236 255
222 236 255
222 236 255
222 236 255
222 236 255
222 236 255
222 236 255
222 236 255
222 236 255
222 236 255
222 236 255
222 236 255
222 236 255
222 236 255
222 236 255
222 236 255
222 236 255
222 236 255
222 236 255
222 236 255
222 236 255
222 236 255
222 236 255
222 236 255
222 236 255
222 236 255
222 236 255
222 236 255
222 236 255
222 236 255
222 236 255
222 236 255
222 236 255
222 236 255
222 236 255
222 236 255
222 236 255
222 236 255
222 236 255
222 236 255
222 236 255
222 236 255
222 236 255
222 236 255
222 236 255
222 236 255
222 236 255
222 236 255
222 236 255
222 236 255
222 236 255
222 236 255
222 236 255
222 236 255
222 236 255
222 236 255
222 236 255
222 236 255
222 236 255
222 236 255
222 236 255
222 236 255
222 236 255
222 236 255
222 236 255
222 236 255
222 236 255
222 236 255
222 236 255
222 236 255
222 236 255
222 236 255
222 236 255
222 236 255
222 236 255
222 236 255
222 236 255
222 236 255
222 236 255
222 236 255
222 236 255
222 236 255
222 236 255
222 236 255
222 236 255
222 236 255
222 236 255
222 236 255
222 236 255
222 236 255
222 236 255
222 236 255
222 236 255
222 236 255
222 236 255
222 236 255
222 236 255
222 236 255
222 236 255
222 236 255
222 236 255
222 236 255
222 236 255
222 236 255
222 236 255
222 236 255
222 236 255
222 236 255
222 236 255
222 236 255
222 236 255
222 236 255
222 236 255
222 236 255
222 236 255
222 236 255
222 236 255
222 236 255
222 236 255
222 236 255
222 236 255
222 236 255
222 236 255
222 236 255
222 236 255
222 236 255
222 236 255
222 236 255
222 236 255
222 236 255
222 236 255
222 236 255
222 236 255
135 143 159
0 0 42
0 0 42
0 0 42
0 0 42
0 0 42
0 0 42
0 0 42
0 0 42
0 0 42
0 0 42
0 0 42
0 0 42
0 0 42
0 0 42
0 0 42
0 0 42
0 0 42
0 0 42
0 0 42
0 0 42
0 0 42
0 0 42
0 0 42
0 0 42
0 0 42
0 0 42
0 0 42
0 0 42
0 0 42
0 0 42
0 0 42
0 0 42
0 0 42
0 0 42
0 0 42
0 0 42
0 0 42
0 0 42
0 0 42
0 0 42
0 0 42
0 0 42
0 0 42
0 0 42
0 0 42
0 0 42
0 0 42
0 0 42
0 0 42
0 0 42
0 0 42
0 0 42
0 0 42
0 0 42
0 0 42
0 0 42
0 0 42
0 0 42
0 0 42
0 0 42
0 0 42
0 0 42
0 0 45
0 0 45
0 0 45
0 0 45
0 0 45
0 0 45
0 0 45
0 0 45
0 0 45
0 0 45
0 0 45
0 0 45
0 0 45
0 0 45
0 0 45
0 0 45
0 0 45
0 0 45
0 0 45
0 0 45
0 0 45
0 0 45
0 0 45
0 0 45
0 0 45
0 0 45
0 0 45
0 0 45
0 0 45
0 0 45
0 0 45
0 0 45
0 0 47
0 0 49
0 0 50
0 0 50
0 0 49
0 0 49
0 0 49
0 0 48
0 0 46
0 0 46
0 0 48
0 0 46
0 0 45
0 0 47
0 0 45
0 0 45
0 0 45
0 0 45
0 0 45
0 0 45
0 0 48
0 0 51
0 0 53
0 0 58
0 0 62
0 0 65
0 0 65
0 0 67
0 0 70
0 11 75
0 20 83
0 21 82
0 21 87
32 54 73
67 94 86
84 101 78
59 68 23
44 64 15
38 54 0
33 54 0
25 47 0
23 46 0
23 48 0
25 48 0
26 48 0
22 45 0
22 44 0
17 39 0
21 40 0
26 46 0
24 46 0
21 45 0
22 44 0
24 46 0
24 48 0
21 44 0
22 44 0
24 48 0
26 50 0
25 47 0
22 44 0
19 44 0
22 46 0
24 48 0
23 45 0
20 43 0
22 44 0
26 48 0
24 46 0
22 43 0
23 47 0
25 47 0
24 44 0
23 45 0
25 45 0
24 45 0
27 46 0
24 45 0
25 45 0
20 42 0
23 46 0
25 47 0
24 46 0
28 49 0
29 51 0
34 55 0
30 52 0
32 54 0
32 55 0
35 59 0
33 57 0
33 53 6
38 59 8
30 52 0
34 55 0
30 51 0
39 60 0
46 65 6
34 57 1
33 53 0
37 56 0
41 59 10
43 61 5
48 69 17
51 71 8
42 58 26
7 10 43
0 0 40
0 0 41
0 0 43
0 0 42
0 0 42
0 0 42
0 0 42
0 0 42
0 0 42
0 0 42
0 0 42
0 0 42
0 0 42
150 160 176
222 236 255
222 236 255
222 236 255
222 236 255
222 236 255
222 236 255
222 236 255
222 236 255
222 236 255
222 236 255
222 236 255
222 236 255
222 236 255
222 236 255
222 236 255
222 236 255
222 236 255
222 236 255
222 236 255
222 236 255
222 236 255
222 236 255
222 236 255
222 236 255
222 236 255
222 236 255
222 236 255
222 236 255
222 236 255
222 236 255
222 236 255
222 236 255
222 236 255
222 236 255
222 236 255
222 236 255
222 236 255
222 236 255
222 236 255
222 236 255
222 236 255
222 236 255
222 236 255
222 236 255
222 236 255
222 236 255
222 236 255
222 236 255
222 236 255
222 236 255
222 236 255
222 236 255
222 236 255
222 236 255
222 236 255
222 236 255
222 236 255
222 236 255
222 236 255
222 236 255
222 236 255
222 236 255
222 236 255
222 236 255
222 236 255
222 236 255
222 236 255
222 236 255
222 236 255
222 236 255
222 236 255
222 236 255
222 236 255
222 236 255
222 236 255
222 236 255
222 236 255
222 236 255
222 236 255
222 236 255
222 236 255
222 236 255
222 236 255
222 236 255
222 236 255
222 236 255
222 236 255
222 236 255
222 236 255
222 236 255
222 236 255
222 236 255
222 236 255
222 236 255
222 236 255
222 236 255
222 236 255
222 236 255
222 236 255
222 236 255
222 236 255
222 236 255
222 236 255
222 236 255
222 236 255
222 236 255
222 236 255
222 236 255
222 236 255
222 236 255
222 236 255
222 236 255
222 236 255
222 236 255
222 236 255
222 236 255
222 236 255
222 236 255
222 236 255
222 236 255
222 236 255
222 236 255
222 236 255
222 236 255
222 236 255
222 236 255
222 236 255
222 236 255
222 236 255
222 236 255
222 236 255
222 236 255
222 236 255
222 236 255
222 236 255
222 236 255
222 236 255
222 236 255
222 236 255
222 236 255
222 236 255
222 236 255
222 236 255
222 236 255
222 236 255
222 236 255
222 236 255
222 236 255
222 236 255
222 236 255
222 236 255
222 236 255
222 236 255
222 236 255
222 236 255
222 236 255
222 236 255
222 236 255
222 236 255
222 236 255
222 236 255
222 236 255
222 236 255
222 236 255
222 236 255
222 236 255
222 236 255
222 236 255
222 236 255
222 236 255
222 236 255
222 236 255
222 236 255
222 236 255
222 236 255
222 236 255
222 236 255
222 236 255
222 236 255
222 236 255
222 236 255
222 236 255
222 236 255
222 236 255
152 162 178
0 0 42
0 0 42
0 0 42
0 0 42
0 0 42
0 0 42
0 0 42
0 0 42
0 0 42
0 0 42
0 0 42
0 0 42
0 0 42
0 0 42
0 0 42
0 0 42
0 0 42
0 0 42
0 0 42
0 0 42
0 0 42
0 0 42
0 0 42
0 0 42
0 0 42
0 0 42
0 0 42
0 0 42
0 0 42
0 0 42
0 0 42
0 0 42
0 0 42
0 0 42
0 0 42
0 0 42
0 0 42
0 0 42
0 0 42
0 0 42
0 0 42
0 0 42
0 0 42
0 0 42
0 0 42
0 0 42
0 0 42
0 0 42
0 0 42
0 0 42
0 0 42
0 0 42
0 0 42
0 0 42
0 0 42
0 0 42
0 0 42
0 0 42
0 0 42
0 0 42
0 0 42
0 0 42
0 0 45
0 0 45
0 0 45
0 0 45
0 0 45
0 0 45
0 0 45
0 0 45
0 0 44
0 0 44
0 0 44
0 0 44
0 0 44
0 0 44
0 0 44
0 0 44
0 0 45
0 0 45
0 0 45
0 0 45
0 0 45
0 0 45
0 0 45
0 0 45
0 0 45
0 0 45
0 0 45
0 0 45
0 0 45
0 0 45
0 0 45
0 0 47
0 0 49
0 0 51
0 0 50
0 0 50
0 0 50
0 0 50
0 0 50
0 0 48
0 0 47
0 0 47
0 0 48
0 0 47
0 0 46
0 0 45
0 0 45
0 0 45
0 0 45
0 0 45
0 0 46
0 0 46
0 0 48
0 0 51
0 0 54
0 0 59
0 0 64
0 0 66
0 0 67
0 0 67
0 0 69
0 13 79
0 25 89
5 24 88
47 53 77
55 73 37
40 61 13
44 66 11
54 59 21
41 54 4
37 55 0
39 59 0
31 54 0
22 46 0
24 49 0
24 48 0
22 49 0
20 46 0
19 45 0
17 41 0
21 42 0
28 47 0
21 42 0
19 41 0
19 42 0
23 46 0
23 46 0
23 46 0
27 49 0
25 46 0
20 42 0
21 42 0
19 41 0
21 45 0
26 48 0
26 48 0
24 46 0
23 44 0
17 41 0
20 43 0
19 42 0
20 42 0
23 44 0
22 46 0
22 45 0
19 43 0
19 42 0
19 43 0
20 41 0
20 39 0
24 46 0
22 44 0
25 48 0
29 52 0
27 51 0
30 51 0
28 50 0
28 50 0
28 51 0
30 52 0
29 53 0
30 54 0
34 59 0
30 51 3
39 60 10
34 55 0
42 62 0
38 58 0
43 64 8
47 67 10
41 60 0
36 56 0
33 51 0
43 62 6
48 64 15
50 68 17
52 70 18
52 69 17
25 32 45
0 0 42
0 0 44
0 0 42
0 0 44
0 0 42
0 0 42
0 0 42
0 0 42
0 0 42
0 0 42
0 0 42
0 0 42
0 0 42
169 179 196
222 236 255
222 236 255
222 236 255
222 236 255
222 236 255
222 236 255
222 236 255
222 236 255
222 236 255
222 236 255
222 236 255
222 236 255
222 236 255
222 236 255
222 236 255
222 236 255
222 236 255
222 236 255
222 236 255
222 236 255
222 236 255
222 236 255
222 236 255
222 236 255
222 236 255
222 236 255
222 236 255
222 236 255
222 236 255
222 236 255
222 236 255
222 236 255
222 236 255
222 236 255
222 236 255
222 236 255
222 236 255
222 236 255
222 236 255
222 236 255
222 236 255
222 236 255
222 236 255
222 236 255
222 236 255
222 236 255
222 236 255
222 236 255
222 236 255
222 236 255
222 236 255
222 236 255
222 236 255
222 236 255
222 236 255
222 236 255
222 236 255
222 236 255
222 236 255
222 236 255
222 236 255
222 236 255
222 236 255
222 236 255
222 236 255
222 236 255
222 236 255
222 236 255
222 236 255
222 236 255
222 236 255
222 236 255
222 236 255
222 236 255
222 236 255
222 236 255
222 236 255
222 236 255
222 236 255
222 236 255
222 236 255
222 236 255
222 236 255
222 236 255
222 236 255
222 236 255
222 236 255
222 236 255
222 236 255
222 236 255
222 236 255
222 236 255
222 236 255
222 236 255
222 236 255
222 236 255
222 236 255
222 236 255
222 236 255
222 236 255
222 236 255
222 236 255
222 236 255
222 236 255
222 236 255
222 236 255
222 236 255
222 236 255
222 236 255
222 236 255
222 236 255
222 236 255
222 236 255
222 236 255
222 236 255
222 236 255
222 236 255
222 236 255
222 236 255
222 236 255
222 236 255
222 236 255
222 236 255
222 236 255
222 236 255
222 236 255
222 236 255
222 236 255
222 236 255
222 236 255
222 236 255
222 236 255
222 236 255
222 236 255
222 236 255
222 236 255
222 236 255
222 236 255
222 236 255
222 236 255
222 236 255
222 236 255
222 236 255
222 236 255
222 236 255
222 236 255
222 236 255
222 236 255
222 236 255
222 236 255
222 236 255
222 236 255
222 236 255
222 236 255
222 236 255
222 236 255
222 236 255
222 236 255
222 236 255
222 236 255
222 236 255
222 236 255
222 236 255
222 236 255
222 236 255
222 236 255
222 236 255
222 236 255
222 236 255
222 236 255
222 236 255
222 236 255
222 236 255
222 236 255
222 236 255
222 236 255
222 236 255
222 236 255
222 236 255
222 236 255
222 236 255
222 236 255
222 236 255
222 236 255
163 173 190
0 0 42
0 0 42
0 0 42
0 0 42
0 0 42
0 0 42
0 0 42
0 0 42
0 0 42
0 0 42
0 0 42
0 0 42
0 0 42
0 0 42
0 0 42
0 0 42
0 0 42
0 0 42
0 0 42
0 0 42
0 0 42
0 0 42
0 0 42
0 0 42
0 0 42
0 0 42
0 0 42
0 0 42
0 0 42
0 0 42
0 0 42
0 0 42
0 0 42
0 0 42
0 0 42
0 0 42
0 0 42
0 0 42
0 0 42
0 0 42
0 0 42
0 0 42
0 0 42
0 0 42
0 0 42
0 0 42
0 0 42
0 0 42
0 0 42
0 0 42
0 0 42
0 0 42
0 0 42
0 0 42
0 0 42
0 0 42
0 0 42
0 0 42
0 0 42
0 0 42
0 0 42
0 0 42
0 0 45
0 0 45
0 0 45
0 0 45
0 0 45
0 0 45
0 0 44
0 0 43
0 0 42
0 0 42
0 0 42
0 0 42
0 0 42
0 0 42
0 0 42
0 0 42
0 0 44
0 0 45
0 0 45
0 0 45
0 0 45
0 0 45
0 0 45
0 0 45
0 0 45
0 0 45
0 0 45
0 0 45
0 0 45
0 0 45
0 0 46
0 0 48
0 0 50
0 0 53
0 0 53
0 0 52
0 0 52
0 0 52
0 0 51
0 0 48
0 0 48
0 0 48
0 0 48
0 0 48
0 0 48
0 0 47
0 0 45
0 0 45
0 0 45
0 0 45
0 0 47
0 0 47
0 0 48
0 0 51
0 0 55
0 0 58
0 0 61
0 0 63
0 0 64
0 0 64
0 0 65
0 16 75
0 29 92
15 52 98
92 101 81
84 88 37
57 77 29
51 66 14
48 57 14
37 54 0
36 55 0
36 57 0
25 49 0
21 44 0
24 48 0
23 49 0
21 48 0
20 48 0
19 48 0
21 47 0
24 46 0
25 45 0
21 42 0
19 41 0
19 40 0
19 42 0
17 41 0
17 41 0
21 44 0
19 41 0
19 40 0
23 43 0
21 44 0
22 46 0
24 46 0
23 45 0
23 44 0
23 45 0
19 43 0
19 43 0
18 41 0
18 42 0
19 43 0
18 43 0
19 44 0
20 42 0
20 44 0
20 43 0
17 39 0
22 44 0
24 49 0
23 45 0
25 48 0
28 52 0
27 50 0
28 51 0
27 49 0
25 45 0
30 51 0
27 50 0
28 52 0
28 52 0
28 53 0
29 48 1
39 59 3
41 61 0
50 70 9
43 63 11
35 55 3
43 61 5
37 56 0
37 57 0
42 57 2
49 64 13
47 57 19
55 68 16
54 70 19
62 75 22
67 77 46
27 27 48
14 16 42
0 0 41
0 0 42
0 0 42
0 0 42
0 0 42
0 0 42
0 0 42
0 0 42
0 0 42
0 0 42
0 0 42
187 199 216
222 236 255
222 236 255
222 236 255
222 236 255
222 236 255
222 236 255
222 236 255
222 236 255
222 236 255
222 236 255
222 236 255
222 236 255
222 236 255
222 236 255
222 236 255
222 236 255
222 236 255
222 236 255
222 236 255
222 236 255
222 236 255
222 236 255
222 236 255
222 236 255
222 236 255
222 236 255
222 236 255
222 236 255
222 236 255
222 236 255
222 236 255
222 236 255
222 236 255
222 236 255
222 236 255
222 236 255
222 236 255
222 236 255
222 236 255
222 236 255
222 236 255
222 236 255
222 236 255
222 236 255
222 236 255
222 236 255
222 236 255
222 236 255
222 236 255
222 236 255
222 236 255
222 236 255
222 236 255
222 236 255
222 236 255
222 236 255
222 236 255
222 236 255
222 236 255
222 236 255
222 236 255
222 236 255
222 236 255
222 236 255
222 236 255
222 236 255
222 236 255
222 236 255
222 236 255
222 236 255
222 236 255
222 236 255
222 236 255
222 236 255
222 236 255
222 236 255
222 236 255
222 236 255
222 236 255
222 236 255
222 236 255
222 236 255
222 236 255
222 236 255
222 236 255
222 236 255
222 236 255
222 236 255
222 236 255
222 236 255
222 236 255
222 236 255
222 236 255
222 236 255
222 236 255
222 236 255
222 236 255
222 236 255
222 236 255
222 236 255
222 236 255
222 236 255
222 236 255
222 236 255
222 236 255
222 236 255
222 236 255
222 236 255
222 236 255
222 236 255
222 236 255
222 236 255
222 236 255
222 236 255
222 236 255
222 236 255
222 236 255
222 236 255
222 236 255
222 236 255
222 236 255
222 236 255
222 236 255
222 236 255
222 236 255
222 236 255
222 236 255
222 236 255
222 236 255
222 236 255
222 236 255
222 236 255
222 236 255
222 236 255
222 236 255
222 236 255
222 236 255
222 236 255
222 236 255
222 236 255
222 236 255
222 236 255
222 236 255
222 236 255
222 236 255
222 236 255
222 236 255
222 236 255
222 236 255
222 236 255
222 236 255
222 236 255
222 236 255
222 236 255
222 236 255
222 236 255
222 236 255
222 236 255
222 236 255
222 236 255
222 236 255
222 236 255
222 236 255
222 236 255
222 236 255
222 236 255
222 236 255
222 236 255
222 236 255
222 236 255
222 236 255
222 236 255
222 236 255
222 236 255
222 236 255
222 236 255
222 236 255
222 236 255
222 236 255
222 236 255
222 236 255
222 236 255
222 236 255
222 236 255
193 206 224
0 0 42
0 0 42
0 0 42
0 0 42
0 0 42
0 0 42
0 0 42
0 0 42
0 0 42
0 0 42
0 0 42
0 0 42
0 0 42
0 0 42
0 0 42
0 0 42
0 0 42
0 0 42
0 0 42
0 0 42
0 0 42
0 0 42
0 0 42
0 0 42
0 0 42
0 0 42
0 0 42
0 0 42
0 0 42
0 0 42
0 0 42
0 0 42
0 0 42
0 0 42
0 0 42
0 0 42
0 0 42
0 0 42
0 0 42
0 0 42
0 0 42
0 0 42
0 0 42
0 0 42
0 0 42
0 0 42
0 0 42
0 0 42
0 0 42
0 0 42
0 0 42
0 0 42
0 0 42
0 0 42
0 0 42
0 0 42
0 0 42
0 0 42
0 0 42
0 0 42
0 0 42
0 0 42
0 0 45
0 0 45
0 0 45
0 0 45
0 0 45
0 0 45
0 0 43
0 0 42
0 0 42
0 0 42
0 0 42
0 0 42
0 0 42
0 0 42
0 0 42
0 0 42
0 0 43
0 0 44
0 0 45
0 0 45
0 0 45
0 0 45
0 0 45
0 0 45
0 0 45
0 0 45
0 0 45
0 0 45
0 0 45
0 0 45
0 0 47
0 0 48
0 0 50
0 0 53
0 0 52
0 0 51
0 0 50
0 0 50
0 0 50
0 0 48
0 0 48
0 0 48
0 0 48
0 0 48
0 0 48
0 0 48
0 0 46
0 0 45
0 0 45
0 0 45
0 0 46
0 0 46
0 0 49
0 0 51
0 0 53
0 0 55
0 0 57
0 0 60
0 0 60
0 0 61
0 0 63
0 14 72
0 27 89
8 49 106
87 101 94
127 119 62
75 84 38
50 66 17
43 61 13
44 58 9
35 54 0
32 53 0
22 44 0
19 42 0
21 45 0
25 49 0
25 49 0
20 45 0
19 46 0
22 49 0
24 48 0
23 44 0
20 42 0
19 41 0
16 39 0
19 41 0
17 41 0
13 38 0
14 39 0
17 41 0
19 41 0
20 44 0
22 46 0
24 48 0
24 45 0
20 43 0
22 45 0
22 46 0
19 43 0
20 42 0
19 42 0
20 43 0
19 44 0
21 44 0
23 46 0
23 45 0
23 44 0
20 42 0
19 40 0
24 46 0
24 47 0
20 43 0
21 45 0
23 45 0
24 47 0
29 50 0
28 51 0
27 49 0
27 49 0
24 46 0
29 53 0
29 54 0
31 55 5
39 61 8
43 62 8
44 65 0
51 70 12
40 59 10
37 56 0
42 60 0
40 60 0
37 56 0
46 59 8
51 65 16
52 63 16
60 70 19
61 71 24
77 83 32
79 82 44
80 82 50
44 47 37
0 0 42
0 0 42
0 0 42
0 0 42
0 0 42
0 0 42
0 0 42
0 0 42
0 0 42
0 0 42
0 0 42
193 206 224
222 236 255
222 236 255
222 236 255
222 236 255
222 236 255
222 236 255
222 236 255
222 236 255
222 236 255
222 236 255
222 236 255
222 236 255
222 236 255
222 236 255
222 236 255
222 236 255
222 236 255
222 236 255
222 236 255
222 236 255
222 236 255
222 236 255
222 236 255
222 236 255
222 236 255
222 236 255
222 236 255
222 236 255
222 236 255
222 236 255
222 236 255
222 236 255
222 236 255
222 236 255
222 236 255
222 236 255
222 236 255
222 236 255
222 236 255
222 236 255
222 236 255
222 236 255
222 236 255
222 236 255
222 236 255
222 236 255
222 236 255
222 236 255
222 236 255
222 236 255
222 236 255
222 236 255
222 236 255
222 236 255
222 236 255
222 236 255
222 236 255
222 236 255
222 236 255
222 236 255
222 236 255
222 236 255
222 236 255
222 236 255
222 236 255
222 236 255
222 236 255
222 236 255
222 236 255
222 236 255
222 236 255
222 236 255
222 236 255
222 236 255
222 236 255
222 236 255
222 236 255
222 236 255
222 236 255
222 236 255
222 236 255
222 236 255
222 236 255
222 236 255
222 236 255
222 236 255
222 236 255
222 236 255
222 236 255
222 236 255
222 236 255
222 236 255
222 236 255
222 236 255
222 236 255
222 236 255
222 236 255
222 236 255
222 236 255
222 236 255
222 236 255
222 236 255
222 236 255
222 236 255
222 236 255
222 236 255
222 236 255
222 236 255
222 236 255
222 236 255
222 236 255
222 236 255
222 236 255
222 236 255
222 236 255
222 236 255
222 236 255
222 236 255
222 236 255
222 236 255
222 236 255
222 236 255
222 236 255
222 236 255
222 236 255
222 236 255
222 236 255
222 236 255
222 236 255
222 236 255
222 236 255
222 236 255
222 236 255
222 236 255
222 236 255
222 236 255
222 236 255
222 236 255
222 236 255
222 236 255
222 236 255
222 236 255
222 236 255
222 236 255
222 236 255
222 236 255
222 236 255
222 236 255
222 236 255
222 236 255
222 236 255
222 236 255
222 236 255
222 236 255
222 236 255
222 236 255
222 236 255
222 236 255
222 236 255
222 236 255
222 236 255
222 236 255
222 236 255
222 236 255
222 236 255
222 236 255
222 236 255
222 236 255
222 236 255
222 236 255
222 236 255
222 236 255
222 236 255
222 236 255
222 236 255
222 236 255
222 236 255
222 236 255
222 236 255
222 236 255
222 236 255
222 236 255
222 236 255
222 236 255
192 204 222
0 0 42
0 0 42
0 0 42
0 0 42
0 0 42
0 0 42
0 0 42
0 0 42
0 0 42
0 0 42
0 0 42
0 0 42
0 0 42
0 0 42
0 0 42
0 0 42
0 0 42
0 0 42
0 0 42
0 0 42
0 0 42
0 0 42
0 0 42
0 0 42
0 0 42
0 0 42
0 0 42
0 0 42
0 0 42
0 0 42
0 0 42
0 0 42
0 0 42
0 0 42
0 0 42
0 0 42
0 0 42
0 0 42
0 0 42
0 0 42
0 0 42
0 0 42
0 0 42
0 0 42
0 0 42
0 0 42
0 0 42
0 0 42
0 0 42
0 0 42
0 0 42
0 0 42
0 0 42
0 0 42
0 0 42
0 0 42
0 0 42
0 0 42
0 0 42
0 0 42
0 0 42
0 0 43
0 0 45
0 0 44
0 0 45
0 0 44
0 0 45
0 0 44
0 0 42
0 0 42
0 0 42
0 0 42
0 0 42
0 0 42
0 0 42
0 0 42
0 0 42
0 0 42
0 0 42
0 0 44
0 0 45
0 0 45
0 0 45
0 0 45
0 0 45
0 0 45
0 0 45
0 0 45
0 0 45
0 0 45
0 0 45
0 0 45
0 0 47
0 0 48
0 0 49
0 0 50
0 0 50
0 0 48
0 0 48
0 0 48
0 0 48
0 0 48
0 0 48
0 0 46
0 0 48
0 0 48
0 0 48
0 0 48
0 0 46
0 0 45
0 0 45
0 0 45
0 0 45
0 0 47
0 0 49
0 0 51
0 0 53
0 0 53
0 0 53
0 0 56
0 0 58
0 0 59
0 0 60
0 6 66
0 19 82
0 24 93
43 70 95
143 138 102
102 99 54
58 68 19
52 60 9
47 68 16
47 63 14
35 54 3
24 45 0
24 44 0
20 42 0
24 49 0
22 46 0
20 45 0
25 52 0
26 51 0
22 46 0
20 44 0
19 44 0
19 43 0
16 40 0
14 39 0
14 39 0
14 39 0
14 39 0
14 39 0
18 41 0
22 46 0
24 48 0
23 46 0
20 42 0
19 41 0
23 45 0
21 45 0
19 44 0
19 44 0
20 44 0
20 43 0
20 43 0
23 45 0
25 45 0
23 44 0
21 44 0
19 43 0
20 42 0
23 45 0
22 46 0
18 41 0
18 43 0
20 43 0
24 47 0
27 49 0
25 46 0
25 48 0
26 49 0
23 46 0
28 52 0
27 50 0
33 55 7
40 63 1
43 66 6
45 64 0
48 63 8
45 62 8
42 56 0
42 54 0
40 58 0
35 56 0
45 58 5
51 61 10
54 68 22
67 74 27
60 72 22
73 80 36
90 89 55
85 82 46
50 58 35
0 0 41
0 0 42
0 0 42
0 0 42
0 0 42
0 0 42
0 0 42
0 0 42
0 0 42
0 0 42
0 0 42
196 208 226
222 236 255
222 236 255
222 236 255
222 236 255
222 236 255
222 236 255
222 236 255
222 236 255
222 236 255
222 236 255
222 236 255
222 236 255
222 236 255
222 236 255
222 236 255
222 236 255
222 236 255
222 236 255
222 236 255
222 236 255
222 236 255
222 236 255
222 236 255
222 236 255
222 236 255
222 236 255
222 236 255
222 236 255
222 236 255
222 236 255
222 236 255
222 236 255
222 236 255
222 236 255
222 236 255
222 236 255
222 236 255
222 236 255
222 236 255
222 236 255
222 236 255
222 236 255
222 236 255
222 236 255
222 236 255
222 236 255
222 236 255
222 236 255
222 236 255
222 236 255
222 236 255
222 236 255
222 236 255
222 236 255
222 236 255
222 236 255
222 236 255
222 236 255
222 236 255
222 236 255
222 236 255
222 236 255
222 236 255
222 236 255
222 236 255
222 236 255
222 236 255
222 236 255
222 236 255
222 236 255
222 236 255
222 236 255
222 236 255
222 236 255
222 236 255
222 236 255
222 236 255
222 236 255
222 236 255
222 236 255
222 236 255
222 236 255
222 236 255
222 236 255
222 236 255
222 236 255
222 236 255
222 236 255
222 236 255
222 236 255
222 236 255
222 236 255
222 236 255
222 236 255
222 236 255
222 236 255
222 236 255
222 236 255
222 236 255
222 236 255
222 236 255
222 236 255
222 236 255
222 236 255
222 236 255
222 236 255
222 236 255
222 236 255
222 236 255
222 236 255
222 236 255
222 236 255
222 236 255
222 236 255
222 236 255
222 236 255
222 236 255
222 236 255
222 236 255
222 236 255
222 236 255
222 236 255
222 236 255
222 236 255
222 236 255
222 236 255
222 236 255
222 236 255
222 236 255
222 236 255
222 236 255
222 236 255
222 236 255
222 236 255
222 236 255
222 236 255
222 236 255
222 236 255
222 236 255
222 236 255
222 236 255
222 236 255
222 236 255
222 236 255
222 236 255
222 236 255
222 236 255
222 236 255
222 236 255
222 236 255
222 236 255
222 236 255
222 236 255
222 236 255
222 236 255
222 236 255
222 236 255
222 236 255
222 236 255
222 236 255
222 236 255
222 236 255
222 236 255
222 236 255
222 236 255
222 236 255
222 236 255
222 236 255
222 236 255
222 236 255
222 236 255
222 236 255
222 236 255
222 236 255
222 236 255
222 236 255
222 236 255
222 236 255
222 236 255
222 236 255
222 236 255
222 236 255
222 236 255
222 236 255
216 230 249
0 0 42
0 0 42
0 0 42
0 0 42
0 0 42
0 0 42
0 0 42
0 0 42
0 0 42
0 0 42
0 0 42
0 0 42
0 0 42
0 0 42
0 0 42
0 0 42
0 0 42
0 0 42
0 0 42
0 0 42
0 0 42
0 0 42
0 0 42
0 0 42
0 0 42
0 0 42
0 0 42
0 0 42
0 0 42
0 0 42
0 0 42
0 0 42
0 0 42
0 0 42
0 0 42
0 0 42
0 0 42
0 0 42
0 0 42
0 0 42
0 0 42
0 0 42
0 0 42
0 0 42
0 0 42
0 0 42
0 0 42
0 0 42
0 0 42
0 0 42
0 0 42
0 0 42
0 0 42
0 0 42
0 0 42
0 0 42
0 0 42
0 0 42
0 0 42
0 0 42
0 0 42
0 0 44
0 0 44
0 0 42
0 0 42
0 0 43
0 0 43
0 0 45
0 0 45
0 0 45
0 0 44
0 0 43
0 0 43
0 0 43
0 0 43
0 0 43
0 0 44
0 0 45
0 0 45
0 0 45
0 0 45
0 0 45
0 0 45
0 0 45
0 0 45
0 0 45
0 0 45
0 0 45
0 0 45
0 0 45
0 0 45
0 0 45
0 0 45
0 0 45
0 0 45
0 0 45
0 0 45
0 0 45
0 0 45
0 0 43
0 0 43
0 0 48
0 0 48
0 0 48
0 0 48
0 0 48
0 0 48
0 0 49
0 0 46
0 0 45
0 0 43
0 0 45
0 0 45
0 0 46
0 0 48
0 0 49
0 0 52
0 0 53
0 0 52
0 0 54
0 0 57
0 0 58
0 0 61
0 10 69
0 14 78
0 13 76
46 63 95
178 185 168
141 137 95
79 82 41
58 65 17
62 76 26
61 74 29
39 54 10
34 49 0
35 51 0
25 47 0
26 53 0
23 48 0
24 51 0
28 54 0
24 48 0
19 44 0
20 44 0
19 44 0
20 44 0
19 42 0
16 41 0
16 40 0
17 41 0
16 40 0
15 38 0
16 39 0
22 45 0
25 50 0
21 44 0
15 38 0
17 41 0
23 44 0
19 43 0
18 43 0
20 44 0
20 43 0
21 44 0
23 45 0
27 48 0
27 47 0
23 45 0
21 44 0
18 43 0
22 44 0
24 44 0
20 42 0
18 41 0
19 42 0
21 45 0
24 49 0
25 48 0
24 45 0
25 50 0
27 51 0
29 52 0
32 57 3
27 51 1
28 51 0
47 69 1
48 73 9
48 64 2
51 63 12
51 66 14
52 61 13
53 60 13
38 53 0
41 55 6
48 58 9
52 60 13
58 66 23
69 71 29
66 74 26
75 79 37
95 88 54
80 78 39
50 60 30
0 0 42
0 0 42
0 0 42
0 0 42
0 0 42
0 0 42
0 0 42
0 0 42
0 0 42
0 0 42
0 0 42
212 225 244
222 236 255
222 236 255
222 236 255
222 236 255
222 236 255
222 236 255
222 236 255
222 236 255
222 236 255
222 236 255
222 236 255
222 236 255
222 236 255
222 236 255
222 236 255
222 236 255
222 236 255
222 236 255
222 236 255
222 236 255
222 236 255
222 236 255
222 236 255
222 236 255
222 236 255
222 236 255
222 236 255
222 236 255
222 236 255
222 236 255
222 236 255
222 236 255
222 236 255
222 236 255
222 236 255
222 236 255
222 236 255
222 236 255
222 236 255
222 236 255
222 236 255
222 236 255
222 236 255
222 236 255
222 236 255
222 236 255
222 236 255
222 236 255
222 236 255
222 236 255
222 236 255
222 236 255
222 236 255
222 236 255
222 236 255
222 236 255
222 236 255
222 236 255
222 236 255
222 236 255
222 236 255
222 236 255
222 236 255
222 236 255
222 236 255
222 236 255
222 236 255
222 236 255
222 236 255
222 236 255
222 236 255
222 236 255
222 236 255
222 236 255
222 236 255
222 236 255
222 236 255
222 236 255
222 236 255
222 236 255
222 236 255
222 236 255
222 236 255
222 236 255
222 236 255
222 236 255
222 236 255
222 236 255
222 236 255
222 236 255
222 236 255
222 236 255
222 236 255
222 236 255
222 236 255
222 236 255
222 236 255
222 236 255
222 236 255
222 236 255
222 236 255
222 236 255
222 236 255
222 236 255
222 236 255
222 236 255
222 236 255
222 236 255
222 236 255
222 236 255
222 236 255
222 236 255
222 236 255
222 236 255
222 236 255
222 236 255
222 236 255
222 236 255
222 236 255
222 236 255
222 236 255
222 236 255
222 236 255
222 236 255
222 236 255
222 236 255
222 236 255
222 236 255
222 236 255
222 236 255
222 236 255
222 236 255
222 236 255
222 236 255
222 236 255
222 236 255
222 236 255
222 236 255
222 236 255
222 236 255
222 236 255
222 236 255
222 236 255
222 236 255
222 236 255
222 236 255
222 236 255
222 236 255
222 236 255
222 236 255
222 236 255
222 236 255
222 236 255
222 236 255
222 236 255
222 236 255
222 236 255
222 236 255
222 236 255
222 236 255
222 236 255
222 236 255
222 236 255
222 236 255
222 236 255
222 236 255
222 236 255
222 236 255
222 236 255
222 236 255
222 236 255
222 236 255
222 236 255
222 236 255
222 236 255
222 236 255
222 236 255
222 236 255
222 236 255
222 236 255
222 236 255
222 236 255
222 236 255
222 236 255
222 236 255
38 40 60
0 0 42
0 0 42
0 0 42
0 0 42
0 0 42
0 0 42
0 0 42
0 0 42
0 0 42
0 0 42
0 0 42
0 0 42
0 0 42
0 0 42
0 0 42
0 0 42
0 0 42
0 0 42
0 0 42
0 0 42
0 0 42
0 0 42
0 0 42
0 0 42
0 0 42
0 0 42
0 0 42
0 0 42
0 0 42
0 0 42
0 0 42
0 0 42
0 0 42
0 0 42
0 0 42
0 0 42
0 0 42
0 0 42
0 0 42
0 0 42
0 0 42
0 0 42
0 0 42
0 0 42
0 0 42
0 0 42
0 0 42
0 0 42
0 0 42
0 0 42
0 0 42
0 0 42
0 0 42
0 0 42
0 0 42
0 0 42
0 0 42
0 0 42
0 0 42
0 0 44
0 0 45
0 0 45
0 0 44
0 0 43
0 0 45
0 0 45
0 0 45
0 0 45
0 0 45
0 0 45
0 0 45
0 0 45
0 0 45
0 0 45
0 0 45
0 0 45
0 0 45
0 0 45
0 0 45
0 0 45
0 0 45
0 0 45
0 0 45
0 0 45
0 0 45
0 0 45
0 0 45
0 0 45
0 0 45
0 0 45
0 0 45
0 0 45
0 0 45
0 0 45
0 0 45
0 0 45
0 0 45
0 0 45
0 0 45
0 0 44
0 0 46
0 0 46
0 0 46
0 0 48
0 0 48
0 0 48
0 0 49
0 0 46
0 0 45
0 0 44
0 0 45
0 0 45
0 0 47
0 0 48
0 0 48
0 0 50
0 0 52
0 0 51
0 0 54
0 0 56
0 0 58
0 0 60
0 0 68
0 19 80
0 20 78
40 48 93
145 160 174
146 154 131
91 95 53
50 65 18
63 67 21
56 64 20
46 57 14
29 44 0
30 49 0
32 55 0
28 51 0
24 48 0
24 49 0
24 48 0
22 45 0
22 44 0
20 43 0
19 42 0
19 42 0
19 42 0
19 41 0
18 41 0
19 43 0
20 44 0
15 40 0
19 42 0
23 45 0
21 43 0
17 39 0
15 37 0
20 42 0
23 45 0
21 45 0
21 44 0
17 42 0
15 39 0
20 42 0
24 47 0
24 46 0
25 45 0
21 44 0
20 43 0
18 41 0
23 45 0
22 45 0
20 43 0
17 42 0
20 43 0
22 46 0
26 49 0
24 47 0
24 48 0
25 50 0
26 51 0
34 58 0
43 68 11
37 61 7
42 64 7
49 72 6
46 70 3
53 67 14
53 63 11
52 63 10
55 63 16
53 60 13
47 58 8
54 60 16
56 64 21
55 62 21
72 69 35
73 73 33
67 73 30
80 80 43
92 85 52
78 79 38
44 55 26
0 0 43
0 0 42
0 0 42
0 0 42
0 0 42
0 0 42
0 0 42
0 0 42
0 0 42
0 0 42
49 52 70
222 236 255
222 236 255
222 236 255
222 236 255
222 236 255
222 236 255
222 236 255
222 236 255
222 236 255
222 236 255
222 236 255
222 236 255
222 236 255
222 236 255
222 236 255
222 236 255
222 236 255
222 236 255
222 236 255
222 236 255
222 236 255
222 236 255
222 236 255
222 236 255
222 236 255
222 236 255
222 236 255
222 236 255
222 236 255
222 236 255
222 236 255
222 236 255
222 236 255
222 236 255
222 236 255
222 236 255
222 236 255
222 236 255
222 236 255
222 236 255
222 236 255
222 236 255
222 236 255
222 236 255
222 236 255
222 236 255
222 236 255
222 236 255
222 236 255
222 236 255
222 236 255
222 236 255
222 236 255
222 236 255
222 236 255
222 236 255
222 236 255
222 236 255
222 236 255
222 236 255
222 236 255
222 236 255
222 236 255
222 236 255
222 236 255
222 236 255
222 236 255
222 236 255
222 236 255
222 236 255
222 236 255
222 236 255
222 236 255
222 236 255
222 236 255
222 236 255
222 236 255
222 236 255
222 236 255
222 236 255
222 236 255
222 236 255
222 236 255
222 236 255
222 236 255
222 236 255
222 236 255
222 236 255
222 236 255
222 236 255
222 236 255
222 236 255
222 236 255
222 236 255
222 236 255
222 236 255
222 236 255
222 236 255
222 236 255
222 236 255
222 236 255
222 236 255
222 236 255
222 236 255
222 236 255
222 236 255
222 236 255
222 236 255
222 236 255
222 236 255
222 236 255
222 236 255
222 236 255
222 236 255
222 236 255
222 236 255
222 236 255
222 236 255
222 236 255
222 236 255
222 236 255
222 236 255
222 236 255
222 236 255
222 236 255
222 236 255
222 236 255
222 236 255
222 236 255
222 236 255
222 236 255
222 236 255
222 236 255
222 236 255
222 236 255
222 236 255
222 236 255
222 236 255
222 236 255
222 236 255
222 236 255
222 236 255
222 236 255
222 236 255
222 236 255
222 236 255
222 236 255
222 236 255
222 236 255
222 236 255
222 236 255
222 236 255
222 236 255
222 236 255
222 236 255
222 236 255
222 236 255
222 236 255
222 236 255
222 236 255
222 236 255
222 236 255
222 236 255
222 236 255
222 236 255
222 236 255
222 236 255
222 236 255
222 236 255
222 236 255
222 236 255
222 236 255
222 236 255
222 236 255
222 236 255
222 236 255
222 236 255
222 236 255
222 236 255
222 236 255
222 236 255
222 236 255
222 236 255
222 236 255
222 236 255
222 236 255
97 103 117
0 0 42
0 0 42
0 0 42
0 0 42
0 0 42
0 0 42
0 0 42
0 0 42
0 0 42
0 0 42
0 0 42
0 0 42
0 0 42
0 0 42
0 0 42
0 0 42
0 0 42
0 0 42
0 0 42
0 0 42
0 0 42
0 0 42
0 0 42
0 0 42
0 0 42
0 0 42
0 0 42
0 0 42
0 0 42
0 0 42
0 0 42
0 0 42
0 0 42
0 0 42
0 0 42
0 0 42
0 0 42
0 0 42
0 0 42
0 0 42
0 0 42
0 0 42
0 0 42
0 0 42
0 0 42
0 0 42
0 0 42
0 0 42
0 0 42
0 0 42
0 0 42
0 0 42
0 0 42
0 0 42
0 0 42
0 0 42
0 0 42
0 0 42
0 0 44
0 0 45
0 0 45
0 0 45
0 0 45
0 0 45
0 0 45
0 0 45
0 0 45
0 0 45
0 0 45
0 0 45
0 0 45
0 0 45
0 0 45
0 0 45
0 0 45
0 0 45
0 0 45
0 0 45
0 0 45
0 0 45
0 0 45
0 0 45
0 0 45
0 0 45
0 0 45
0 0 45
0 0 45
0 0 45
0 0 45
0 0 45
0 0 45
0 0 45
0 0 45
0 0 45
0 0 45
0 0 45
0 0 45
0 0 45
0 0 45
0 0 45
0 0 45
0 0 45
0 0 45
0 0 48
0 0 48
0 0 48
0 0 48
0 0 46
0 0 45
0 0 45
0 0 45
0 0 45
0 0 47
0 0 47
0 0 47
0 0 48
0 0 49
0 0 50
0 0 52
0 0 55
0 0 58
0 0 61
0 0 67
0 19 81
0 21 83
0 9 80
31 39 92
67 76 90
100 105 77
64 63 29
59 64 23
69 72 31
49 54 16
27 39 0
27 47 0
39 63 11
25 48 0
23 45 0
24 46 0
22 44 0
23 46 0
23 46 0
20 43 0
19 41 0
15 39 0
18 41 0
19 43 0
19 43 0
19 44 0
20 45 0
19 42 0
20 42 0
21 43 0
15 37 0
14 36 0
15 37 0
19 41 0
23 47 0
24 47 0
22 45 0
17 42 0
16 40 0
22 44 0
23 45 0
23 46 0
22 44 0
19 42 0
20 42 0
19 41 0
22 44 0
23 47 0
26 48 0
21 42 0
23 48 0
25 48 0
26 51 0
24 46 0
24 47 0
26 51 0
25 49 0
31 55 0
34 59 0
38 62 0
52 75 13
48 70 8
50 71 7
55 67 16
59 69 21
56 66 17
59 66 21
56 61 18
52 59 14
61 62 20
55 61 22
62 67 31
82 76 44
72 68 32
67 69 28
76 76 39
77 79 41
67 74 27
43 59 28
0 0 42
0 0 42
0 0 42
0 0 42
0 0 42
0 0 42
0 0 42
0 0 42
0 0 42
0 0 42
94 100 115
222 236 255
222 236 255
222 236 255
222 236 255
222 236 255
222 236 255
222 236 255
222 236 255
222 236 255
222 236 255
222 236 255
222 236 255
222 236 255
222 236 255
222 236 255
222 236 255
222 236 255
222 236 255
222 236 255
222 236 255
222 236 255
222 236 255
222 236 255
222 236 255
222 236 255
222 236 255
222 236 255
222 236 255
222 236 255
222 236 255
222 236 255
222 236 255
222 236 255
222 236 255
222 236 255
222 236 255
222 236 255
222 236 255
222 236 255
222 236 255
222 236 255
222 236 255
222 236 255
222 236 255
222 236 255
222 236 255
222 236 255
222 236 255
222 236 255
222 236 255
222 236 255
222 236 255
222 236 255
222 236 255
222 236 255
222 236 255
222 236 255
222 236 255
222 236 255
222 236 255
222 236 255
222 236 255
222 236 255
222 236 255
222 236 255
222 236 255
222 236 255
222 236 255
222 236 255
222 236 255
222 236 255
222 236 255
222 236 255
222 236 255
222 236 255
222 236 255
222 236 255
222 236 255
222 236 255
222 236 255
222 236 255
222 236 255
222 236 255
222 236 255
222 236 255
222 236 255
222 236 255
222 236 255
222 236 255
222 236 255
222 236 255
222 236 255
222 236 255
222 236 255
222 236 255
222 236 255
222 236 255
222 236 255
222 236 255
222 236 255
222 236 255
222 236 255
222 236 255
222 236 255
222 236 255
222 236 255
222 236 255
222 236 255
222 236 255
222 236 255
222 236 255
222 236 255
222 236 255
222 236 255
222 236 255
222 236 255
222 236 255
222 236 255
222 236 255
222 236 255
222 236 255
222 236 255
222 236 255
222 236 255
222 236 255
222 236 255
222 236 255
222 236 255
222 236 255
222 236 255
222 236 255
222 236 255
222 236 255
222 236 255
222 236 255
222 236 255
222 236 255
222 236 255
222 236 255
222 236 255
222 236 255
222 236 255
222 236 255
222 236 255
222 236 255
222 236 255
222 236 255
222 236 255
222 236 255
222 236 255
222 236 255
222 236 255
222 236 255
222 236 255
222 236 255
222 236 255
222 236 255
222 236 255
222 236 255
222 236 255
222 236 255
222 236 255
222 236 255
222 236 255
222 236 255
222 236 255
222 236 255
222 236 255
222 236 255
222 236 255
222 236 255
222 236 255
222 236 255
222 236 255
222 236 255
222 236 255
222 236 255
222 236 255
222 236 255
222 236 255
222 236 255
222 236 255
222 236 255
222 236 255
222 236 255
222 236 255
125 133 148
0 0 42
0 0 42
0 0 42
0 0 42
0 0 42
0 0 42
0 0 42
0 0 44
0 0 44
0 0 44
0 0 44
0 0 44
0 0 44
0 0 44
0 0 44
0 0 42
0 0 42
0 0 42
0 0 42
0 0 42
0 0 42
0 0 42
0 0 42
0 0 42
0 0 42
0 0 42
0 0 42
0 0 42
0 0 42
0 0 42
0 0 42
0 0 42
0 0 42
0 0 42
0 0 42
0 0 42
0 0 42
0 0 42
0 0 42
0 0 42
0 0 42
0 0 42
0 0 42
0 0 42
0 0 42
0 0 42
0 0 42
0 0 42
0 0 42
0 0 42
0 0 42
0 0 42
0 0 42
0 0 42
0 0 42
0 0 42
0 0 42
0 0 42
0 0 44
0 0 45
0 0 44
0 0 44
0 0 45
0 0 45
0 0 45
0 0 45
0 0 45
0 0 44
0 0 42
0 0 42
0 0 42
0 0 42
0 0 43
0 0 44
0 0 45
0 0 45
0 0 45
0 0 45
0 0 45
0 0 45
0 0 45
0 0 45
0 0 45
0 0 45
0 0 45
0 0 45
0 0 45
0 0 45
0 0 45
0 0 45
0 0 45
0 0 45
0 0 45
0 0 45
0 0 45
0 0 45
0 0 45
0 0 45
0 0 45
0 0 45
0 0 45
0 0 45
0 0 45
0 0 47
0 0 48
0 0 48
0 0 47
0 0 45
0 0 45
0 0 45
0 0 45
0 0 45
0 0 45
0 0 45
0 0 45
0 0 45
0 0 47
0 0 48
0 0 51
0 0 54
0 0 58
0 0 60
0 0 66
0 18 80
0 17 77
0 12 66
0 6 69
5 15 83
59 63 89
89 84 59
62 65 25
78 76 38
68 67 32
37 46 0
29 49 0
31 55 0
26 47 0
24 46 0
26 48 0
21 45 0
22 46 0
23 45 0
23 45 0
24 45 0
18 40 0
18 41 0
19 42 0
21 43 0
19 43 0
19 44 0
20 42 0
19 42 0
19 41 0
16 38 0
16 38 0
17 38 0
19 43 0
24 47 0
24 48 0
19 43 0
19 42 0
20 44 0
22 45 0
20 43 0
19 42 0
19 43 0
20 44 0
19 43 0
19 41 0
20 43 0
21 44 0
25 48 0
24 46 0
22 45 0
25 48 0
27 51 0
24 46 0
25 47 0
26 50 0
26 50 0
29 53 0
25 50 0
38 62 0
47 69 10
50 70 15
55 75 17
60 70 24
55 64 15
57 64 17
56 62 18
53 57 17
53 61 16
56 60 17
56 62 25
66 70 34
82 77 42
75 70 34
72 71 29
74 75 37
69 76 35
60 74 21
32 46 34
0 0 42
0 0 42
0 0 42
0 0 42
0 0 42
0 0 42
0 0 42
0 0 42
0 0 42
0 0 42
135 143 159
222 236 255
222 236 255
222 236 255
222 236 255
222 236 255
222 236 255
222 236 255
222 236 255
222 236 255
222 236 255
222 236 255
222 236 255
222 236 255
222 236 255
222 236 255
222 236 255
222 236 255
222 236 255
222 236 255
222 236 255
222 236 255
222 236 255
222 236 255
222 236 255
222 236 255
222 236 255
222 236 255
222 236 255
222 236 255
222 236 255
222 236 255
222 236 255
222 236 255
222 236 255
222 236 255
222 236 255
222 236 255
222 236 255
222 236 255
222 236 255
222 236 255
222 236 255
222 236 255
222 236 255
222 236 255
222 236 255
222 236 255
222 236 255
222 236 255
222 236 255
222 236 255
222 236 255
222 236 255
222 236 255
222 236 255
222 236 255
222 236 255
222 236 255
222 236 255
222 236 255
222 236 255
222 236 255
222 236 255
222 236 255
222 236 255
222 236 255
222 236 255
222 236 255
222 236 255
222 236 255
222 236 255
222 236 255
222 236 255
222 236 255
222 236 255
222 236 255
222 236 255
222 236 255
222 236 255
222 236 255
222 236 255
222 236 255
222 236 255
222 236 255
222 236 255
222 236 255
222 236 255
222 236 255
222 236 255
222 236 255
222 236 255
222 236 255
222 236 255
222 236 255
222 236 255
222 236 255
222 236 255
222 236 255
222 236 255
222 236 255
222 236 255
222 236 255
222 236 255
222 236 255
222 236 255
222 236 255
222 236 255
222 236 255
222 236 255
222 236 255
222 236 255
222 236 255
222 236 255
222 236 255
222 236 255
222 236 255
222 236 255
222 236 255
222 236 255
222 236 255
222 236 255
222 236 255
222 236 255
222 236 255
222 236 255
222 236 255
222 236 255
222 236 255
222 236 255
222 236 255
222 236 255
222 236 255
222 236 255
222 236 255
222 236 255
222 236 255
222 236 255
222 236 255
222 236 255
222 236 255
222 236 255
222 236 255
222 236 255
222 236 255
222 236 255
222 236 255
222 236 255
222 236 255
222 236 255
222 236 255
222 236 255
222 236 255
222 236 255
222 236 255
222 236 255
222 236 255
222 236 255
222 236 255
222 236 255
222 236 255
222 236 255
222 236 255
222 236 255
222 236 255
222 236 255
222 236 255
222 236 255
222 236 255
222 236 255
222 236 255
222 236 255
222 236 255
222 236 255
222 236 255
222 236 255
222 236 255
222 236 255
222 236 255
222 236 255
222 236 255
222 236 255
222 236 255
222 236 255
222 236 255
222 236 255
222 236 255
168 178 195
0 0 42
0 0 42
0 0 42
0 0 42
0 0 42
0 0 42
0 0 42
0 0 43
0 0 45
0 0 45
0 0 45
0 0 45
0 0 45
0 0 45
0 0 45
0 0 42
0 0 42
0 0 42
0 0 42
0 0 42
0 0 42
0 0 42
0 0 42
0 0 42
0 0 42
0 0 42
0 0 42
0 0 42
0 0 42
0 0 42
0 0 42
0 0 42
0 0 42
0 0 42
0 0 42
0 0 42
0 0 42
0 0 42
0 0 42
0 0 42
0 0 42
0 0 42
0 0 42
0 0 42
0 0 42
0 0 42
0 0 42
0 0 42
0 0 42
0 0 42
0 0 42
0 0 42
0 0 42
0 0 42
0 0 42
0 0 42
0 0 42
0 0 42
0 0 44
0 0 44
0 0 43
0 0 42
0 0 44
0 0 45
0 0 43
0 0 43
0 0 43
0 0 42
0 0 41
0 0 40
0 0 40
0 0 42
0 0 42
0 0 42
0 0 43
0 0 44
0 0 44
0 0 44
0 0 44
0 0 44
0 0 44
0 0 44
0 0 44
0 0 44
0 0 44
0 0 44
0 0 44
0 0 44
0 0 44
0 0 44
0 0 44
0 0 44
0 0 44
0 0 44
0 0 44
0 0 45
0 0 45
0 0 45
0 0 45
0 0 45
0 0 45
0 0 45
0 0 45
0 0 46
0 0 47
0 0 48
0 0 45
0 0 45
0 0 44
0 0 45
0 0 45
0 0 45
0 0 45
0 0 45
0 0 45
0 0 45
0 0 48
0 0 48
0 0 52
0 0 57
0 0 56
0 0 57
0 4 67
0 16 77
0 15 77
0 11 64
0 9 77
0 12 75
22 40 86
85 105 75
70 73 31
74 71 34
80 74 39
46 47 11
30 47 0
25 46 0
26 46 0
23 45 0
24 48 0
24 48 0
21 45 0
24 47 0
26 49 0
27 48 0
21 42 0
19 42 0
21 43 0
21 45 0
21 44 0
21 44 0
22 43 0
20 42 0
19 40 0
21 40 0
19 41 0
20 42 0
21 44 0
24 46 0
22 46 0
19 43 0
21 43 0
25 47 0
25 46 0
22 43 0
23 43 0
21 41 0
19 42 0
16 41 0
18 42 0
20 43 0
20 43 0
22 47 0
26 49 0
24 47 0
24 48 0
28 52 0
25 48 0
25 47 0
25 50 0
26 48 0
29 53 0
30 53 0
44 68 7
50 68 18
49 69 16
57 74 17
59 67 24
53 63 14
56 63 17
55 61 16
56 60 22
50 60 16
51 59 18
60 66 29
69 71 34
74 72 36
75 68 30
73 68 27
77 75 39
63 72 29
55 75 13
18 28 38
0 0 42
0 0 42
0 0 42
0 0 42
0 0 42
0 0 42
0 0 42
0 0 42
0 0 42
0 0 42
175 186 203
222 236 255
222 236 255
222 236 255
222 236 255
222 236 255
222 236 255
222 236 255
222 236 255
222 236 255
222 236 255
222 236 255
222 236 255
222 236 255
222 236 255
222 236 255
222 236 255
222 236 255
222 236 255
222 236 255
222 236 255
222 236 255
222 236 255
222 236 255
222 236 255
222 236 255
222 236 255
222 236 255
222 236 255
222 236 255
222 236 255
222 236 255
222 236 255
222 236 255
222 236 255
222 236 255
222 236 255
222 236 255
222 236 255
222 236 255
222 236 255
222 236 255
222 236 255
222 236 255
222 236 255
222 236 255
222 236 255
222 236 255
222 236 255
222 236 255
222 236 255
222 236 255
222 236 255
222 236 255
222 236 255
222 236 255
222 236 255
222 236 255
222 236 255
222 236 255
222 236 255
222 236 255
222 236 255
222 236 255
222 236 255
222 236 255
222 236 255
222 236 255
222 236 255
222 236 255
222 236 255
222 236 255
222 236 255
222 236 255
222 236 255
222 236 255
222 236 255
222 236 255
222 236 255
222 236 255
222 236 255
222 236 255
222 236 255
222 236 255
222 236 255
222 236 255
222 236 255
222 236 255
222 236 255
222 236 255
222 236 255
222 236 255
222 236 255
222 236 255
222 236 255
222 236 255
222 236 255
222 236 255
222 236 255
222 236 255
222 236 255
222 236 255
222 236 255
222 236 255
222 236 255
222 236 255
222 236 255
222 236 255
222 236 255
222 236 255
222 236 255
222 236 255
222 236 255
222 236 255
222 236 255
222 236 255
222 236 255
222 236 255
222 236 255
222 236 255
222 236 255
222 236 255
222 236 255
222 236 255
222 236 255
222 236 255
222 236 255
222 236 255
222 236 255
222 236 255
222 236 255
222 236 255
222 236 255
222 236 255
222 236 255
222 236 255
222 236 255
222 236 255
222 236 255
222 236 255
222 236 255
222 236 255
222 236 255
222 236 255
222 236 255
222 236 255
222 236 255
222 236 255
222 236 255
222 236 255
222 236 255
222 236 255
222 236 255
222 236 255
222 236 255
222 236 255
222 236 255
222 236 255
222 236 255
222 236 255
222 236 255
222 236 255
222 236 255
222 236 255
222 236 255
222 236 255
222 236 255
222 236 255
222 236 255
222 236 255
222 236 255
222 236 255
222 236 255
222 236 255
222 236 255
222 236 255
222 236 255
222 236 255
222 236 255
222 236 255
222 236 255
222 236 255
222 236 255
222 236 255
222 236 255
222 236 255
222 236 255
178 189 206
0 0 42
0 0 42
0 0 42
0 0 42
0 0 42
0 0 42
0 0 42
0 0 42
0 0 44
0 0 45
0 0 45
0 0 45
0 0 45
0 0 45
0 0 45
0 0 42
0 0 41
0 0 42
0 0 43
0 0 42
0 0 42
0 0 42
0 0 42
0 0 42
0 0 42
0 0 42
0 0 42
0 0 42
0 0 42
0 0 42
0 0 42
0 0 42
0 0 42
0 0 42
0 0 42
0 0 42
0 0 42
0 0 42
0 0 42
0 0 42
0 0 42
0 0 42
0 0 42
0 0 42
0 0 42
0 0 42
0 0 42
0 0 42
0 0 42
0 0 42
0 0 42
0 0 42
0 0 42
0 0 42
0 0 42
0 0 42
0 0 42
0 0 42
0 0 43
0 0 43
0 0 42
0 0 42
0 0 42
0 0 44
0 0 42
0 0 42
0 0 42
0 0 41
0 0 39
0 0 39
0 0 39
0 0 41
0 0 42
0 0 42
0 0 42
0 0 42
0 0 42
0 0 42
0 0 42
0 0 42
0 0 42
0 0 42
0 0 42
0 0 42
0 0 42
0 0 42
0 0 42
0 0 42
0 0 42
0 0 42
0 0 42
0 0 42
0 0 40
0 0 41
0 0 43
0 0 45
0 0 45
0 0 45
0 0 45
0 0 45
0 0 45
0 0 45
0 0 45
0 0 45
0 0 46
0 0 46
0 0 45
0 0 45
0 0 43
0 0 45
0 0 45
0 0 47
0 0 45
0 0 45
0 0 45
0 0 46
0 0 48
0 0 48
0 0 49
0 0 54
0 0 55
0 0 58
0 10 69
0 8 73
0 10 71
0 6 71
0 8 73
0 19 84
0 32 90
52 67 88
82 87 75
76 76 34
76 65 29
63 60 25
36 48 10
32 54 10
24 46 0
23 46 0
29 52 0
31 53 0
23 46 0
22 46 0
25 46 0
24 47 0
20 44 0
23 46 0
24 48 0
26 50 0
24 45 0
24 44 0
23 45 0
21 43 0
23 42 0
23 45 0
20 44 0
24 45 0
25 46 0
23 46 0
21 43 0
23 44 0
25 46 0
22 46 0
20 43 0
22 44 0
31 52 0
23 43 0
15 40 0
15 40 0
19 43 0
24 45 0
22 45 0
23 45 0
24 48 0
25 49 0
23 49 0
28 53 0
25 49 0
24 49 0
25 51 0
25 49 0
28 51 0
30 50 0
43 66 11
48 64 16
55 69 20
54 69 18
53 62 19
56 62 17
59 64 23
52 61 17
58 62 25
44 56 13
48 57 16
59 62 24
77 68 40
80 72 40
89 81 44
89 83 44
83 80 39
66 83 25
45 66 12
5 9 41
0 0 42
0 0 42
0 0 42
0 0 42
0 0 42
0 0 42
0 0 42
0 0 42
0 0 42
0 0 42
166 177 193
222 236 255
222 236 255
222 236 255
222 236 255
222 236 255
222 236 255
222 236 255
222 236 255
222 236 255
222 236 255
222 236 255
222 236 255
222 236 255
222 236 255
222 236 255
222 236 255
222 236 255
222 236 255
222 236 255
222 236 255
222 236 255
222 236 255
222 236 255
222 236 255
222 236 255
222 236 255
222 236 255
222 236 255
222 236 255
222 236 255
222 236 255
222 236 255
222 236 255
222 236 255
222 236 255
222 236 255
222 236 255
222 236 255
222 236 255
222 236 255
222 236 255
222 236 255
222 236 255
222 236 255
222 236 255
222 236 255
222 236 255
222 236 255
222 236 255
222 236 255
222 236 255
222 236 255
222 236 255
222 236 255
222 236 255
222 236 255
222 236 255
222 236 255
222 236 255
222 236 255
222 236 255
222 236 255
222 236 255
222 236 255
222 236 255
222 236 255
222 236 255
222 236 255
222 236 255
222 236 255
222 236 255
222 236 255
222 236 255
222 236 255
222 236 255
222 236 255
222 236 255
222 236 255
222 236 255
222 236 255
222 236 255
222 236 255
222 236 255
222 236 255
222 236 255
222 236 255
222 236 255
222 236 255
222 236 255
222 236 255
222 236 255
222 236 255
222 236 255
222 236 255
222 236 255
222 236 255
222 236 255
222 236 255
222 236 255
222 236 255
222 236 255
222 236 255
222 236 255
222 236 255
222 236 255
222 236 255
222 236 255
222 236 255
222 236 255
222 236 255
222 236 255
222 236 255
222 236 255
222 236 255
222 236 255
222 236 255
222 236 255
222 236 255
222 236 255
222 236 255
222 236 255
222 236 255
222 236 255
222 236 255
222 236 255
222 236 255
222 236 255
222 236 255
222 236 255
222 236 255
222 236 255
222 236 255
222 236 255
222 236 255
222 236 255
222 236 255
222 236 255
222 236 255
222 236 255
222 236 255
222 236 255
222 236 255
222 236 255
222 236 255
222 236 255
222 236 255
222 236 255
222 236 255
222 236 255
222 236 255
222 236 255
222 236 255
222 236 255
222 236 255
222 236 255
222 236 255
222 236 255
222 236 255
222 236 255
222 236 255
222 236 255
222 236 255
222 236 255
222 236 255
222 236 255
222 236 255
222 236 255
222 236 255
222 236 255
222 236 255
222 236 255
222 236 255
222 236 255
222 236 255
222 236 255
222 236 255
222 236 255
222 236 255
222 236 255
222 236 255
222 236 255
222 236 255
222 236 255
222 236 255
222 236 255
222 236 255
207 220 239
0 0 42
0 0 42
0 0 42
0 0 42
0 0 42
0 0 42
0 0 42
0 0 42
0 0 43
0 0 45
0 0 45
0 0 45
0 0 45
0 0 45
0 0 45
0 0 44
0 0 43
0 0 41
0 0 42
0 0 42
0 0 42
0 0 42
0 0 42
0 0 42
0 0 42
0 0 42
0 0 42
0 0 42
0 0 42
0 0 42
0 0 42
0 0 42
0 0 42
0 0 42
0 0 42
0 0 42
0 0 42
0 0 42
0 0 42
0 0 42
0 0 42
0 0 42
0 0 42
0 0 42
0 0 42
0 0 42
0 0 42
0 0 42
0 0 42
0 0 42
0 0 42
0 0 42
0 0 42
0 0 42
0 0 42
0 0 42
0 0 42
0 0 42
0 0 42
0 0 42
0 0 42
0 0 42
0 0 42
0 0 42
0 0 42
0 0 42
0 0 42
0 0 42
0 0 42
0 0 42
0 0 42
0 0 42
0 0 42
0 0 42
0 0 42
0 0 42
0 0 42
0 0 42
0 0 42
0 0 42
0 0 42
0 0 42
0 0 42
0 0 42
0 0 42
0 0 42
0 0 42
0 0 42
0 0 42
0 0 42
0 0 42
0 0 42
0 0 42
0 0 42
0 0 45
0 0 45
0 0 45
0 0 45
0 0 45
0 0 45
0 0 45
0 0 45
0 0 45
0 0 45
0 0 45
0 0 45
0 0 45
0 0 45
0 0 45
0 0 45
0 0 45
0 0 45
0 0 43
0 0 44
0 0 45
0 0 47
0 0 47
0 0 46
0 0 49
0 0 54
0 0 53
0 0 56
0 4 61
0 0 66
0 4 65
0 2 68
0 7 71
0 21 84
0 35 96
26 39 100
95 96 102
84 84 58
72 63 36
77 72 36
47 50 17
33 55 3
32 52 0
30 50 0
36 54 0
34 57 0
23 50 0
24 47 0
25 47 0
24 44 0
24 45 0
24 46 0
24 45 0
21 43 0
22 44 0
23 44 0
21 45 0
20 43 0
20 44 0
30 51 0
27 47 0
25 46 0
26 46 0
25 46 0
26 47 0
27 48 0
32 53 0
23 43 0
22 42 0
25 44 0
29 47 0
23 43 0
21 43 0
15 39 0
17 42 0
24 48 0
24 48 0
23 46 0
20 45 0
21 47 0
23 50 0
28 53 0
25 50 0
20 49 0
21 48 0
22 47 0
28 51 0
33 54 0
35 57 3
46 59 9
57 68 22
56 69 21
56 64 20
63 65 21
61 64 25
56 60 18
58 63 25
41 51 9
57 63 27
68 67 36
83 75 46
89 77 46
96 83 51
89 81 44
82 94 33
59 83 17
34 52 30
0 0 40
0 0 42
0 0 42
0 0 42
0 0 42
0 0 42
0 0 42
0 0 42
0 0 42
0 0 42
0 0 42
199 211 229
222 236 255
222 236 255
222 236 255
222 236 255
222 236 255
222 236 255
222 236 255
222 236 255
222 236 255
222 236 255
222 236 255
222 236 255
222 236 255
222 236 255
222 236 255
222 236 255
222 236 255
222 236 255
222 236 255
222 236 255
222 236 255
222 236 255
222 236 255
222 236 255
222 236 255
222 236 255
222 236 255
222 236 255
222 236 255
222 236 255
222 236 255
222 236 255
222 236 255
222 236 255
222 236 255
222 236 255
222 236 255
222 236 255
222 236 255
222 236 255
222 236 255
222 236 255
222 236 255
222 236 255
222 236 255
222 236 255
222 236 255
222 236 255
222 236 255
222 236 255
222 236 255
222 236 255
222 236 255
222 236 255
222 236 255
222 236 255
222 236 255
222 236 255
222 236 255
222 236 255
222 236 255
222 236 255
222 236 255
222 236 255
222 236 255
222 236 255
222 236 255
222 236 255
222 236 255
222 236 255
222 236 255
222 236 255
222 236 255
222 236 255
222 236 255
222 236 255
222 236 255
222 236 255
222 236 255
222 236 255
222 236 255
222 236 255
222 236 255
222 236 255
222 236 255
222 236 255
222 236 255
222 236 255
222 236 255
222 236 255
222 236 255
222 236 255
222 236 255
222 236 255
222 236 255
222 236 255
222 236 255
222 236 255
222 236 255
222 236 255
222 236 255
222 236 255
222 236 255
222 236 255
222 236 255
222 236 255
222 236 255
222 236 255
222 236 255
222 236 255
222 236 255
222 236 255
222 236 255
222 236 255
222 236 255
222 236 255
222 236 255
222 236 255
222 236 255
222 236 255
222 236 255
222 236 255
222 236 255
222 236 255
222 236 255
222 236 255
222 236 255
222 236 255
222 236 255
222 236 255
222 236 255
222 236 255
222 236 255
222 236 255
222 236 255
222 236 255
222 236 255
222 236 255
222 236 255
222 236 255
222 236 255
222 236 255
222 236 255
222 236 255
222 236 255
222 236 255
222 236 255
222 236 255
222 236 255
222 236 255
222 236 255
222 236 255
222 236 255
222 236 255
222 236 255
222 236 255
222 236 255
222 236 255
222 236 255
222 236 255
222 236 255
222 236 255
222 236 255
222 236 255
222 236 255
222 236 255
222 236 255
222 236 255
222 236 255
222 236 255
222 236 255
222 236 255
222 236 255
222 236 255
222 236 255
222 236 255
222 236 255
222 236 255
222 236 255
222 236 255
222 236 255
222 236 255
222 236 255
222 236 255
222 236 255
222 236 255
222 236 255
31 33 55
0 0 42
0 0 42
0 0 42
0 0 42
0 0 42
0 0 42
0 0 42
0 0 42
0 0 43
0 0 45
0 0 45
0 0 45
0 0 45
0 0 45
0 0 44
0 0 43
0 0 42
0 0 41
0 0 42
0 0 42
0 0 42
0 0 42
0 0 42
0 0 42
0 0 42
0 0 42
0 0 42
0 0 42
0 0 42
0 0 42
0 0 42
0 0 42
0 0 42
0 0 42
0 0 42
0 0 42
0 0 42
0 0 42
0 0 42
0 0 42
0 0 42
0 0 42
0 0 42
0 0 42
0 0 42
0 0 42
0 0 42
0 0 42
0 0 42
0 0 42
0 0 42
0 0 42
0 0 42
0 0 42
0 0 42
0 0 42
0 0 42
0 0 42
0 0 42
0 0 42
0 0 42
0 0 42
0 0 42
0 0 42
0 0 42
0 0 42
0 0 42
0 0 42
0 0 42
0 0 42
0 0 42
0 0 42
0 0 42
0 0 42
0 0 42
0 0 42
0 0 42
0 0 42
0 0 42
0 0 42
0 0 42
0 0 42
0 0 42
0 0 42
0 0 42
0 0 42
0 0 42
0 0 42
0 0 42
0 0 42
0 0 42
0 0 42
0 0 43
0 0 45
0 0 45
0 0 45
0 0 45
0 0 45
0 0 45
0 0 45
0 0 45
0 0 45
0 0 45
0 0 45
0 0 45
0 0 45
0 0 45
0 0 45
0 0 45
0 0 45
0 0 45
0 0 45
0 0 45
0 0 45
0 0 45
0 0 45
0 0 45
0 0 50
0 0 53
0 0 57
0 0 62
0 0 64
0 0 63
0 0 62
0 0 68
0 11 72
0 28 85
0 51 110
0 35 94
66 84 107
114 108 88
71 65 40
78 76 38
60 60 28
33 50 7
32 54 0
31 53 0
32 51 0
29 51 0
20 45 0
24 46 0
28 48 0
25 46 0
24 44 0
24 46 0
24 45 0
22 43 0
22 44 0
22 43 0
24 47 0
23 47 0
25 48 0
31 53 0
28 49 0
28 49 0
26 47 0
26 46 0
28 49 0
27 48 0
27 47 0
27 48 0
23 44 0
25 45 0
20 41 0
23 44 0
23 44 0
19 41 0
23 44 0
24 47 0
24 48 0
28 51 0
25 49 0
29 52 0
25 49 0
32 54 0
30 54 0
25 49 0
23 46 0
25 50 0
23 47 0
34 58 0
33 53 0
47 59 14
55 67 21
53 63 17
61 66 24
75 76 37
63 65 29
65 65 28
52 61 21
49 56 21
66 68 37
85 81 52
87 84 54
98 84 52
92 81 43
75 79 27
65 89 20
51 76 16
5 10 45
0 0 39
0 0 42
0 0 42
0 0 42
0 0 42
0 0 42
0 0 42
0 0 42
0 0 42
0 0 42
31 33 55
222 236 255
222 236 255
222 236 255
222 236 255
222 236 255
222 236 255
222 236 255
222 236 255
222 236 255
222 236 255
222 236 255
222 236 255
222 236 255
222 236 255
222 236 255
222 236 255
222 236 255
222 236 255
222 236 255
222 236 255
222 236 255
222 236 255
222 236 255
222 236 255
222 236 255
222 236 255
222 236 255
222 236 255
222 236 255
222 236 255
222 236 255
222 236 255
222 236 255
222 236 255
222 236 255
222 236 255
222 236 255
222 236 255
222 236 255
222 236 255
222 236 255
222 236 255
222 236 255
222 236 255
222 236 255
222 236 255
222 236 255
222 236 255
222 236 255
222 236 255
222 236 255
222 236 255
222 236 255
222 236 255
222 236 255
222 236 255
222 236 255
222 236 255
222 236 255
222 236 255
222 236 255
222 236 255
222 236 255
222 236 255
222 236 255
222 236 255
222 236 255
222 236 255
222 236 255
222 236 255
222 236 255
222 236 255
222 236 255
222 236 255
222 236 255
222 236 255
222 236 255
222 236 255
222 236 255
222 236 255
222 236 255
222 236 255
222 236 255
222 236 255
222 236 255
222 236 255
222 236 255
222 236 255
222 236 255
222 236 255
222 236 255
222 236 255
222 236 255
222 236 255
222 236 255
222 236 255
222 236 255
222 236 255
222 236 255
222 236 255
222 236 255
222 236 255
222 236 255
222 236 255
222 236 255
222 236 255
222 236 255
222 236 255
222 236 255
222 236 255
222 236 255
222 236 255
222 236 255
222 236 255
222 236 255
222 236 255
222 236 255
222 236 255
222 236 255
222 236 255
222 236 255
222 236 255
222 236 255
222 236 255
222 236 255
222 236 255
222 236 255
222 236 255
222 236 255
222 236 255
222 236 255
222 236 255
222 236 255
222 236 255
222 236 255
222 236 255
222 236 255
222 236 255
222 236 255
222 236 255
222 236 255
222 236 255
222 236 255
222 236 255
222 236 255
222 236 255
222 236 255
222 236 255
222 236 255
222 236 255
222 236 255
222 236 255
222 236 255
222 236 255
222 236 255
222 236 255
222 236 255
222 236 255
222 236 255
222 236 255
222 236 255
222 236 255
222 236 255
222 236 255
222 236 255
222 236 255
222 236 255
222 236 255
222 236 255
222 236 255
222 236 255
222 236 255
222 236 255
222 236 255
222 236 255
222 236 255
222 236 255
222 236 255
222 236 255
222 236 255
222 236 255
222 236 255
222 236 255
222 236 255
222 236 255
222 236 255
222 236 255
222 236 255
89 94 109
0 0 42
0 0 42
0 0 42
0 0 42
0 0 42
0 0 42
0 0 42
0 0 42
0 0 42
0 0 42
0 0 45
0 0 45
0 0 45
0 0 45
0 0 44
0 0 45
0 0 44
0 0 41
0 0 42
0 0 42
0 0 42
0 0 42
0 0 42
0 0 42
0 0 42
0 0 42
0 0 42
0 0 42
0 0 42
0 0 42
0 0 42
0 0 42
0 0 42
0 0 42
0 0 42
0 0 42
0 0 42
0 0 42
0 0 42
0 0 42
0 0 42
0 0 42
0 0 42
0 0 42
0 0 42
0 0 42
0 0 42
0 0 42
0 0 42
0 0 42
0 0 42
0 0 42
0 0 42
0 0 42
0 0 42
0 0 42
0 0 42
0 0 42
0 0 42
0 0 42
0 0 42
0 0 42
0 0 42
0 0 42
0 0 42
0 0 42
0 0 42
0 0 42
0 0 42
0 0 42
0 0 42
0 0 42
0 0 42
0 0 42
0 0 42
0 0 42
0 0 42
0 0 42
0 0 42
0 0 42
0 0 42
0 0 42
0 0 42
0 0 42
0 0 42
0 0 42
0 0 42
0 0 42
0 0 42
0 0 42
0 0 42
0 0 42
0 0 43
0 0 45
0 0 45
0 0 45
0 0 45
0 0 45
0 0 45
0 0 45
0 0 45
0 0 45
0 0 45
0 0 45
0 0 45
0 0 45
0 0 45
0 0 45
0 0 45
0 0 45
0 0 45
0 0 45
0 0 45
0 0 46
0 0 46
0 0 47
0 0 46
0 0 48
0 0 54
0 0 60
0 0 64
0 0 64
0 0 60
0 0 59
0 0 64
0 5 67
0 19 77
0 41 98
0 39 98
20 47 98
110 107 94
82 76 45
74 71 37
70 70 34
50 56 24
37 54 6
31 51 0
27 49 0
25 49 0
22 43 0
22 42 0
25 47 0
25 47 0
26 46 0
27 47 0
27 47 0
25 46 0
22 45 0
23 45 0
21 44 0
25 50 0
36 59 1
34 56 2
31 52 0
30 52 0
27 48 0
27 47 0
26 47 0
25 46 0
29 50 0
34 56 0
33 55 0
30 51 0
20 44 0
23 44 0
17 41 0
20 42 0
27 47 0
26 49 0
29 53 0
35 59 0
33 58 0
41 66 7
38 59 0
45 66 9
33 54 0
29 51 0
25 48 0
28 51 0
28 50 0
40 61 12
38 54 2
48 60 17
58 68 26
53 61 18
61 66 26
83 82 44
71 70 37
64 66 29
54 61 24
59 59 29
71 69 41
77 71 43
71 68 35
76 70 33
74 74 31
66 77 25
60 83 16
29 44 33
0 0 40
0 0 44
0 0 42
0 0 42
0 0 42
0 0 42
0 0 42
0 0 42
0 0 42
0 0 42
0 0 42
102 108 123
222 236 255
222 236 255
222 236 255
222 236 255
222 236 255
222 236 255
222 236 255
222 236 255
222 236 255
222 236 255
222 236 255
222 236 255
222 236 255
222 236 255
222 236 255
222 236 255
222 236 255
222 236 255
222 236 255
222 236 255
222 236 255
222 236 255
222 236 255
222 236 255
222 236 255
222 236 255
222 236 255
222 236 255
222 236 255
222 236 255
222 236 255
222 236 255
222 236 255
222 236 255
222 236 255
222 236 255
222 236 255
222 236 255
222 236 255
222 236 255
222 236 255
222 236 255
222 236 255
222 236 255
222 236 255
222 236 255
222 236 255
222 236 255
222 236 255
222 236 255
222 236 255
222 236 255
222 236 255
222 236 255
222 236 255
222 236 255
222 236 255
222 236 255
222 236 255
222 236 255
222 236 255
222 236 255
222 236 255
222 236 255
222 236 255
222 236 255
222 236 255
222 236 255
222 236 255
222 236 255
222 236 255
222 236 255
222 236 255
222 236 255
222 236 255
222 236 255
222 236 255
222 236 255
222 236 255
222 236 255
222 236 255
222 236 255
222 236 255
222 236 255
222 236 255
222 236 255
222 236 255
222 236 255
222 236 255
222 236 255
222 236 255
222 236 255
222 236 255
222 236 255
222 236 255
222 236 255
222 236 255
222 236 255
222 236 255
222 236 255
222 236 255
222 236 255
222 236 255
222 236 255
222 236 255
222 236 255
222 236 255
222 236 255
222 236 255
222 236 255
222 236 255
222 236 255
222 236 255
222 236 255
222 236 255
222 236 255
222 236 255
222 236 255
222 236 255
222 236 255
222 236 255
222 236 255
222 236 255
222 236 255
222 236 255
222 236 255
222 236 255
222 236 255
222 236 255
222 236 255
222 236 255
222 236 255
222 236 255
222 236 255
222 236 255
222 236 255
222 236 255
222 236 255
222 236 255
222 236 255
222 236 255
222 236 255
222 236 255
222 236 255
222 236 255
222 236 255
222 236 255
222 236 255
222 236 255
222 236 255
222 236 255
222 236 255
222 236 255
222 236 255
222 236 255
222 236 255
222 236 255
222 236 255
222 236 255
222 236 255
222 236 255
222 236 255
222 236 255
222 236 255
222 236 255
222 236 255
222 236 255
222 236 255
222 236 255
222 236 255
222 236 255
222 236 255
222 236 255
222 236 255
222 236 255
222 236 255
222 236 255
222 236 255
222 236 255
222 236 255
222 236 255
222 236 255
222 236 255
222 236 255
222 236 255
222 236 255
222 236 255
222 236 255
160 170 186
0 0 42
0 0 42
0 0 42
0 0 42
0 0 42
0 0 42
0 0 42
0 0 42
0 0 42
0 0 42
0 0 44
0 0 45
0 0 45
0 0 45
0 0 45
0 0 45
0 0 43
0 0 42
0 0 42
0 0 42
0 0 42
0 0 42
0 0 42
0 0 42
0 0 42
0 0 42
0 0 42
0 0 42
0 0 42
0 0 42
0 0 42
0 0 42
0 0 42
0 0 42
0 0 42
0 0 42
0 0 42
0 0 42
0 0 42
0 0 42
0 0 42
0 0 42
0 0 42
0 0 42
0 0 42
0 0 42
0 0 42
0 0 42
0 0 42
0 0 42
0 0 42
0 0 42
0 0 42
0 0 42
0 0 42
0 0 42
0 0 42
0 0 42
0 0 42
0 0 42
0 0 42
0 0 42
0 0 42
0 0 42
0 0 42
0 0 42
0 0 42
0 0 42
0 0 42
0 0 42
0 0 42
0 0 42
0 0 42
0 0 42
0 0 42
0 0 42
0 0 42
0 0 42
0 0 42
0 0 42
0 0 42
0 0 42
0 0 42
0 0 42
0 0 42
0 0 42
0 0 42
0 0 42
0 0 42
0 0 42
0 0 42
0 0 42
0 0 42
0 0 43
0 0 43
0 0 43
0 0 43
0 0 43
0 0 43
0 0 45
0 0 45
0 0 45
0 0 45
0 0 45
0 0 45
0 0 45
0 0 45
0 0 45
0 0 45
0 0 45
0 0 45
0 0 45
0 0 46
0 0 48
0 0 48
0 0 48
0 0 50
0 0 47
0 0 49
0 0 57
0 0 65
0 0 66
0 0 60
0 0 60
0 0 59
0 1 65
0 6 70
0 19 82
0 31 94
0 30 97
67 79 89
101 92 63
77 68 37
74 70 34
72 70 38
50 58 20
31 49 0
22 44 0
20 45 0
24 45 0
24 44 0
23 42 0
24 46 0
27 47 0
28 47 0
26 47 0
25 47 0
26 47 0
25 45 0
26 47 0
32 53 0
41 63 8
41 63 5
32 53 0
27 48 0
25 44 0
29 49 0
27 49 0
26 50 0
35 57 0
41 62 0
43 66 0
36 58 0
22 46 0
24 46 0
22 43 0
23 45 0
26 48 0
27 51 0
29 54 0
30 54 0
32 56 0
45 67 7
52 74 18
48 70 18
32 54 0
30 52 0
31 52 6
40 59 10
38 55 6
39 54 11
43 54 15
48 61 19
62 68 27
53 61 20
61 67 27
82 76 40
69 67 35
52 60 19
51 56 21
67 64 38
77 72 44
84 73 45
76 69 36
71 74 29
72 76 31
68 78 27
41 61 24
3 5 44
0 0 41
0 0 43
0 0 42
0 0 42
0 0 42
0 0 42
0 0 42
0 0 42
0 0 42
0 0 42
0 0 42
137 145 161
222 236 255
222 236 255
222 236 255
222 236 255
222 236 255
222 236 255
222 236 255
222 236 255
222 236 255
222 236 255
222 236 255
222 236 255
222 236 255
222 236 255
222 236 255
222 236 255
222 236 255
222 236 255
222 236 255
222 236 255
222 236 255
222 236 255
222 236 255
222 236 255
222 236 255
222 236 255
222 236 255
222 236 255
222 236 255
222 236 255
222 236 255
222 236 255
222 236 255
222 236 255
222 236 255
222 236 255
222 236 255
222 236 255
222 236 255
222 236 255
222 236 255
222 236 255
222 236 255
222 236 255
222 236 255
222 236 255
222 236 255
222 236 255
222 236 255
222 236 255
222 236 255
222 236 255
222 236 255
222 236 255
222 236 255
222 236 255
222 236 255
222 236 255
222 236 255
222 236 255
222 236 255
222 236 255
222 236 255
222 236 255
222 236 255
222 236 255
222 236 255
222 236 255
222 236 255
222 236 255
222 236 255
222 236 255
222 236 255
222 236 255
222 236 255
222 236 255
222 236 255
222 236 255
222 236 255
222 236 255
222 236 255
222 236 255
222 236 255
222 236 255
222 236 255
222 236 255
222 236 255
222 236 255
222 236 255
222 236 255
222 236 255
222 236 255
222 236 255
222 236 255
222 236 255
222 236 255
222 236 255
222 236 255
222 236 255
222 236 255
222 236 255
222 236 255
222 236 255
222 236 255
222 236 255
222 236 255
222 236 255
222 236 255
222 236 255
222 236 255
222 236 255
222 236 255
222 236 255
222 236 255
222 236 255
222 236 255
222 236 255
222 236 255
222 236 255
222 236 255
222 236 255
222 236 255
222 236 255
222 236 255
222 236 255
222 236 255
222 236 255
222 236 255
222 236 255
222 236 255
222 236 255
222 236 255
222 236 255
222 236 255
222 236 255
222 236 255
222 236 255
222 236 255
222 236 255
222 236 255
222 236 255
222 236 255
222 236 255
222 236 255
222 236 255
222 236 255
222 236 255
222 236 255
222 236 255
222 236 255
222 236 255
222 236 255
223 236 255
222 236 255
222 236 255
222 236 255
223 236 255
223 236 255
222 236 255
223 236 255
223 236 255
223 236 255
223 236 255
223 236 255
223 236 255
223 236 255
223 236 255
223 236 255
223 236 255
223 236 255
223 236 255
223 236 255
223 236 255
223 236 255
223 236 255
223 236 255
223 236 255
223 236 255
223 236 255
223 236 255
223 236 255
223 236 255
223 236 255
223 236 255
223 236 255
223 236 255
223 236 255
223 236 255
185 196 213
0 0 42
0 0 42
0 0 42
0 0 42
0 0 42
0 0 42
0 0 42
0 0 42
0 0 42
0 0 42
0 0 42
0 0 45
0 0 45
0 0 45
0 0 45
0 0 43
0 0 43
0 0 44
0 0 42
0 0 42
0 0 42
0 0 42
0 0 42
0 0 42
0 0 42
0 0 42
0 0 42
0 0 42
0 0 42
0 0 42
0 0 42
0 0 42
0 0 42
0 0 42
0 0 42
0 0 42
0 0 42
0 0 42
0 0 42
0 0 42
0 0 42
0 0 42
0 0 42
0 0 42
0 0 42
0 0 42
0 0 42
0 0 42
0 0 42
0 0 42
0 0 42
0 0 42
0 0 42
0 0 42
0 0 42
0 0 42
0 0 42
0 0 42
0 0 42
0 0 42
0 0 42
0 0 42
0 0 42
0 0 42
0 0 42
0 0 42
0 0 42
0 0 42
0 0 42
0 0 42
0 0 42
0 0 42
0 0 42
0 0 42
0 0 42
0 0 42
0 0 42
0 0 42
0 0 42
0 0 42
0 0 42
0 0 42
0 0 42
0 0 42
0 0 42
0 0 42
0 0 42
0 0 42
0 0 42
0 0 42
0 0 42
0 0 42
0 0 42
0 0 42
0 0 42
0 0 42
0 0 42
0 0 42
0 0 42
0 0 45
0 0 45
0 0 45
0 0 45
0 0 45
0 0 45
0 0 45
0 0 45
0 0 45
0 0 45
0 0 45
0 0 45
0 0 46
0 0 48
0 0 48
0 0 48
0 0 48
0 0 48
0 0 50
0 0 59
0 0 63
0 0 63
0 0 59
0 0 58
0 0 58
0 0 60
0 7 66
0 7 69
0 14 74
0 28 90
0 30 95
42 56 92
103 97 91
91 78 50
79 75 43
78 73 37
56 58 20
33 48 0
26 49 0
22 44 0
27 46 0
23 45 0
24 43 0
27 48 0
27 49 0
27 48 0
25 47 0
25 45 0
28 46 0
30 51 0
29 52 0
33 54 0
35 56 0
29 49 0
25 46 0
26 46 0
28 47 0
31 52 0
27 49 0
23 46 0
27 50 0
35 57 0
49 72 11
45 67 10
29 50 0
22 43 0
20 41 0
20 44 0
25 50 0
28 51 0
29 53 0
29 53 0
29 52 0
40 61 6
48 70 16
41 61 11
27 48 0
21 42 0
36 55 8
42 59 12
46 59 19
45 55 17
41 52 13
46 59 18
61 65 26
53 62 23
67 71 31
88 80 46
61 63 27
45 57 14
56 59 27
75 71 45
80 71 43
97 78 52
72 70 31
73 77 28
74 77 27
60 73 18
22 34 37
0 0 41
0 0 42
0 0 42
0 0 42
0 0 42
0 0 42
0 0 42
0 0 42
0 0 42
0 0 42
0 0 42
0 0 42
175 186 203
223 236 255
223 236 255
223 236 255
223 236 255
223 236 255
223 236 255
223 236 255
223 236 255
223 236 255
223 236 255
223 236 255
223 236 255
223 236 255
223 236 255
223 236 255
223 236 255
223 236 255
223 236 255
223 236 255
223 236 255
223 236 255
222 236 255
223 236 255
223 236 255
223 236 255
223 236 255
223 236 255
223 236 255
223 236 255
223 236 255
222 236 255
223 236 255
222 236 255
222 236 255
222 236 255
222 236 255
222 236 255
222 236 255
222 236 255
222 236 255
222 236 255
222 236 255
222 236 255
222 236 255
222 236 255
222 236 255
222 236 255
222 236 255
222 236 255
222 236 255
222 236 255
222 236 255
222 236 255
222 236 255
222 236 255
222 236 255
222 236 255
222 236 255
222 236 255
222 236 255
222 236 255
222 236 255
222 236 255
222 236 255
222 236 255
222 236 255
222 236 255
222 236 255
222 236 255
222 236 255
222 236 255
222 236 255
222 236 255
222 236 255
222 236 255
222 236 255
222 236 255
222 236 255
222 236 255
222 236 255
222 236 255
222 236 255
222 236 255
222 236 255
222 236 255
222 236 255
222 236 255
222 236 255
222 236 255
222 236 255
222 236 255
222 236 255
222 236 255
222 236 255
223 236 255
223 236 255
223 236 255
223 236 255
223 236 255
223 236 255
223 236 255
223 236 255
223 236 255
223 236 255
223 236 255
223 236 255
223 236 255
223 236 255
223 236 255
223 236 255
223 236 255
223 236 255
223 236 255
223 236 255
223 236 255
223 236 255
223 236 255
223 236 255
223 236 255
223 236 255
223 236 255
223 236 255
223 236 255
223 236 255
223 236 255
223 236 255
223 236 255
223 236 255
223 236 255
223 236 255
223 236 255
223 236 255
223 236 255
223 236 255
223 236 255
223 236 255
223 236 255
223 236 255
223 236 255
223 236 255
223 236 255
223 236 255
223 236 255
223 236 255
223 236 255
223 236 255
223 236 255
223 236 255
223 236 255
223 236 255
223 236 255
223 236 255
223 236 255
223 236 255
223 236 255
223 236 255
223 236 255
223 236 255
223 236 255
223 236 255
223 236 255
223 236 255
223 236 255
223 236 255
223 236 255
223 236 255
223 236 255
223 236 255
223 236 255
223 236 255
223 236 255
223 236 255
223 236 255
223 236 255
223 236 255
223 236 255
223 236 255
223 236 255
223 236 255
223 236 255
223 236 255
223 236 255
223 236 255
223 236 255
223 236 255
223 236 255
223 236 255
223 236 255
206 219 237
0 0 42
0 0 42
0 0 42
0 0 42
0 0 42
0 0 42
0 0 42
0 0 42
0 0 42
0 0 42
0 0 42
0 0 44
0 0 45
0 0 45
0 0 45
0 0 43
0 0 42
0 0 42
0 0 42
0 0 42
0 0 42
0 0 42
0 0 42
0 0 42
0 0 42
0 0 42
0 0 42
0 0 42
0 0 42
0 0 42
0 0 42
0 0 42
0 0 42
0 0 42
0 0 42
0 0 42
0 0 42
0 0 42
0 0 42
0 0 42
0 0 42
0 0 42
0 0 42
0 0 42
0 0 42
0 0 42
0 0 42
0 0 42
0 0 42
0 0 42
0 0 42
0 0 42
0 0 42
0 0 42
0 0 42
0 0 42
0 0 42
0 0 42
0 0 42
0 0 42
0 0 42
0 0 42
0 0 42
0 0 42
0 0 42
0 0 42
0 0 42
0 0 42
0 0 42
0 0 42
0 0 42
0 0 42
0 0 42
0 0 42
0 0 42
0 0 42
0 0 42
0 0 42
0 0 42
0 0 42
0 0 42
0 0 42
0 0 42
0 0 42
0 0 42
0 0 42
0 0 42
0 0 42
0 0 42
0 0 42
0 0 42
0 0 42
0 0 42
0 0 42
0 0 42
0 0 42
0 0 42
0 0 42
0 0 42
0 0 45
0 0 45
0 0 45
0 0 45
0 0 45
0 0 45
0 0 45
0 0 45
0 0 45
0 0 45
0 0 45
0 0 45
0 0 47
0 0 48
0 0 48
0 0 48
0 0 49
0 0 50
0 8 62
0 0 64
0 0 59
0 0 55
0 0 54
0 0 54
0 0 54
0 0 59
0 0 63
0 0 66
0 8 75
0 22 87
0 37 98
19 37 98
94 96 104
104 96 68
79 78 47
75 73 36
60 60 22
36 48 0
31 54 0
25 45 0
26 44 0
23 44 0
25 45 0
28 48 0
28 49 0
28 47 0
27 47 0
27 46 0
26 44 0
31 51 0
35 56 0
31 51 0
29 47 0
25 45 0
29 49 0
29 51 0
27 48 0
27 49 0
24 46 0
20 43 0
24 45 0
32 54 0
45 66 3
49 70 10
39 59 7
27 48 0
20 42 0
21 43 0
31 55 0
34 57 0
38 60 5
38 61 4
31 54 0
34 53 0
34 55 0
33 55 8
24 47 0
22 42 0
31 51 0
42 60 12
46 59 18
48 59 21
42 56 16
55 63 23
62 68 26
55 64 21
61 67 28
85 79 48
77 74 43
54 59 24
63 61 31
67 63 34
64 61 30
83 71 39
58 68 19
77 77 25
66 73 24
41 55 22
0 0 42
0 0 42
0 0 42
0 0 42
0 0 42
0 0 42
0 0 42
0 0 42
0 0 42
0 0 42
0 0 42
0 0 42
0 0 42
208 220 239
223 236 255
223 236 255
223 236 255
223 236 255
223 236 255
223 236 255
223 236 255
223 236 255
223 236 255
223 236 255
223 236 255
223 236 255
223 236 255
223 236 255
223 236 255
223 236 255
223 236 255
223 236 255
223 236 255
223 236 255
223 236 255
223 236 255
223 236 255
223 236 255
223 236 255
223 236 255
223 236 255
223 236 255
223 236 255
223 236 255
223 236 255
223 236 255
223 236 255
223 236 255
223 236 255
223 236 255
223 236 255
223 236 255
223 236 255
223 236 255
223 236 255
223 236 255
223 236 255
223 236 255
223 236 255
223 236 255
223 236 255
223 236 255
223 236 255
223 236 255
223 236 255
223 236 255
223 236 255
223 236 255
223 236 255
223 236 255
223 236 255
223 236 255
223 236 255
223 236 255
223 236 255
223 236 255
223 236 255
223 236 255
223 236 255
223 236 255
223 236 255
223 236 255
223 236 255
223 236 255
223 236 255
223 236 255
223 236 255
223 236 255
223 236 255
223 236 255
223 236 255
223 236 255
223 236 255
223 236 255
223 236 255
223 236 255
223 236 255
223 236 255
223 236 255
223 236 255
223 236 255
223 236 255
223 236 255
223 236 255
223 236 255
223 236 255
223 236 255
223 236 255
223 236 255
223 236 255
223 236 255
223 236 255
223 236 255
223 236 255
223 236 255
223 236 255
223 236 255
223 236 255
223 236 255
223 236 255
223 236 255
223 236 255
223 236 255
223 236 255
223 236 255
223 236 255
223 236 255
223 236 255
223 236 255
223 236 255
223 236 255
223 236 255
223 236 255
223 236 255
223 236 255
223 236 255
223 236 255
223 236 255
223 236 255
223 236 255
223 236 255
223 236 255
223 236 255
223 236 255
223 236 255
223 236 255
223 236 255
223 236 255
223 236 255
223 236 255
223 236 255
223 236 255
223 236 255
223 236 255
223 236 255
223 236 255
223 236 255
223 236 255
223 236 255
223 236 255
223 236 255
223 236 255
223 236 255
223 236 255
223 236 255
223 236 255
223 236 255
223 236 255
223 236 255
223 236 255
223 236 255
223 236 255
223 236 255
223 236 255
223 236 255
223 236 255
223 236 255
223 236 255
223 236 255
223 236 255
223 236 255
223 236 255
223 236 255
223 236 255
223 236 255
223 236 255
223 236 255
223 236 255
223 236 255
223 236 255
223 236 255
223 236 255
223 236 255
223 236 255
223 236 255
223 236 255
223 236 255
223 236 255
223 236 255
223 236 255
223 236 255
223 236 255
220 234 253
86 91 106
0 0 42
0 0 42
0 0 42
0 0 42
0 0 42
0 0 42
0 0 42
0 0 42
0 0 42
0 0 42
0 0 42
0 0 43
0 0 45
0 0 45
0 0 43
0 0 42
0 0 42
0 0 42
0 0 42
0 0 42
0 0 42
0 0 42
0 0 42
0 0 42
0 0 42
0 0 42
0 0 42
0 0 42
0 0 42
0 0 42
0 0 42
0 0 42
0 0 42
0 0 42
0 0 42
0 0 42
0 0 42
0 0 42
0 0 42
0 0 42
0 0 42
0 0 42
0 0 42
0 0 42
0 0 42
0 0 42
0 0 42
0 0 42
0 0 42
0 0 42
0 0 42
0 0 42
0 0 42
0 0 42
0 0 42
0 0 42
0 0 42
0 0 42
0 0 42
0 0 42
0 0 42
0 0 42
0 0 42
0 0 42
0 0 42
0 0 42
0 0 42
0 0 42
0 0 42
0 0 42
0 0 42
0 0 42
0 0 42
0 0 42
0 0 42
0 0 42
0 0 42
0 0 42
0 0 42
0 0 42
0 0 42
0 0 42
0 0 42
0 0 42
0 0 42
0 0 42
0 0 42
0 0 42
0 0 42
0 0 42
0 0 42
0 0 42
0 0 42
0 0 42
0 0 42
0 0 42
0 0 42
0 0 42
0 0 45
0 0 45
0 0 45
0 0 45
0 0 45
0 0 45
0 0 45
0 0 45
0 0 45
0 0 45
0 0 45
0 0 45
0 0 47
0 0 47
0 0 46
0 0 46
0 0 52
0 0 62
0 6 65
0 0 58
0 0 53
0 0 52
0 0 51
0 0 49
0 0 50
0 0 53
0 0 59
0 0 63
0 3 68
0 15 80
0 41 99
0 31 103
55 77 115
123 116 106
78 78 43
89 80 47
87 77 47
57 53 18
50 60 18
27 47 0
26 48 0
25 45 0
27 47 0
29 48 0
24 42 0
26 45 0
27 47 0
23 44 0
24 45 0
26 49 0
28 49 0
27 47 0
27 47 0
25 46 0
30 50 0
26 47 0
26 46 0
25 46 0
24 43 0
25 46 0
28 47 0
33 52 0
43 61 5
48 70 11
43 65 9
32 53 0
22 42 0
21 44 0
29 53 0
35 58 0
34 54 4
36 57 6
29 49 0
46 60 14
40 59 11
24 46 0
23 45 0
22 44 0
29 49 0
37 54 4
48 61 17
46 59 20
44 55 16
61 69 29
62 68 26
56 66 24
60 65 30
92 84 53
76 75 42
59 63 26
63 62 32
70 64 37
68 63 31
60 60 21
56 65 16
67 75 22
51 68 10
17 27 37
0 0 42
0 0 42
0 0 42
0 0 42
0 0 42
0 0 42
0 0 42
0 0 42
0 0 42
0 0 42
0 0 42
0 0 42
54 58 74
223 236 255
223 236 255
223 236 255
223 236 255
223 236 255
223 236 255
223 236 255
223 236 255
223 236 255
223 236 255
223 236 255
223 236 255
223 236 255
223 236 255
223 236 255
223 236 255
223 236 255
223 236 255
223 236 255
223 236 255
223 236 255
223 236 255
223 236 255
223 236 255
223 236 255
223 236 255
223 236 255
223 236 255
223 236 255
223 236 255
223 236 255
223 236 255
223 236 255
223 236 255
223 236 255
223 236 255
223 236 255
223 236 255
223 236 255
223 236 255
223 236 255
223 236 255
223 236 255
223 236 255
223 236 255
223 236 255
223 236 255
223 236 255
223 236 255
223 236 255
223 236 255
223 236 255
223 236 255
223 236 255
223 236 255
223 236 255
223 236 255
223 236 255
223 236 255
223 236 255
223 236 255
223 236 255
223 236 255
223 236 255
223 236 255
223 236 255
223 236 255
223 236 255
223 236 255
223 236 255
223 236 255
223 236 255
223 236 255
223 236 255
223 236 255
223 236 255
223 236 255
223 236 255
223 236 255
223 236 255
223 236 255
223 236 255
223 236 255
223 236 255
223 236 255
223 236 255
223 236 255
223 236 255
223 236 255
223 236 255
223 236 255
223 236 255
223 236 255
223 236 255
223 236 255
223 236 255
223 236 255
223 236 255
223 236 255
223 236 255
223 236 255
223 236 255
223 236 255
223 236 255
223 236 255
223 236 255
223 236 255
223 236 255
223 236 255
223 236 255
223 236 255
223 236 255
223 236 255
223 236 255
223 236 255
223 236 255
223 236 255
223 236 255
223 236 255
223 236 255
223 236 255
223 236 255
223 236 255
223 236 255
223 236 255
223 236 255
223 236 255
223 236 255
223 236 255
223 236 255
223 236 255
223 236 255
223 236 255
223 236 255
223 236 255
223 236 255
223 236 255
223 236 255
223 236 255
223 236 255
223 236 255
223 236 255
223 236 255
223 236 255
223 236 255
223 236 255
223 236 255
223 236 255
223 236 255
223 236 255
223 236 255
223 236 255
223 236 255
223 236 255
223 236 255
223 236 255
223 236 255
223 236 255
223 236 255
223 236 255
223 236 255
223 236 255
223 236 255
223 236 255
223 236 255
223 236 255
223 236 255
223 236 255
223 236 255
223 236 255
223 236 255
223 236 255
223 236 255
223 236 255
223 236 255
223 236 255
223 236 255
223 236 255
223 236 255
223 236 255
223 236 255
223 236 255
223 236 255
223 236 255
223 236 255
223 236 255
223 236 255
223 236 255
223 236 255
223 236 255
122 129 144
0 0 42
0 0 42
0 0 42
0 0 42
0 0 42
0 0 42
0 0 42
0 0 42
0 0 42
0 0 42
0 0 42
0 0 42
0 0 43
0 0 43
0 0 43
0 0 42
0 0 42
0 0 42
0 0 42
0 0 42
0 0 42
0 0 42
0 0 42
0 0 42
0 0 42
0 0 42
0 0 42
0 0 42
0 0 42
0 0 42
0 0 42
0 0 42
0 0 42
0 0 42
0 0 42
0 0 42
0 0 42
0 0 42
0 0 42
0 0 42
0 0 42
0 0 42
0 0 42
0 0 42
0 0 42
0 0 42
0 0 42
0 0 42
0 0 42
0 0 42
0 0 42
0 0 42
0 0 42
0 0 42
0 0 42
0 0 42
0 0 42
0 0 42
0 0 42
0 0 42
0 0 42
0 0 42
0 0 42
0 0 42
0 0 42
0 0 42
0 0 42
0 0 42
0 0 42
0 0 42
0 0 42
0 0 42
0 0 42
0 0 42
0 0 42
0 0 42
0 0 42
0 0 42
0 0 42
0 0 42
0 0 42
0 0 42
0 0 42
0 0 42
0 0 42
0 0 42
0 0 42
0 0 42
0 0 42
0 0 42
0 0 42
0 0 42
0 0 42
0 0 42
0 0 42
0 0 42
0 0 42
0 0 42
0 0 43
0 0 45
0 0 45
0 0 45
0 0 45
0 0 43
0 0 45
0 0 45
0 0 45
0 0 45
0 0 45
0 0 45
0 0 47
0 0 45
0 0 45
0 0 47
0 0 53
0 0 60
0 0 60
0 0 56
0 0 53
0 0 52
0 0 50
0 0 48
0 0 46
0 0 49
0 0 55
0 0 58
0 0 64
0 11 76
0 30 89
0 41 101
0 39 94
74 98 127
109 96 77
96 78 46
95 84 51
81 77 42
56 60 20
37 50 0
24 43 0
27 48 0
22 46 0
22 42 0
24 44 0
28 45 0
26 46 0
25 43 0
24 44 0
26 47 0
27 48 0
23 46 0
22 45 0
26 47 0
31 50 0
30 47 0
34 52 0
32 52 0
22 44 0
26 48 0
31 52 0
28 51 0
36 60 0
44 66 6
36 58 0
27 49 0
30 50 0
28 48 0
27 47 0
31 53 0
27 49 0
29 48 0
45 57 15
62 67 27
43 55 9
27 46 0
21 43 0
27 49 0
33 51 0
43 56 12
48 58 19
42 54 16
51 59 24
66 73 33
59 66 25
58 67 23
60 67 29
89 81 47
70 71 35
60 61 27
66 66 38
82 71 47
76 71 39
55 61 18
62 67 19
53 71 15
30 45 31
0 0 41
0 0 43
0 0 42
0 0 42
0 0 42
0 0 42
0 0 42
0 0 42
0 0 42
0 0 42
0 0 42
0 0 42
0 0 42
120 127 142
223 236 255
223 236 255
223 236 255
223 236 255
223 236 255
223 236 255
223 236 255
223 236 255
223 236 255
223 236 255
223 236 255
223 236 255
223 236 255
223 236 255
223 236 255
223 236 255
223 236 255
223 236 255
223 236 255
223 236 255
223 236 255
223 236 255
223 236 255
223 236 255
223 236 255
223 236 255
223 236 255
223 236 255
223 236 255
223 236 255
223 236 255
223 236 255
223 236 255
223 236 255
223 236 255
223 236 255
223 236 255
223 236 255
223 236 255
223 236 255
223 236 255
223 236 255
223 236 255
223 236 255
223 236 255
223 236 255
223 236 255
223 236 255
223 236 255
223 236 255
223 236 255
223 236 255
223 236 255
223 236 255
223 236 255
223 236 255
223 236 255
223 236 255
223 236 255
223 236 255
223 236 255
223 236 255
223 236 255
223 236 255
223 236 255
223 236 255
223 236 255
223 236 255
223 236 255
223 236 255
223 236 255
223 236 255
223 236 255
223 236 255
223 236 255
223 236 255
223 236 255
223 236 255
223 236 255
223 236 255
223 236 255
223 236 255
223 236 255
223 236 255
223 236 255
223 236 255
223 236 255
223 236 255
223 236 255
223 236 255
223 236 255
223 236 255
223 236 255
223 236 255
223 236 255
223 236 255
223 236 255
223 236 255
223 236 255
223 236 255
223 236 255
223 236 255
223 236 255
223 236 255
223 236 255
223 236 255
223 236 255
223 236 255
223 236 255
223 236 255
223 236 255
223 236 255
223 236 255
223 236 255
223 236 255
223 236 255
223 236 255
223 236 255
223 236 255
223 236 255
223 236 255
223 236 255
223 236 255
223 236 255
223 236 255
223 236 255
223 236 255
223 236 255
223 236 255
223 236 255
223 236 255
223 236 255
223 236 255
223 236 255
223 236 255
223 236 255
223 236 255
223 236 255
223 236 255
223 236 255
223 236 255
223 236 255
223 236 255
223 236 255
223 236 255
223 236 255
223 236 255
223 236 255
223 236 255
223 236 255
223 236 255
223 236 255
223 236 255
223 236 255
223 236 255
223 236 255
223 236 255
223 236 255
223 236 255
223 236 255
223 236 255
223 236 255
223 236 255
223 236 255
223 236 255
223 236 255
223 236 255
223 236 255
223 236 255
223 236 255
223 236 255
223 236 255
223 236 255
223 236 255
223 236 255
223 236 255
223 236 255
223 236 255
223 236 255
223 236 255
223 236 255
223 236 255
223 236 255
223 236 255
223 236 255
223 236 255
223 236 255
223 236 255
223 236 255
223 236 255
179 190 207
0 0 42
0 0 42
0 0 42
0 0 42
0 0 42
0 0 42
0 0 42
0 0 42
0 0 42
0 0 42
0 0 42
0 0 42
0 0 42
0 0 42
0 0 42
0 0 42
0 0 42
0 0 42
0 0 42
0 0 42
0 0 42
0 0 42
0 0 42
0 0 42
0 0 42
0 0 42
0 0 42
0 0 42
0 0 42
0 0 42
0 0 42
0 0 42
0 0 42
0 0 42
0 0 42
0 0 42
0 0 42
0 0 42
0 0 42
0 0 42
0 0 42
0 0 42
0 0 42
0 0 42
0 0 42
0 0 42
0 0 42
0 0 42
0 0 42
0 0 42
0 0 42
0 0 42
0 0 42
0 0 42
0 0 42
0 0 42
0 0 42
0 0 42
0 0 42
0 0 42
0 0 42
0 0 42
0 0 42
0 0 42
0 0 42
0 0 42
0 0 42
0 0 42
0 0 42
0 0 42
0 0 42
0 0 42
0 0 42
0 0 42
0 0 42
0 0 42
0 0 42
0 0 42
0 0 42
0 0 42
0 0 42
0 0 42
0 0 42
0 0 42
0 0 42
0 0 42
0 0 42
0 0 42
0 0 42
0 0 42
0 0 42
0 0 42
0 0 42
0 0 42
0 0 42
0 0 42
0 0 42
0 0 42
0 0 43
0 0 44
0 0 45
0 0 45
0 0 44
0 0 42
0 0 45
0 0 45
0 0 45
0 0 45
0 0 45
0 0 45
0 0 47
0 0 44
0 0 44
0 0 49
0 0 53
0 0 55
0 0 56
0 0 54
0 0 52
0 0 50
0 0 48
0 0 48
0 0 47
0 0 49
0 0 52
0 0 54
0 0 61
0 12 75
0 29 93
0 39 94
0 47 117
38 77 126
109 104 106
92 85 52
90 81 48
91 83 48
67 65 26
44 50 0
29 45 0
27 47 0
25 46 0
27 44 0
27 44 0
27 47 0
23 46 0
23 43 0
24 44 0
26 48 0
27 47 0
26 46 0
28 47 0
31 50 0
39 54 0
40 54 0
43 58 7
39 54 9
32 49 5
31 50 0
27 48 0
27 49 0
27 51 0
33 53 0
40 60 8
31 52 0
35 55 0
31 50 0
36 51 0
36 56 8
30 50 0
33 50 0
55 65 24
65 70 31
35 48 7
27 46 0
21 45 0
28 47 0
40 53 9
51 60 20
48 59 22
49 59 23
59 66 31
62 67 31
58 66 25
61 68 28
57 65 28
88 82 48
66 68 34
64 65 34
75 71 44
85 73 46
71 67 34
63 61 21
62 68 22
36 57 21
7 12 45
0 0 42
0 0 42
0 0 42
0 0 42
0 0 42
0 0 42
0 0 42
0 0 42
0 0 42
0 0 42
0 0 42
0 0 42
0 0 42
186 198 215
223 236 255
223 236 255
223 236 255
223 236 255
223 236 255
223 236 255
223 236 255
223 236 255
223 236 255
223 236 255
223 236 255
223 236 255
223 236 255
223 236 255
223 236 255
223 236 255
223 236 255
223 236 255
223 236 255
223 236 255
223 236 255
223 236 255
223 236 255
223 236 255
223 236 255
223 236 255
223 236 255
223 236 255
223 236 255
223 236 255
223 236 255
223 236 255
223 236 255
223 236 255
223 236 255
223 236 255
223 236 255
223 236 255
223 236 255
223 236 255
223 236 255
223 236 255
223 236 255
223 236 255
223 236 255
223 236 255
223 236 255
223 236 255
223 236 255
223 236 255
223 236 255
223 236 255
223 236 255
223 236 255
223 236 255
223 236 255
223 236 255
223 236 255
223 236 255
223 236 255
223 236 255
223 236 255
223 236 255
223 236 255
223 236 255
223 236 255
223 236 255
223 236 255
223 236 255
223 236 255
223 236 255
223 236 255
223 236 255
223 236 255
223 236 255
223 236 255
223 236 255
223 236 255
223 236 255
223 236 255
223 236 255
223 236 255
223 236 255
223 236 255
223 236 255
223 236 255
223 236 255
223 236 255
223 236 255
223 236 255
223 236 255
223 236 255
223 236 255
223 236 255
223 236 255
223 236 255
223 236 255
223 236 255
223 236 255
223 236 255
223 236 255
223 236 255
223 236 255
223 236 255
223 236 255
223 236 255
223 236 255
223 236 255
223 236 255
223 236 255
223 236 255
223 236 255
223 236 255
223 236 255
223 236 255
223 236 255
223 236 255
223 236 255
223 236 255
223 236 255
223 236 255
223 236 255
223 236 255
223 236 255
223 236 255
223 236 255
223 236 255
223 236 255
223 236 255
223 236 255
223 236 255
223 236 255
223 236 255
223 236 255
223 236 255
223 236 255
223 236 255
223 236 255
223 236 255
223 236 255
223 236 255
223 236 255
223 236 255
223 236 255
223 236 255
223 236 255
223 236 255
223 236 255
223 236 255
223 236 255
223 236 255
223 236 255
223 236 255
223 236 255
223 236 255
223 236 255
223 236 255
223 236 255
223 236 255
223 236 255
223 236 255
223 236 255
223 236 255
223 236 255
223 236 255
223 236 255
223 236 255
223 236 255
223 236 255
223 236 255
223 236 255
223 236 255
223 236 255
223 236 255
223 236 255
223 236 255
223 236 255
223 236 255
223 236 255
223 236 255
223 236 255
223 236 255
223 236 255
223 236 255
223 236 255
223 236 255
223 236 255
223 236 255
223 236 255
223 236 255
219 233 252
0 0 42
0 0 42
0 0 42
0 0 42
0 0 42
0 0 41
0 0 41
0 0 41
0 0 42
0 0 42
0 0 42
0 0 42
0 0 42
0 0 42
0 0 42
0 0 42
0 0 42
0 0 42
0 0 42
0 0 42
0 0 42
0 0 42
0 0 42
0 0 42
0 0 42
0 0 42
0 0 42
0 0 42
0 0 42
0 0 42
0 0 42
0 0 42
0 0 42
0 0 42
0 0 42
0 0 42
0 0 42
0 0 42
0 0 42
0 0 42
0 0 42
0 0 42
0 0 42
0 0 42
0 0 42
0 0 42
0 0 42
0 0 42
0 0 42
0 0 42
0 0 42
0 0 42
0 0 42
0 0 42
0 0 42
0 0 42
0 0 42
0 0 42
0 0 42
0 0 42
0 0 42
0 0 42
0 0 42
0 0 42
0 0 42
0 0 42
0 0 42
0 0 42
0 0 42
0 0 42
0 0 42
0 0 42
0 0 42
0 0 42
0 0 42
0 0 42
0 0 42
0 0 42
0 0 42
0 0 42
0 0 42
0 0 42
0 0 42
0 0 42
0 0 42
0 0 42
0 0 42
0 0 42
0 0 42
0 0 42
0 0 42
0 0 42
0 0 42
0 0 42
0 0 42
0 0 42
0 0 42
0 0 42
0 0 42
0 0 44
0 0 45
0 0 45
0 0 43
0 0 42
0 0 45
0 0 45
0 0 45
0 0 45
0 0 45
0 0 45
0 0 45
0 0 45
0 0 45
0 0 49
0 0 51
0 0 53
0 0 53
0 0 51
0 0 50
0 0 48
0 0 48
0 0 48
0 0 46
0 0 47
0 0 50
0 0 51
0 0 58
0 24 83
0 46 107
0 38 103
0 36 102
12 37 90
78 83 105
105 92 69
95 85 51
101 90 55
90 81 43
72 72 35
49 55 16
31 42 4
41 47 7
43 49 13
41 50 11
32 48 3
27 50 0
24 49 0
23 48 0
24 48 0
26 46 0
34 49 0
39 54 0
38 55 0
46 58 0
46 55 0
49 59 12
48 60 12
44 56 14
37 50 3
26 42 0
30 49 0
26 45 0
35 53 0
44 65 13
39 61 0
34 51 0
38 52 4
51 61 16
50 62 15
39 52 7
35 49 4
56 65 26
58 68 28
41 56 12
34 52 3
36 52 6
50 61 17
61 68 27
55 61 25
49 60 21
57 65 27
65 70 34
62 66 30
53 61 23
60 66 30
66 70 36
78 74 39
67 69 38
69 67 38
77 70 45
79 71 42
73 65 32
79 66 33
46 58 10
16 30 36
0 0 41
0 0 43
0 0 42
0 0 42
0 0 42
0 0 42
0 0 42
0 0 42
0 0 42
0 0 42
0 0 42
0 0 42
0 0 42
0 0 42
213 226 244
223 236 255
223 236 255
223 236 255
223 236 255
223 236 255
223 236 255
223 236 255
223 236 255
223 236 255
223 236 255
223 236 255
223 236 255
223 236 255
223 236 255
223 236 255
223 236 255
223 236 255
223 236 255
223 236 255
223 236 255
223 236 255
223 236 255
223 236 255
223 236 255
223 236 255
223 236 255
223 236 255
223 236 255
223 236 255
223 236 255
223 236 255
223 236 255
223 236 255
223 236 255
223 236 255
223 236 255
223 236 255
223 236 255
223 236 255
223 236 255
223 236 255
223 236 255
223 236 255
223 236 255
223 236 255
223 236 255
223 236 255
223 236 255
223 236 255
223 236 255
223 236 255
223 236 255
223 236 255
223 236 255
223 236 255
223 236 255
223 236 255
223 236 255
223 236 255
223 236 255
223 236 255
223 236 255
223 236 255
223 236 255
223 236 255
223 236 255
223 236 255
223 236 255
223 236 255
223 236 255
223 236 255
223 236 255
223 236 255
223 236 255
223 236 255
223 236 255
223 236 255
223 236 255
223 236 255
223 236 255
223 236 255
223 236 255
223 236 255
223 236 255
223 236 255
223 236 255
223 236 255
223 236 255
223 236 255
223 236 255
223 236 255
223 236 255
223 236 255
223 236 255
223 236 255
223 236 255
223 236 255
223 236 255
223 236 255
223 236 255
223 236 255
223 236 255
223 236 255
223 236 255
223 236 255
223 236 255
223 236 255
223 236 255
223 236 255
223 236 255
223 236 255
223 236 255
223 236 255
223 236 255
223 236 255
223 236 255
223 236 255
223 236 255
223 236 255
223 236 255
223 236 255
223 236 255
223 236 255
223 236 255
223 236 255
223 236 255
223 236 255
223 236 255
223 236 255
223 236 255
223 236 255
223 236 255
223 236 255
223 236 255
223 236 255
223 236 255
223 236 255
223 236 255
223 236 255
223 236 255
223 236 255
223 236 255
223 236 255
223 236 255
223 236 255
223 236 255
223 236 255
223 236 255
223 236 255
223 236 255
223 236 255
223 236 255
223 236 255
223 236 255
223 236 255
223 236 255
223 236 255
223 236 255
223 236 255
223 236 255
223 236 255
223 236 255
223 236 255
223 236 255
223 236 255
223 236 255
223 236 255
223 236 255
223 236 255
223 236 255
223 236 255
223 236 255
223 236 255
223 236 255
223 236 255
223 236 255
223 236 255
223 236 255
223 236 255
223 236 255
223 236 255
223 236 255
223 236 255
223 236 255
223 236 255
223 236 255
223 236 255
223 236 255
223 236 255
223 236 255
223 236 255
86 91 106
0 0 42
0 0 42
0 0 42
0 0 42
0 0 42
0 0 41
0 0 40
0 0 42
0 0 42
0 0 42
0 0 42
0 0 42
0 0 42
0 0 42
0 0 42
0 0 42
0 0 42
0 0 42
0 0 42
0 0 42
0 0 42
0 0 42
0 0 42
0 0 42
0 0 42
0 0 42
0 0 42
0 0 42
0 0 42
0 0 42
0 0 42
0 0 42
0 0 42
0 0 42
0 0 42
0 0 42
0 0 42
0 0 42
0 0 42
0 0 42
0 0 42
0 0 42
0 0 42
0 0 42
0 0 42
0 0 42
0 0 42
0 0 42
0 0 42
0 0 42
0 0 42
0 0 42
0 0 42
0 0 42
0 0 42
0 0 42
0 0 42
0 0 42
0 0 42
0 0 42
0 0 42
0 0 42
0 0 42
0 0 42
0 0 42
0 0 42
0 0 42
0 0 42
0 0 42
0 0 42
0 0 42
0 0 42
0 0 42
0 0 42
0 0 42
0 0 42
0 0 42
0 0 42
0 0 42
0 0 42
0 0 42
0 0 42
0 0 42
0 0 42
0 0 42
0 0 42
0 0 42
0 0 42
0 0 42
0 0 42
0 0 42
0 0 42
0 0 42
0 0 42
0 0 42
0 0 42
0 0 42
0 0 42
0 0 42
0 0 44
0 0 44
0 0 42
0 0 42
0 0 45
0 0 45
0 0 45
0 0 45
0 0 45
0 0 45
0 0 45
0 0 45
0 0 45
0 0 46
0 0 49
0 0 51
0 0 50
0 0 50
0 0 48
0 0 48
0 0 48
0 0 47
0 0 45
0 0 46
0 0 47
0 0 48
0 0 59
0 20 78
0 31 91
0 29 98
0 29 89
0 33 91
23 50 97
115 108 86
100 87 53
108 94 61
96 85 49
87 82 46
59 60 24
48 51 17
57 55 21
68 66 33
68 68 34
53 58 22
38 48 6
27 46 0
23 43 0
23 43 0
22 43 0
29 45 0
32 49 0
39 56 0
45 55 0
48 57 11
50 60 16
53 64 18
47 57 9
46 58 11
31 45 0
29 47 0
29 47 0
28 45 0
35 56 5
39 58 0
39 54 0
57 67 24
65 68 27
62 63 23
60 66 23
43 56 10
52 64 20
51 61 19
49 61 20
49 58 13
55 64 23
63 70 28
74 76 39
59 63 28
51 62 23
62 70 30
63 66 32
56 61 27
54 62 26
61 64 31
71 71 37
77 73 41
77 76 47
76 69 44
88 77 52
82 70 40
91 73 47
81 69 38
40 57 5
13 23 36
0 0 40
0 0 42
0 0 42
0 0 42
0 0 42
0 0 42
0 0 42
0 0 42
0 0 42
0 0 42
0 0 42
0 0 42
0 0 42
89 94 109
223 236 255
223 236 255
223 236 255
223 236 255
223 236 255
223 236 255
223 236 255
223 236 255
223 236 255
223 236 255
223 236 255
223 236 255
223 236 255
223 236 255
223 236 255
223 236 255
223 236 255
223 236 255
223 236 255
223 236 255
223 236 255
223 236 255
223 236 255
223 236 255
223 236 255
223 236 255
223 236 255
223 236 255
223 236 255
223 236 255
223 236 255
223 236 255
223 236 255
223 236 255
223 236 255
223 236 255
223 236 255
223 236 255
223 236 255
223 236 255
223 236 255
223 236 255
223 236 255
223 236 255
223 236 255
223 236 255
223 236 255
223 236 255
223 236 255
223 236 255
223 236 255
223 236 255
223 236 255
223 236 255
223 236 255
223 236 255
223 236 255
223 236 255
223 236 255
223 236 255
223 236 255
223 236 255
223 236 255
223 236 255
223 236 255
223 236 255
223 236 255
223 236 255
223 236 255
223 236 255
223 236 255
223 236 255
223 236 255
223 236 255
223 236 255
223 236 255
223 236 255
223 236 255
223 236 255
223 236 255
223 236 255
223 236 255
223 236 255
223 236 255
223 236 255
223 236 255
223 236 255
223 236 255
223 236 255
223 236 255
223 236 255
223 236 255
223 236 255
223 236 255
223 236 255
223 236 255
223 236 255
223 236 255
223 236 255
223 236 255
223 236 255
223 236 255
223 236 255
223 236 255
223 236 255
223 236 255
223 236 255
223 236 255
223 236 255
223 236 255
223 236 255
223 236 255
223 236 255
223 236 255
223 236 255
223 236 255
223 236 255
223 236 255
223 236 255
223 236 255
223 236 255
223 236 255
223 236 255
223 236 255
223 236 255
223 236 255
223 236 255
223 236 255
223 236 255
223 236 255
223 236 255
223 236 255
223 236 255
223 236 255
223 236 255
223 236 255
223 236 255
223 236 255
223 236 255
223 236 255
223 236 255
223 236 255
223 236 255
223 236 255
223 236 255
223 236 255
223 236 255
223 236 255
223 236 255
223 236 255
223 236 255
223 236 255
223 236 255
223 236 255
223 236 255
223 236 255
223 236 255
223 236 255
223 236 255
223 236 255
223 236 255
223 236 255
223 236 255
223 236 255
223 236 255
223 236 255
223 236 255
223 236 255
223 236 255
223 236 255
223 236 255
223 236 255
223 236 255
223 236 255
223 236 255
223 236 255
223 236 255
223 236 255
223 236 255
223 236 255
223 236 255
223 236 255
223 236 255
223 236 255
223 236 255
223 236 255
223 236 255
223 236 255
223 236 255
223 236 255
223 236 255
223 236 255
141 149 165
0 0 42
0 0 42
0 0 42
0 0 42
0 0 42
0 0 42
0 0 41
0 0 42
0 0 42
0 0 42
0 0 42
0 0 42
0 0 42
0 0 42
0 0 42
0 0 42
0 0 42
0 0 42
0 0 42
0 0 42
0 0 42
0 0 42
0 0 42
0 0 42
0 0 42
0 0 42
0 0 42
0 0 42
0 0 42
0 0 42
0 0 42
0 0 42
0 0 42
0 0 42
0 0 42
0 0 42
0 0 42
0 0 42
0 0 42
0 0 42
0 0 42
0 0 42
0 0 42
0 0 42
0 0 42
0 0 42
0 0 42
0 0 42
0 0 42
0 0 42
0 0 42
0 0 42
0 0 42
0 0 42
0 0 42
0 0 42
0 0 42
0 0 42
0 0 42
0 0 42
0 0 42
0 0 42
0 0 42
0 0 42
0 0 42
0 0 42
0 0 42
0 0 42
0 0 42
0 0 42
0 0 42
0 0 42
0 0 42
0 0 42
0 0 42
0 0 42
0 0 42
0 0 42
0 0 42
0 0 42
0 0 42
0 0 42
0 0 42
0 0 42
0 0 42
0 0 42
0 0 42
0 0 42
0 0 42
0 0 42
0 0 42
0 0 42
0 0 42
0 0 42
0 0 42
0 0 42
0 0 42
0 0 42
0 0 42
0 0 42
0 0 42
0 0 42
0 0 42
0 0 45
0 0 45
0 0 45
0 0 45
0 0 45
0 0 45
0 0 43
0 0 45
0 0 43
0 0 45
0 0 48
0 0 48
0 0 46
0 0 48
0 0 47
0 0 47
0 0 47
0 0 45
0 0 44
0 0 47
0 0 43
0 0 46
0 0 56
0 8 67
0 9 69
0 24 85
0 27 91
0 29 86
14 27 93
130 137 111
119 104 75
106 91 57
101 89 53
88 80 43
73 70 34
67 65 30
71 67 34
77 69 37
83 73 42
94 87 53
83 78 43
50 58 18
34 47 0
24 43 0
20 44 0
24 46 0
29 51 0
44 62 9
46 58 10
51 60 13
48 60 11
46 59 7
39 53 0
37 53 0
32 51 0
27 48 0
24 44 0
23 42 0
29 48 0
39 56 7
44 57 3
63 68 27
66 63 27
69 69 32
63 68 29
56 64 22
53 62 18
55 63 23
57 63 28
70 72 36
65 68 29
63 70 29
59 67 29
58 65 27
66 69 33
66 70 34
65 70 33
62 66 30
62 66 31
70 71 39
75 72 42
79 75 45
75 73 41
82 72 49
88 76 49
74 66 35
87 72 43
70 68 30
39 57 13
0 0 45
0 0 42
0 0 41
0 0 42
0 0 42
0 0 42
0 0 42
0 0 42
0 0 42
0 0 42
0 0 42
0 0 42
0 0 42
0 0 42
148 157 172
223 236 255
223 236 255
223 236 255
223 236 255
223 236 255
223 236 255
223 236 255
223 236 255
223 236 255
223 236 255
223 236 255
223 236 255
223 236 255
223 236 255
223 236 255
223 236 255
223 236 255
223 236 255
223 236 255
223 236 255
223 236 255
223 236 255
223 236 255
223 236 255
223 236 255
223 236 255
223 236 255
223 236 255
223 236 255
223 236 255
223 236 255
223 236 255
223 236 255
223 236 255
223 236 255
223 236 255
223 236 255
223 236 255
223 236 255
223 236 255
223 236 255
223 236 255
223 236 255
223 236 255
223 236 255
223 236 255
223 236 255
223 236 255
223 236 255
223 236 255
223 236 255
223 236 255
223 236 255
223 236 255
223 236 255
223 236 255
223 236 255
223 236 255
223 236 255
223 236 255
223 236 255
223 236 255
223 236 255
223 236 255
223 236 255
223 236 255
223 236 255
223 236 255
223 236 255
223 236 255
223 236 255
223 236 255
223 236 255
223 236 255
223 236 255
223 236 255
223 236 255
223 236 255
223 236 255
223 236 255
223 236 255
223 236 255
223 236 255
223 236 255
223 236 255
223 236 255
223 236 255
223 236 255
223 236 255
223 236 255
223 236 255
223 236 255
223 236 255
223 236 255
223 236 255
223 236 255
223 236 255
223 236 255
223 236 255
223 236 255
223 236 255
223 236 255
223 236 255
223 236 255
223 236 255
223 236 255
223 236 255
223 236 255
223 236 255
223 236 255
223 236 255
223 236 255
223 236 255
223 236 255
223 236 255
223 236 255
223 236 255
223 236 255
223 236 255
223 236 255
223 236 255
223 236 255
223 236 255
223 236 255
223 236 255
223 236 255
223 236 255
223 236 255
223 236 255
223 236 255
223 236 255
223 236 255
223 236 255
223 236 255
223 236 255
223 236 255
223 236 255
223 236 255
223 236 255
223 237 255
223 236 255
223 236 255
223 236 255
223 237 255
223 237 255
223 237 255
223 237 255
223 237 255
223 237 255
223 237 255
223 237 255
223 237 255
223 237 255
223 237 255
223 237 255
223 237 255
223 237 255
223 237 255
223 237 255
223 237 255
223 237 255
223 237 255
223 237 255
223 237 255
223 237 255
223 237 255
223 237 255
223 237 255
223 237 255
223 237 255
223 237 255
223 237 255
223 237 255
223 237 255
223 237 255
223 237 255
223 237 255
223 237 255
223 237 255
223 237 255
223 237 255
223 237 255
223 237 255
223 237 255
223 237 255
223 237 255
223 237 255
223 237 255
223 237 255
223 237 255
223 237 255
223 237 255
185 196 213
0 0 42
0 0 42
0 0 42
0 0 42
0 0 42
0 0 41
0 0 41
0 0 42
0 0 42
0 0 42
0 0 42
0 0 42
0 0 42
0 0 42
0 0 42
0 0 42
0 0 42
0 0 42
0 0 42
0 0 42
0 0 42
0 0 42
0 0 42
0 0 42
0 0 42
0 0 42
0 0 42
0 0 42
0 0 42
0 0 42
0 0 42
0 0 42
0 0 42
0 0 42
0 0 42
0 0 42
0 0 42
0 0 42
0 0 42
0 0 42
0 0 42
0 0 42
0 0 42
0 0 42
0 0 42
0 0 42
0 0 42
0 0 42
0 0 42
0 0 42
0 0 42
0 0 42
0 0 42
0 0 42
0 0 42
0 0 42
0 0 42
0 0 42
0 0 42
0 0 42
0 0 42
0 0 42
0 0 42
0 0 42
0 0 42
0 0 42
0 0 42
0 0 42
0 0 42
0 0 42
0 0 42
0 0 42
0 0 42
0 0 42
0 0 42
0 0 42
0 0 42
0 0 42
0 0 42
0 0 42
0 0 42
0 0 42
0 0 42
0 0 42
0 0 42
0 0 42
0 0 42
0 0 42
0 0 42
0 0 42
0 0 42
0 0 42
0 0 42
0 0 42
0 0 42
0 0 42
0 0 42
0 0 42
0 0 42
0 0 42
0 0 42
0 0 42
0 0 42
0 0 43
0 0 43
0 0 43
0 0 43
0 0 43
0 0 43
0 0 44
0 0 45
0 0 44
0 0 45
0 0 46
0 0 46
0 0 45
0 0 46
0 0 45
0 0 45
0 0 45
0 0 45
0 0 44
0 0 44
0 0 42
0 0 47
0 0 55
0 1 62
0 9 69
0 21 82
0 23 85
0 18 87
10 21 80
130 139 133
155 146 112
109 102 69
103 92 56
100 85 52
88 81 48
82 75 38
92 82 48
91 82 50
87 80 48
95 85 50
107 93 55
91 78 48
63 60 30
30 43 7
31 45 7
21 40 0
29 50 0
44 60 11
41 57 6
46 61 0
47 62 13
42 58 8
32 50 0
29 51 0
23 47 0
24 48 0
23 45 0
23 43 0
29 48 0
43 58 10
45 59 8
63 66 26
65 66 28
59 67 25
60 70 26
62 71 28
61 69 29
61 67 31
65 69 34
72 73 37
67 70 33
60 69 30
56 63 25
60 65 27
70 74 38
60 66 29
64 70 32
62 68 33
68 69 34
76 73 40
84 79 47
78 75 42
62 63 34
71 68 44
74 69 40
61 61 24
71 68 31
59 68 20
29 48 28
0 2 45
0 0 42
0 0 41
0 0 42
0 0 42
0 0 42
0 0 42
0 0 42
0 0 42
0 0 42
0 0 42
0 0 42
0 0 42
0 0 42
188 199 216
223 237 255
223 237 255
223 237 255
223 237 255
223 237 255
223 237 255
223 237 255
223 237 255
223 237 255
223 237 255
223 237 255
223 237 255
223 237 255
223 237 255
223 237 255
223 237 255
223 237 255
223 237 255
223 237 255
223 237 255
223 237 255
223 237 255
223 237 255
223 237 255
223 237 255
223 237 255
223 237 255
223 237 255
223 237 255
223 237 255
223 237 255
223 237 255
223 237 255
223 237 255
223 237 255
223 237 255
223 237 255
223 237 255
223 237 255
223 237 255
223 237 255
223 237 255
223 237 255
223 237 255
223 237 255
223 237 255
223 237 255
223 237 255
223 237 255
223 237 255
223 237 255
223 236 255
223 237 255
223 236 255
223 236 255
223 236 255
223 236 255
223 236 255
223 236 255
223 236 255
223 236 255
223 236 255
223 236 255
223 236 255
223 236 255
223 236 255
223 236 255
223 236 255
223 236 255
223 236 255
223 236 255
223 236 255
223 236 255
223 236 255
223 236 255
223 236 255
223 236 255
223 236 255
223 236 255
223 236 255
223 236 255
223 236 255
223 236 255
223 236 255
223 236 255
223 236 255
223 236 255
223 236 255
223 236 255
223 236 255
223 236 255
223 236 255
223 236 255
223 236 255
223 236 255
223 236 255
223 237 255
223 237 255
223 237 255
223 237 255
223 237 255
223 237 255
223 237 255
223 237 255
223 237 255
223 237 255
223 237 255
223 237 255
223 237 255
223 237 255
223 237 255
223 237 255
223 237 255
223 237 255
223 237 255
223 237 255
223 237 255
223 237 255
223 237 255
223 237 255
223 237 255
223 237 255
223 237 255
223 237 255
223 237 255
223 237 255
223 237 255
223 237 255
223 237 255
223 237 255
223 237 255
223 237 255
223 237 255
223 237 255
223 237 255
223 237 255
223 237 255
223 237 255
223 237 255
223 237 255
223 237 255
223 237 255
223 237 255
223 237 255
223 237 255
223 237 255
223 237 255
223 237 255
223 237 255
223 237 255
223 237 255
223 237 255
223 237 255
223 237 255
223 237 255
223 237 255
223 237 255
223 237 255
223 237 255
223 237 255
223 237 255
223 237 255
223 237 255
223 237 255
223 237 255
223 237 255
223 237 255
223 237 255
223 237 255
223 237 255
223 237 255
223 237 255
223 237 255
223 237 255
223 237 255
223 237 255
223 237 255
223 237 255
223 237 255
223 237 255
223 237 255
223 237 255
223 237 255
223 237 255
223 237 255
223 237 255
223 237 255
223 237 255
223 237 255
223 237 255
223 237 255
223 237 255
217 231 249
49 53 70
0 0 42
0 0 42
0 0 42
0 0 42
0 0 41
0 0 41
0 0 42
0 0 42
0 0 42
0 0 42
0 0 42
0 0 42
0 0 42
0 0 42
0 0 42
0 0 42
0 0 42
0 0 42
0 0 42
0 0 42
0 0 42
0 0 42
0 0 42
0 0 42
0 0 42
0 0 42
0 0 42
0 0 42
0 0 42
0 0 42
0 0 42
0 0 42
0 0 42
0 0 42
0 0 42
0 0 42
0 0 42
0 0 42
0 0 42
0 0 42
0 0 42
0 0 42
0 0 42
0 0 42
0 0 42
0 0 42
0 0 42
0 0 42
0 0 42
0 0 42
0 0 42
0 0 42
0 0 42
0 0 42
0 0 42
0 0 42
0 0 42
0 0 42
0 0 42
0 0 42
0 0 42
0 0 42
0 0 42
0 0 42
0 0 42
0 0 42
0 0 42
0 0 42
0 0 42
0 0 42
0 0 42
0 0 42
0 0 42
0 0 42
0 0 42
0 0 42
0 0 42
0 0 42
0 0 42
0 0 42
0 0 42
0 0 42
0 0 42
0 0 42
0 0 42
0 0 42
0 0 42
0 0 42
0 0 42
0 0 42
0 0 42
0 0 42
0 0 42
0 0 42
0 0 42
0 0 42
0 0 42
0 0 42
0 0 42
0 0 42
0 0 42
0 0 42
0 0 42
0 0 42
0 0 42
0 0 42
0 0 42
0 0 42
0 0 42
0 0 43
0 0 45
0 0 45
0 0 45
0 0 45
0 0 44
0 0 44
0 0 44
0 0 44
0 0 44
0 0 44
0 0 45
0 0 45
0 0 44
0 0 47
0 0 55
0 4 62
0 13 70
0 11 77
0 14 71
0 12 74
0 17 79
75 68 85
149 134 117
144 124 93
119 104 74
105 90 50
107 93 54
112 99 60
113 102 63
106 95 59
97 84 44
95 81 42
103 91 55
101 90 57
87 82 38
58 55 24
38 49 8
26 41 0
23 43 0
33 52 0
33 51 0
37 55 0
46 61 9
43 59 9
30 50 0
25 46 0
23 44 0
22 45 0
23 46 0
26 46 0
31 51 0
43 61 10
48 64 17
50 63 12
54 68 18
52 66 17
54 65 19
58 66 22
58 64 26
63 69 32
69 73 39
71 72 38
65 72 36
62 69 33
66 71 34
68 70 32
70 75 37
63 70 33
61 68 30
66 69 32
72 67 35
84 77 45
78 73 39
75 72 39
70 69 40
76 71 45
68 67 38
57 63 22
58 63 19
57 71 17
26 45 33
0 0 41
0 0 42
0 0 42
0 0 42
0 0 42
0 0 42
0 0 42
0 0 42
0 0 42
0 0 42
0 0 42
0 0 42
0 0 42
38 41 60
221 234 253
223 237 255
223 237 255
223 237 255
223 237 255
223 237 255
223 237 255
223 237 255
223 237 255
223 237 255
223 237 255
223 237 255
223 237 255
223 237 255
223 237 255
223 237 255
223 237 255
223 237 255
223 237 255
223 237 255
223 237 255
223 237 255
223 237 255
223 237 255
223 237 255
223 237 255
223 237 255
223 237 255
223 237 255
223 237 255
223 237 255
223 237 255
223 237 255
223 237 255
223 237 255
223 237 255
223 237 255
223 237 255
223 237 255
223 237 255
223 237 255
223 237 255
223 237 255
223 237 255
223 237 255
223 237 255
223 237 255
223 237 255
223 237 255
223 237 255
223 237 255
223 237 255
223 237 255
223 237 255
223 237 255
223 237 255
223 237 255
223 237 255
223 237 255
223 237 255
223 237 255
223 237 255
223 237 255
223 237 255
223 237 255
223 237 255
223 237 255
223 237 255
223 237 255
223 237 255
223 237 255
223 237 255
223 237 255
223 237 255
223 237 255
223 237 255
223 237 255
223 237 255
223 237 255
223 237 255
223 237 255
223 237 255
223 237 255
223 237 255
223 237 255
223 237 255
223 237 255
223 237 255
223 237 255
223 237 255
223 237 255
223 237 255
223 237 255
223 237 255
223 237 255
223 237 255
223 237 255
223 237 255
223 237 255
223 237 255
223 237 255
223 237 255
223 237 255
223 237 255
223 237 255
223 237 255
223 237 255
223 237 255
223 237 255
223 237 255
223 237 255
223 237 255
223 237 255
223 237 255
223 237 255
223 237 255
223 237 255
223 237 255
223 237 255
223 237 255
223 237 255
223 237 255
223 237 255
223 237 255
223 237 255
223 237 255
223 237 255
223 237 255
223 237 255
223 237 255
223 237 255
223 237 255
223 237 255
223 237 255
223 237 255
223 237 255
223 237 255
223 237 255
223 237 255
223 237 255
223 237 255
223 237 255
223 237 255
223 237 255
223 237 255
223 237 255
223 237 255
223 237 255
223 237 255
223 237 255
223 237 255
223 237 255
223 237 255
223 237 255
223 237 255
223 237 255
223 237 255
223 237 255
223 237 255
223 237 255
223 237 255
223 237 255
223 237 255
223 237 255
223 237 255
223 237 255
223 237 255
223 237 255
223 237 255
223 237 255
223 237 255
223 237 255
223 237 255
223 237 255
223 237 255
223 237 255
223 237 255
223 237 255
223 237 255
223 237 255
223 237 255
223 237 255
223 237 255
223 237 255
223 237 255
223 237 255
223 237 255
223 237 255
223 237 255
223 237 255
223 237 255
223 237 255
223 237 255
223 237 255
128 136 151
0 0 42
0 0 42
0 0 42
0 0 42
0 0 42
0 0 42
0 0 40
0 0 42
0 0 42
0 0 42
0 0 42
0 0 42
0 0 42
0 0 42
0 0 42
0 0 42
0 0 42
0 0 42
0 0 42
0 0 42
0 0 42
0 0 42
0 0 42
0 0 42
0 0 42
0 0 42
0 0 42
0 0 42
0 0 42
0 0 42
0 0 42
0 0 42
0 0 42
0 0 42
0 0 42
0 0 42
0 0 42
0 0 42
0 0 42
0 0 42
0 0 42
0 0 42
0 0 42
0 0 42
0 0 42
0 0 42
0 0 42
0 0 42
0 0 42
0 0 42
0 0 42
0 0 42
0 0 42
0 0 42
0 0 42
0 0 42
0 0 42
0 0 42
0 0 42
0 0 42
0 0 42
0 0 42
0 0 42
0 0 42
0 0 42
0 0 42
0 0 42
0 0 42
0 0 42
0 0 42
0 0 42
0 0 42
0 0 42
0 0 42
0 0 42
0 0 42
0 0 42
0 0 42
0 0 42
0 0 42
0 0 42
0 0 42
0 0 42
0 0 42
0 0 42
0 0 42
0 0 42
0 0 42
0 0 42
0 0 42
0 0 42
0 0 42
0 0 42
0 0 42
0 0 42
0 0 42
0 0 42
0 0 42
0 0 42
0 0 42
0 0 42
0 0 42
0 0 42
0 0 42
0 0 42
0 0 42
0 0 42
0 0 42
0 0 42
0 0 42
0 0 43
0 0 45
0 0 45
0 0 45
0 0 42
0 0 42
0 0 42
0 0 42
0 0 42
0 0 43
0 0 47
0 0 45
0 0 44
0 0 48
0 0 55
0 0 63
0 7 78
0 9 80
0 9 65
0 7 62
0 16 79
0 22 90
69 70 103
149 134 112
151 130 83
108 94 66
96 87 58
105 91 54
122 102 61
117 99 60
97 85 49
100 87 48
107 91 52
88 82 72
86 83 61
76 68 34
28 44 9
26 52 0
26 49 0
17 40 0
24 45 0
38 58 0
39 58 0
37 55 0
34 54 0
26 50 0
24 45 0
25 46 0
30 47 0
34 50 0
39 55 0
44 58 9
53 68 18
60 76 27
57 73 26
48 62 16
56 64 23
63 70 30
58 65 28
62 70 32
63 69 31
70 73 39
63 67 33
65 69 34
74 76 40
75 77 39
66 73 34
65 74 36
61 68 29
73 73 35
80 75 43
81 74 41
78 76 42
79 76 43
71 68 39
74 70 40
58 59 26
55 63 22
55 66 15
52 69 12
15 26 40
0 0 40
0 0 41
0 0 42
0 0 42
0 0 42
0 0 42
0 0 42
0 0 42
0 0 42
0 0 42
0 0 42
0 0 42
0 0 42
118 125 140
223 237 255
223 237 255
223 237 255
223 237 255
223 237 255
223 237 255
223 237 255
223 237 255
223 237 255
223 237 255
223 237 255
223 237 255
223 237 255
223 237 255
223 237 255
223 237 255
223 237 255
223 237 255
223 237 255
223 237 255
223 237 255
223 237 255
223 237 255
223 237 255
223 237 255
223 237 255
223 237 255
223 237 255
223 237 255
223 237 255
223 237 255
223 237 255
223 237 255
223 237 255
223 237 255
223 237 255
223 237 255
223 237 255
223 237 255
223 237 255
223 237 255
223 237 255
223 237 255
223 237 255
223 237 255
223 237 255
223 237 255
223 237 255
223 237 255
223 237 255
223 237 255
223 237 255
223 237 255
223 237 255
223 237 255
223 237 255
223 237 255
223 237 255
223 237 255
223 237 255
223 237 255
223 237 255
223 237 255
223 237 255
223 237 255
223 237 255
223 237 255
223 237 255
223 237 255
223 237 255
223 237 255
223 237 255
223 237 255
223 237 255
223 237 255
223 237 255
223 237 255
223 237 255
223 237 255
223 237 255
223 237 255
223 237 255
223 237 255
223 237 255
223 237 255
223 237 255
223 237 255
223 237 255
223 237 255
223 237 255
223 237 255
223 237 255
223 237 255
223 237 255
223 237 255
223 237 255
223 237 255
223 237 255
223 237 255
223 237 255
223 237 255
223 237 255
223 237 255
223 237 255
223 237 255
223 237 255
223 237 255
223 237 255
223 237 255
223 237 255
223 237 255
223 237 255
223 237 255
223 237 255
223 237 255
223 237 255
223 237 255
223 237 255
223 237 255
223 237 255
223 237 255
223 237 255
223 237 255
223 237 255
223 237 255
223 237 255
223 237 255
223 237 255
223 237 255
223 237 255
223 237 255
223 237 255
223 237 255
223 237 255
223 237 255
223 237 255
223 237 255
223 237 255
223 237 255
223 237 255
223 237 255
223 237 255
223 237 255
223 237 255
223 237 255
223 237 255
223 237 255
223 237 255
223 237 255
223 237 255
223 237 255
223 237 255
223 237 255
223 237 255
223 237 255
223 237 255
223 237 255
223 237 255
223 237 255
223 237 255
223 237 255
223 237 255
223 237 255
223 237 255
223 237 255
223 237 255
223 237 255
223 237 255
223 237 255
223 237 255
223 237 255
223 237 255
223 237 255
223 237 255
223 237 255
223 237 255
223 237 255
223 237 255
223 237 255
223 237 255
223 237 255
223 237 255
223 237 255
223 237 255
223 237 255
223 237 255
223 237 255
223 237 255
223 237 255
223 237 255
223 237 255
223 237 255
223 237 255
223 237 255
178 189 206
0 0 42
0 0 42
0 0 42
0 0 42
0 0 42
0 0 41
0 0 41
0 0 42
0 0 42
0 0 42
0 0 42
0 0 42
0 0 42
0 0 42
0 0 42
0 0 42
0 0 42
0 0 42
0 0 42
0 0 42
0 0 42
0 0 42
0 0 42
0 0 42
0 0 42
0 0 42
0 0 42
0 0 42
0 0 42
0 0 42
0 0 42
0 0 42
0 0 42
0 0 42
0 0 42
0 0 42
0 0 42
0 0 42
0 0 42
0 0 42
0 0 42
0 0 42
0 0 42
0 0 42
0 0 42
0 0 42
0 0 42
0 0 42
0 0 42
0 0 42
0 0 42
0 0 42
0 0 42
0 0 42
0 0 42
0 0 42
0 0 42
0 0 42
0 0 42
0 0 42
0 0 42
0 0 42
0 0 42
0 0 42
0 0 42
0 0 42
0 0 42
0 0 42
0 0 42
0 0 42
0 0 42
0 0 42
0 0 42
0 0 42
0 0 42
0 0 42
0 0 42
0 0 42
0 0 42
0 0 42
0 0 42
0 0 42
0 0 42
0 0 42
0 0 42
0 0 42
0 0 42
0 0 42
0 0 42
0 0 42
0 0 42
0 0 42
0 0 42
0 0 42
0 0 42
0 0 42
0 0 42
0 0 42
0 0 42
0 0 42
0 0 42
0 0 42
0 0 42
0 0 42
0 0 42
0 0 42
0 0 42
0 0 42
0 0 42
0 0 42
0 0 42
0 0 43
0 0 43
0 0 42
0 0 42
0 0 42
0 0 42
0 0 42
0 0 42
0 0 42
0 0 45
0 0 45
0 0 47
0 0 49
0 0 52
0 0 60
0 0 67
0 0 63
0 4 65
0 11 72
0 10 66
0 19 76
0 25 82
49 60 97
112 101 96
138 116 81
143 118 86
121 106 81
104 96 72
104 89 59
117 97 62
116 97 62
105 94 58
78 76 76
29 53 99
79 69 61
65 62 33
25 47 0
26 47 0
19 39 0
20 41 0
33 54 0
39 58 0
32 52 0
33 54 0
28 51 0
27 47 0
32 50 0
39 52 0
41 53 0
41 55 0
45 58 0
50 62 14
60 72 27
60 73 29
53 65 23
57 67 26
53 62 22
51 62 18
61 71 28
60 68 29
66 70 35
69 71 37
72 73 40
73 75 41
71 75 38
68 74 33
65 75 32
69 74 32
76 74 35
81 76 44
83 77 45
75 74 41
78 75 42
69 68 34
63 63 32
57 60 26
58 65 24
56 70 17
40 55 20
6 10 44
0 0 41
0 0 41
0 0 42
0 0 42
0 0 42
0 0 42
0 0 42
0 0 42
0 0 42
0 0 42
0 0 42
0 0 42
0 0 42
165 175 191
223 237 255
223 237 255
223 237 255
223 237 255
223 237 255
223 237 255
223 237 255
223 237 255
223 237 255
223 237 255
223 237 255
223 237 255
223 237 255
223 237 255
223 237 255
223 237 255
223 237 255
223 237 255
223 237 255
223 237 255
223 237 255
223 237 255
223 237 255
223 237 255
223 237 255
223 237 255
223 237 255
223 237 255
223 237 255
223 237 255
223 237 255
223 237 255
223 237 255
223 237 255
223 237 255
223 237 255
223 237 255
223 237 255
223 237 255
223 237 255
223 237 255
223 237 255
223 237 255
223 237 255
223 237 255
223 237 255
223 237 255
223 237 255
223 237 255
223 237 255
223 237 255
223 237 255
223 237 255
223 237 255
223 237 255
223 237 255
223 237 255
223 237 255
223 237 255
223 237 255
223 237 255
223 237 255
223 237 255
223 237 255
223 237 255
223 237 255
223 237 255
223 237 255
223 237 255
223 237 255
223 237 255
223 237 255
223 237 255
223 237 255
223 237 255
223 237 255
223 237 255
223 237 255
223 237 255
223 237 255
223 237 255
223 237 255
223 237 255
223 237 255
223 237 255
223 237 255
223 237 255
223 237 255
223 237 255
223 237 255
223 237 255
223 237 255
223 237 255
223 237 255
223 237 255
223 237 255
223 237 255
223 237 255
223 237 255
223 237 255
223 237 255
223 237 255
223 237 255
223 237 255
223 237 255
223 237 255
223 237 255
223 237 255
223 237 255
223 237 255
223 237 255
223 237 255
223 237 255
223 237 255
223 237 255
223 237 255
223 237 255
223 237 255
223 237 255
223 237 255
223 237 255
223 237 255
223 237 255
223 237 255
223 237 255
223 237 255
223 237 255
223 237 255
223 237 255
223 237 255
223 237 255
223 237 255
223 237 255
223 237 255
223 237 255
223 237 255
223 237 255
223 237 255
223 237 255
223 237 255
223 237 255
223 237 255
223 237 255
223 237 255
223 237 255
223 237 255
223 237 255
223 237 255
223 237 255
223 237 255
223 237 255
223 237 255
223 237 255
223 237 255
223 237 255
223 237 255
223 237 255
223 237 255
223 237 255
223 237 255
223 237 255
223 237 255
223 237 255
223 237 255
223 237 255
223 237 255
223 237 255
223 237 255
223 237 255
223 237 255
223 237 255
223 237 255
223 237 255
223 237 255
223 237 255
223 237 255
223 237 255
223 237 255
223 237 255
223 237 255
223 237 255
223 237 255
223 237 255
223 237 255
223 237 255
223 237 255
223 237 255
223 237 255
223 237 255
223 237 255
223 237 255
223 237 255
223 237 255
223 237 255
218 231 249
50 53 70
0 0 42
0 0 42
0 0 42
0 0 42
0 0 42
0 0 40
0 0 41
0 0 42
0 0 42
0 0 42
0 0 42
0 0 42
0 0 42
0 0 42
0 0 42
0 0 42
0 0 42
0 0 42
0 0 42
0 0 42
0 0 42
0 0 42
0 0 42
0 0 42
0 0 42
0 0 42
0 0 42
0 0 42
0 0 42
0 0 42
0 0 42
0 0 42
0 0 42
0 0 42
0 0 42
0 0 42
0 0 42
0 0 42
0 0 42
0 0 42
0 0 42
0 0 42
0 0 42
0 0 42
0 0 42
0 0 42
0 0 42
0 0 42
0 0 42
0 0 42
0 0 42
0 0 42
0 0 42
0 0 42
0 0 42
0 0 42
0 0 42
0 0 42
0 0 42
0 0 42
0 0 42
0 0 42
0 0 42
0 0 42
0 0 42
0 0 42
0 0 42
0 0 42
0 0 42
0 0 42
0 0 42
0 0 42
0 0 42
0 0 42
0 0 42
0 0 42
0 0 42
0 0 42
0 0 42
0 0 42
0 0 42
0 0 42
0 0 42
0 0 42
0 0 42
0 0 42
0 0 42
0 0 42
0 0 42
0 0 42
0 0 42
0 0 42
0 0 42
0 0 42
0 0 42
0 0 42
0 0 42
0 0 42
0 0 42
0 0 42
0 0 42
0 0 42
0 0 42
0 0 42
0 0 42
0 0 42
0 0 42
0 0 42
0 0 42
0 0 42
0 0 42
0 0 42
0 0 42
0 0 42
0 0 42
0 0 42
0 0 42
0 0 42
0 0 42
0 0 45
0 0 46
0 0 48
0 0 50
0 0 53
0 0 53
0 0 50
0 0 56
0 0 67
0 0 63
0 11 71
0 19 82
0 27 88
0 22 85
19 27 83
87 73 87
142 123 108
184 158 125
173 155 126
140 124 96
119 100 67
126 106 71
117 102 61
104 88 60
60 71 82
64 76 74
93 84 43
44 47 15
28 39 3
22 37 3
20 41 0
27 50 0
32 54 0
26 51 0
33 56 4
33 55 2
34 53 0
40 56 0
39 53 0
44 59 0
40 55 0
40 55 0
44 57 5
45 54 11
50 64 18
43 59 11
47 62 13
42 57 11
48 62 17
58 71 27
63 70 30
70 73 38
73 73 40
73 73 39
73 75 40
74 76 40
74 80 39
69 77 34
74 77 35
77 74 38
78 74 42
80 75 44
78 73 41
74 72 38
72 67 35
59 60 25
59 64 28
50 65 13
63 77 18
32 50 37
0 0 42
0 0 42
0 0 41
0 0 42
0 0 42
0 0 42
0 0 42
0 0 42
0 0 42
0 0 42
0 0 42
0 0 42
0 0 42
63 67 83
221 234 253
223 237 255
223 237 255
223 237 255
223 237 255
223 237 255
223 237 255
223 237 255
223 237 255
223 237 255
223 237 255
223 237 255
223 237 255
223 237 255
223 237 255
223 237 255
223 237 255
223 237 255
223 237 255
223 237 255
223 237 255
223 237 255
223 237 255
223 237 255
223 237 255
223 237 255
223 237 255
223 237 255
223 237 255
223 237 255
223 237 255
223 237 255
223 237 255
223 237 255
223 237 255
223 237 255
223 237 255
223 237 255
223 237 255
223 237 255
223 237 255
223 237 255
223 237 255
223 237 255
223 237 255
223 237 255
223 237 255
223 237 255
223 237 255
223 237 255
223 237 255
223 237 255
223 237 255
223 237 255
223 237 255
223 237 255
223 237 255
223 237 255
223 237 255
223 237 255
223 237 255
223 237 255
223 237 255
223 237 255
223 237 255
223 237 255
223 237 255
223 237 255
223 237 255
223 237 255
223 237 255
223 237 255
223 237 255
223 237 255
223 237 255
223 237 255
223 237 255
223 237 255
223 237 255
223 237 255
223 237 255
223 237 255
223 237 255
223 237 255
223 237 255
223 237 255
223 237 255
223 237 255
223 237 255
223 237 255
223 237 255
223 237 255
223 237 255
223 237 255
223 237 255
223 237 255
223 237 255
223 237 255
223 237 255
223 237 255
223 237 255
223 237 255
223 237 255
223 237 255
223 237 255
223 237 255
223 237 255
223 237 255
223 237 255
223 237 255
223 237 255
223 237 255
223 237 255
223 237 255
223 237 255
223 237 255
223 237 255
223 237 255
223 237 255
223 237 255
223 237 255
223 237 255
223 237 255
223 237 255
223 237 255
223 237 255
223 237 255
223 237 255
223 237 255
223 237 255
223 237 255
223 237 255
223 237 255
223 237 255
223 237 255
223 237 255
223 237 255
223 237 255
223 237 255
223 237 255
223 237 255
223 237 255
223 237 255
223 237 255
223 237 255
223 237 255
223 237 255
223 237 255
223 237 255
223 237 255
223 237 255
223 237 255
223 237 255
223 237 255
223 237 255
223 237 255
223 237 255
223 237 255
223 237 255
223 237 255
223 237 255
223 237 255
223 237 255
223 237 255
223 237 255
223 237 255
223 237 255
223 237 255
223 237 255
223 237 255
223 237 255
223 237 255
223 237 255
223 237 255
223 237 255
223 237 255
223 237 255
223 237 255
223 237 255
223 237 255
223 237 255
223 237 255
223 237 255
223 237 255
223 237 255
223 237 255
223 237 255
223 237 255
223 237 255
223 237 255
223 237 255
223 237 255
223 237 255
223 237 255
223 237 255
223 237 255
128 136 151
0 0 42
0 0 42
0 0 42
0 0 42
0 0 42
0 0 41
0 0 39
0 0 42
0 0 42
0 0 42
0 0 42
0 0 42
0 0 42
0 0 42
0 0 42
0 0 42
0 0 42
0 0 42
0 0 42
0 0 42
0 0 42
0 0 42
0 0 42
0 0 42
0 0 42
0 0 42
0 0 42
0 0 42
0 0 42
0 0 42
0 0 42
0 0 42
0 0 42
0 0 42
0 0 42
0 0 42
0 0 42
0 0 42
0 0 42
0 0 42
0 0 42
0 0 42
0 0 42
0 0 42
0 0 42
0 0 42
0 0 42
0 0 42
0 0 42
0 0 42
0 0 42
0 0 42
0 0 42
0 0 42
0 0 42
0 0 42
0 0 42
0 0 42
0 0 42
0 0 42
0 0 42
0 0 42
0 0 42
0 0 42
0 0 42
0 0 42
0 0 42
0 0 42
0 0 42
0 0 42
0 0 42
0 0 42
0 0 42
0 0 42
0 0 42
0 0 42
0 0 42
0 0 42
0 0 42
0 0 42
0 0 42
0 0 42
0 0 42
0 0 42
0 0 42
0 0 42
0 0 42
0 0 42
0 0 42
0 0 42
0 0 42
0 0 42
0 0 42
0 0 42
0 0 42
0 0 42
0 0 42
0 0 42
0 0 42
0 0 42
0 0 42
0 0 42
0 0 42
0 0 42
0 0 42
0 0 42
0 0 42
0 0 41
0 0 42
0 0 42
0 0 42
0 0 42
0 0 42
0 0 42
0 0 42
0 0 42
0 0 42
0 0 42
0 0 43
0 0 45
0 0 45
0 0 47
0 0 50
0 0 51
0 0 58
0 0 58
0 0 63
0 0 61
0 0 50
0 0 65
0 15 79
0 20 80
0 15 70
0 4 69
7 12 66
31 40 83
93 103 117
152 141 123
174 154 122
150 138 113
121 105 71
127 112 77
122 102 60
122 97 72
114 105 68
123 101 63
71 63 35
56 54 24
56 61 31
32 47 14
27 50 0
28 54 0
28 52 0
45 67 12
48 70 14
55 68 16
46 57 7
40 55 0
40 56 0
38 53 0
36 51 0
40 55 0
37 48 0
36 49 4
38 54 10
42 57 4
50 61 21
57 66 25
66 71 33
73 74 40
76 76 43
75 75 42
71 73 39
80 77 45
81 77 45
73 76 38
70 76 33
71 75 34
78 75 40
77 73 38
78 75 41
73 69 35
75 71 36
64 63 30
54 57 23
52 58 19
61 75 20
63 74 15
15 26 52
0 0 43
0 0 42
0 0 42
0 0 42
0 0 42
0 0 42
0 0 42
0 0 42
0 0 42
0 0 42
0 0 42
0 0 42
0 0 42
139 148 163
223 237 255
223 237 255
223 237 255
223 237 255
223 237 255
223 237 255
223 237 255
223 237 255
223 237 255
223 237 255
223 237 255
223 237 255
223 237 255
223 237 255
223 237 255
223 237 255
223 237 255
223 237 255
223 237 255
223 237 255
223 237 255
223 237 255
223 237 255
223 237 255
223 237 255
223 237 255
223 237 255
223 237 255
223 237 255
223 237 255
223 237 255
223 237 255
223 237 255
223 237 255
223 237 255
223 237 255
223 237 255
223 237 255
223 237 255
223 237 255
223 237 255
223 237 255
223 237 255
223 237 255
223 237 255
223 237 255
223 237 255
223 237 255
223 237 255
223 237 255
223 237 255
223 237 255
223 237 255
223 237 255
223 237 255
223 237 255
223 237 255
223 237 255
223 237 255
223 237 255
223 237 255
223 237 255
223 237 255
223 237 255
223 237 255
223 237 255
223 237 255
223 237 255
223 237 255
223 237 255
223 237 255
223 237 255
223 237 255
223 237 255
223 237 255
223 237 255
223 237 255
223 237 255
223 237 255
223 237 255
223 237 255
223 237 255
223 237 255
223 237 255
223 237 255
223 237 255
223 237 255
223 237 255
223 237 255
223 237 255
223 237 255
223 237 255
223 237 255
223 237 255
223 237 255
223 237 255
223 237 255
223 237 255
223 237 255
223 237 255
223 237 255
223 237 255
223 237 255
223 237 255
223 237 255
223 237 255
223 237 255
223 237 255
223 237 255
223 237 255
223 237 255
223 237 255
223 237 255
223 237 255
223 237 255
223 237 255
223 237 255
223 237 255
223 237 255
223 237 255
223 237 255
223 237 255
223 237 255
223 237 255
223 237 255
223 237 255
223 237 255
223 237 255
223 237 255
223 237 255
223 237 255
223 237 255
223 237 255
223 237 255
223 237 255
223 237 255
223 237 255
223 237 255
223 237 255
223 237 255
223 237 255
223 237 255
223 237 255
223 237 255
223 237 255
223 237 255
223 237 255
223 237 255
223 237 255
223 237 255
223 237 255
223 237 255
223 237 255
223 237 255
223 237 255
223 237 255
223 237 255
223 237 255
223 237 255
223 237 255
223 237 255
223 237 255
223 237 255
223 237 255
223 237 255
223 237 255
223 237 255
223 237 255
223 237 255
223 237 255
223 237 255
223 237 255
223 237 255
223 237 255
223 237 255
223 237 255
223 237 255
223 237 255
223 237 255
223 237 255
223 237 255
223 237 255
223 237 255
223 237 255
223 237 255
223 237 255
223 237 255
223 237 255
223 237 255
223 237 255
223 237 255
223 237 255
223 237 255
223 237 255
223 237 255
223 237 255
184 195 212
0 0 42
0 0 42
0 0 42
0 0 42
0 0 42
0 0 41
0 0 44
0 0 42
0 0 42
0 0 42
0 0 42
0 0 42
0 0 42
0 0 42
0 0 42
0 0 42
0 0 42
0 0 42
0 0 42
0 0 42
0 0 42
0 0 42
0 0 42
0 0 42
0 0 42
0 0 42
0 0 42
0 0 42
0 0 42
0 0 42
0 0 42
0 0 42
0 0 42
0 0 42
0 0 42
0 0 42
0 0 42
0 0 42
0 0 42
0 0 42
0 0 42
0 0 42
0 0 42
0 0 42
0 0 42
0 0 42
0 0 42
0 0 42
0 0 42
0 0 42
0 0 42
0 0 42
0 0 42
0 0 42
0 0 42
0 0 42
0 0 42
0 0 42
0 0 42
0 0 42
0 0 42
0 0 42
0 0 42
0 0 42
0 0 42
0 0 42
0 0 42
0 0 42
0 0 42
0 0 42
0 0 42
0 0 42
0 0 42
0 0 42
0 0 42
0 0 42
0 0 42
0 0 42
0 0 42
0 0 42
0 0 42
0 0 42
0 0 42
0 0 42
0 0 42
0 0 42
0 0 42
0 0 42
0 0 42
0 0 42
0 0 42
0 0 42
0 0 42
0 0 42
0 0 42
0 0 42
0 0 42
0 0 42
0 0 42
0 0 42
0 0 42
0 0 42
0 0 42
0 0 42
0 0 42
0 0 42
0 0 42
0 0 42
0 0 42
0 0 42
0 0 42
0 0 42
0 0 42
0 0 42
0 0 42
0 0 42
0 0 42
0 0 42
0 0 42
0 0 44
0 0 45
0 0 45
0 0 45
0 0 46
0 0 47
0 0 51
0 0 53
0 0 54
0 0 54
0 0 53
0 2 64
0 13 78
0 6 69
0 0 64
0 0 60
0 11 70
0 30 90
26 52 105
117 118 117
180 154 134
147 123 93
123 105 69
131 108 71
138 113 74
140 117 80
138 115 83
124 104 71
85 73 42
90 82 53
79 73 45
43 51 14
26 48 0
33 55 3
50 70 15
62 77 24
68 78 28
59 72 25
41 59 0
39 56 0
34 50 0
32 49 0
33 49 0
33 49 0
23 39 0
40 57 15
59 70 31
62 70 35
57 64 26
68 73 36
70 73 36
73 72 39
72 73 40
72 74 40
77 76 44
77 71 40
77 76 41
72 76 38
67 72 33
78 75 40
78 76 40
78 76 41
77 72 37
70 66 34
52 59 24
60 63 28
68 67 28
71 79 23
37 48 36
0 3 50
0 0 42
0 0 42
0 0 42
0 0 42
0 0 42
0 0 42
0 0 42
0 0 42
0 0 42
0 0 42
0 0 42
0 0 42
0 0 42
173 183 200
223 237 255
223 237 255
223 237 255
223 237 255
223 237 255
223 237 255
223 237 255
223 237 255
223 237 255
223 237 255
223 237 255
223 237 255
223 237 255
223 237 255
223 237 255
223 237 255
223 237 255
223 237 255
223 237 255
223 237 255
223 237 255
223 237 255
223 237 255
223 237 255
223 237 255
223 237 255
223 237 255
223 237 255
223 237 255
223 237 255
223 237 255
223 237 255
223 237 255
223 237 255
223 237 255
223 237 255
223 237 255
223 237 255
223 237 255
223 237 255
223 237 255
223 237 255
223 237 255
223 237 255
223 237 255
223 237 255
223 237 255
223 237 255
223 237 255
223 237 255
223 237 255
223 237 255
223 237 255
223 237 255
223 237 255
223 237 255
223 237 255
223 237 255
223 237 255
223 237 255
223 237 255
223 237 255
223 237 255
223 237 255
223 237 255
223 237 255
223 237 255
223 237 255
223 237 255
223 237 255
223 237 255
223 237 255
223 237 255
223 237 255
223 237 255
223 237 255
223 237 255
223 237 255
223 237 255
223 237 255
223 237 255
223 237 255
223 237 255
223 237 255
223 237 255
223 237 255
223 237 255
223 237 255
223 237 255
223 237 255
223 237 255
223 237 255
223 237 255
223 237 255
223 237 255
223 237 255
223 237 255
223 237 255
223 237 255
223 237 255
223 237 255
223 237 255
223 237 255
223 237 255
223 237 255
223 237 255
223 237 255
223 237 255
223 237 255
223 237 255
223 237 255
223 237 255
223 237 255
223 237 255
223 237 255
223 237 255
223 237 255
223 237 255
223 237 255
223 237 255
223 237 255
223 237 255
223 237 255
223 237 255
223 237 255
223 237 255
223 237 255
223 237 255
223 237 255
223 237 255
223 237 255
223 237 255
223 237 255
223 237 255
223 237 255
223 237 255
223 237 255
223 237 255
223 237 255
223 237 255
223 237 255
223 237 255
223 237 255
223 237 255
223 237 255
223 237 255
223 237 255
223 237 255
223 237 255
223 237 255
223 237 255
223 237 255
223 237 255
223 237 255
223 237 255
223 237 255
223 237 255
223 237 255
223 237 255
223 237 255
223 237 255
223 237 255
223 237 255
223 237 255
223 237 255
223 237 255
223 237 255
223 237 255
223 237 255
223 237 255
223 237 255
223 237 255
223 237 255
223 237 255
223 237 255
223 237 255
223 237 255
223 237 255
223 237 255
223 237 255
223 237 255
223 237 255
223 237 255
223 237 255
223 237 255
223 237 255
223 237 255
223 237 255
223 237 255
223 237 255
223 237 255
223 237 255
223 237 255
223 237 255
223 237 255
223 237 255
221 234 253
77 82 97
0 0 42
0 0 42
0 0 42
0 0 42
0 0 42
0 0 43
0 0 42
0 0 42
0 0 42
0 0 42
0 0 42
0 0 42
0 0 42
0 0 42
0 0 42
0 0 42
0 0 42
0 0 42
0 0 42
0 0 42
0 0 42
0 0 42
0 0 42
0 0 42
0 0 42
0 0 42
0 0 42
0 0 42
0 0 42
0 0 42
0 0 42
0 0 42
0 0 42
0 0 42
0 0 42
0 0 42
0 0 42
0 0 42
0 0 42
0 0 42
0 0 42
0 0 42
0 0 42
0 0 42
0 0 42
0 0 42
0 0 42
0 0 42
0 0 42
0 0 42
0 0 42
0 0 42
0 0 42
0 0 42
0 0 42
0 0 42
0 0 42
0 0 42
0 0 42
0 0 42
0 0 42
0 0 42
0 0 42
0 0 42
0 0 42
0 0 42
0 0 42
0 0 42
0 0 42
0 0 42
0 0 42
0 0 42
0 0 42
0 0 42
0 0 42
0 0 42
0 0 42
0 0 42
0 0 42
0 0 42
0 0 42
0 0 42
0 0 42
0 0 42
0 0 42
0 0 42
0 0 42
0 0 42
0 0 42
0 0 42
0 0 42
0 0 42
0 0 42
0 0 42
0 0 42
0 0 42
0 0 42
0 0 42
0 0 42
0 0 42
0 0 42
0 0 42
0 0 42
0 0 42
0 0 42
0 0 42
0 0 42
0 0 42
0 0 42
0 0 42
0 0 42
0 0 42
0 0 42
0 0 42
0 0 42
0 0 42
0 0 42
0 0 42
0 0 42
0 0 44
0 0 45
0 0 45
0 0 45
0 0 46
0 0 48
0 0 49
0 0 50
0 0 53
0 0 53
0 0 58
0 0 64
0 0 61
0 0 60
0 0 57
0 6 62
0 14 75
0 23 79
20 30 84
136 123 107
173 141 102
144 119 89
135 110 74
144 119 81
151 128 91
150 123 92
155 133 95
128 109 72
110 88 61
107 88 64
86 76 51
57 61 26
38 52 7
37 53 0
66 79 31
62 74 25
49 65 16
40 58 0
41 58 0
39 54 0
32 48 0
31 50 0
31 50 0
30 51 0
38 53 14
57 63 30
62 68 35
62 68 32
67 73 35
63 68 31
71 70 36
72 74 40
71 73 39
76 75 43
79 72 42
73 71 37
72 74 35
67 69 33
75 74 38
77 74 37
77 75 37
79 73 38
72 71 39
48 58 22
66 67 28
73 71 34
60 68 20
15 26 53
0 0 46
0 0 42
0 0 42
0 0 42
0 0 42
0 0 42
0 0 42
0 0 42
0 0 42
0 0 42
0 0 42
0 0 42
0 0 42
63 67 83
215 228 247
223 237 255
223 237 255
223 237 255
223 237 255
223 237 255
223 237 255
223 237 255
223 237 255
223 237 255
223 237 255
223 237 255
223 237 255
223 237 255
223 237 255
223 237 255
223 237 255
223 237 255
223 237 255
223 237 255
223 237 255
223 237 255
223 237 255
223 237 255
223 237 255
223 237 255
223 237 255
223 237 255
223 237 255
223 237 255
223 237 255
223 237 255
223 237 255
223 237 255
223 237 255
223 237 255
223 237 255
223 237 255
223 237 255
223 237 255
223 237 255
223 237 255
223 237 255
223 237 255
223 237 255
223 237 255
223 237 255
223 237 255
223 237 255
223 237 255
223 237 255
223 237 255
223 237 255
223 237 255
223 237 255
223 237 255
223 237 255
223 237 255
223 237 255
223 237 255
223 237 255
223 237 255
223 237 255
223 237 255
223 237 255
223 237 255
223 237 255
223 237 255
223 237 255
223 237 255
223 237 255
223 237 255
223 237 255
223 237 255
223 237 255
223 237 255
223 237 255
223 237 255
223 237 255
223 237 255
223 237 255
223 237 255
223 237 255
223 237 255
223 237 255
223 237 255
223 237 255
223 237 255
223 237 255
223 237 255
223 237 255
223 237 255
223 237 255
223 237 255
223 237 255
223 237 255
223 237 255
223 237 255
223 237 255
223 237 255
223 237 255
223 237 255
223 237 255
223 237 255
223 237 255
223 237 255
223 237 255
223 237 255
223 237 255
223 237 255
223 237 255
223 237 255
223 237 255
223 237 255
223 237 255
223 237 255
223 237 255
223 237 255
223 237 255
223 237 255
223 237 255
223 237 255
223 237 255
223 237 255
223 237 255
223 237 255
223 237 255
223 237 255
223 237 255
223 237 255
223 237 255
223 237 255
223 237 255
223 237 255
223 237 255
223 237 255
223 237 255
223 237 255
223 237 255
223 237 255
223 237 255
223 237 255
223 237 255
223 237 255
223 237 255
223 237 255
223 237 255
223 237 255
223 237 255
223 237 255
223 237 255
223 237 255
223 237 255
223 237 255
223 237 255
223 237 255
223 237 255
223 237 255
223 237 255
223 237 255
223 237 255
223 237 255
223 237 255
223 237 255
223 237 255
223 237 255
223 237 255
223 237 255
223 237 255
223 237 255
223 237 255
223 237 255
223 237 255
223 237 255
223 237 255
223 237 255
223 237 255
223 237 255
223 237 255
223 237 255
223 237 255
223 237 255
223 237 255
223 237 255
223 237 255
223 237 255
223 237 255
223 237 255
223 237 255
223 237 255
223 237 255
223 237 255
223 237 255
223 237 255
223 237 255
223 237 255
223 237 255
223 237 255
158 167 183
0 0 42
0 0 42
0 0 42
0 0 42
0 0 42
0 0 42
0 0 41
0 0 42
0 0 42
0 0 42
0 0 42
0 0 42
0 0 42
0 0 42
0 0 42
0 0 42
0 0 42
0 0 42
0 0 42
0 0 42
0 0 42
0 0 42
0 0 42
0 0 42
0 0 42
0 0 42
0 0 42
0 0 42
0 0 42
0 0 42
0 0 42
0 0 42
0 0 42
0 0 42
0 0 42
0 0 42
0 0 42
0 0 42
0 0 42
0 0 42
0 0 42
0 0 42
0 0 42
0 0 42
0 0 42
0 0 42
0 0 42
0 0 42
0 0 42
0 0 42
0 0 42
0 0 42
0 0 42
0 0 42
0 0 42
0 0 42
0 0 42
0 0 42
0 0 42
0 0 42
0 0 42
0 0 42
0 0 42
0 0 42
0 0 42
0 0 42
0 0 42
0 0 42
0 0 42
0 0 42
0 0 42
0 0 42
0 0 42
0 0 42
0 0 42
0 0 42
0 0 42
0 0 42
0 0 42
0 0 42
0 0 42
0 0 42
0 0 42
0 0 42
0 0 42
0 0 42
0 0 42
0 0 42
0 0 42
0 0 42
0 0 42
0 0 42
0 0 42
0 0 42
0 0 42
0 0 42
0 0 42
0 0 42
0 0 42
0 0 42
0 0 42
0 0 42
0 0 42
0 0 42
0 0 42
0 0 42
0 0 42
0 0 42
0 0 42
0 0 42
0 0 42
0 0 42
0 0 42
0 0 42
0 0 42
0 0 42
0 0 42
0 0 42
0 0 42
0 0 42
0 0 44
0 0 45
0 0 45
0 0 47
0 0 48
0 0 48
0 0 50
0 0 53
0 0 53
0 0 54
0 0 55
0 0 54
0 0 61
0 0 62
0 2 65
0 3 59
0 3 59
0 4 58
18 28 78
121 112 108
182 155 126
143 115 80
130 106 63
143 120 81
150 118 80
171 138 99
133 108 73
112 96 63
87 77 44
72 65 33
66 67 32
50 60 17
45 57 12
60 68 24
51 62 13
42 59 8
40 56 0
45 61 7
46 61 13
36 53 2
31 51 0
32 51 0
32 50 0
35 44 11
58 60 32
58 64 31
63 70 32
70 77 39
72 75 37
76 76 41
75 76 42
72 74 39
71 72 37
72 69 36
71 71 36
75 76 39
71 71 35
76 75 38
76 74 38
79 77 40
83 77 42
68 68 33
50 58 20
68 69 31
64 64 26
50 62 40
0 17 57
0 0 45
0 0 41
0 0 42
0 0 42
0 0 42
0 0 42
0 0 42
0 0 42
0 0 42
0 0 42
0 0 42
0 0 42
0 0 42
156 166 181
223 237 255
223 237 255
223 237 255
223 237 255
223 237 255
223 237 255
223 237 255
223 237 255
223 237 255
223 237 255
223 237 255
223 237 255
223 237 255
223 237 255
223 237 255
223 237 255
223 237 255
223 237 255
223 237 255
223 237 255
223 237 255
223 237 255
223 237 255
223 237 255
223 237 255
223 237 255
223 237 255
223 237 255
223 237 255
223 237 255
223 237 255
223 237 255
223 237 255
223 237 255
223 237 255
223 237 255
223 237 255
223 237 255
223 237 255
223 237 255
223 237 255
223 237 255
223 237 255
223 237 255
223 237 255
223 237 255
223 237 255
223 237 255
223 237 255
223 237 255
223 237 255
223 237 255
223 237 255
223 237 255
223 237 255
223 237 255
223 237 255
223 237 255
223 237 255
223 237 255
223 237 255
223 237 255
223 237 255
223 237 255
223 237 255
223 237 255
223 237 255
223 237 255
223 237 255
223 237 255
223 237 255
223 237 255
223 237 255
223 237 255
223 237 255
223 237 255
223 237 255
223 237 255
223 237 255
223 237 255
223 237 255
223 237 255
223 237 255
223 237 255
223 237 255
223 237 255
223 237 255
223 237 255
223 237 255
223 237 255
223 237 255
223 237 255
223 237 255
223 237 255
223 237 255
223 237 255
223 237 255
223 237 255
223 237 255
223 237 255
223 237 255
223 237 255
223 237 255
223 237 255
223 237 255
223 237 255
223 237 255
223 237 255
223 237 255
223 237 255
223 237 255
223 237 255
223 237 255
223 237 255
223 237 255
223 237 255
223 237 255
223 237 255
223 237 255
223 237 255
223 237 255
223 237 255
223 237 255
223 237 255
223 237 255
223 237 255
223 237 255
223 237 255
223 237 255
223 237 255
223 237 255
223 237 255
223 237 255
223 237 255
223 237 255
223 237 255
223 237 255
223 237 255
223 237 255
223 237 255
223 237 255
223 237 255
223 237 255
223 237 255
223 237 255
223 237 255
223 237 255
223 237 255
223 237 255
223 237 255
223 237 255
223 237 255
223 237 255
223 237 255
223 237 255
223 237 255
223 237 255
223 237 255
223 237 255
223 237 255
223 237 255
223 237 255
223 237 255
223 237 255
223 237 255
223 237 255
223 237 255
223 237 255
223 237 255
223 237 255
223 237 255
223 237 255
223 237 255
223 237 255
223 237 255
223 237 255
223 237 255
223 237 255
223 237 255
223 237 255
223 237 255
223 237 255
223 237 255
223 237 255
223 237 255
223 237 255
223 237 255
223 237 255
223 237 255
223 237 255
223 237 255
223 237 255
223 237 255
223 237 255
223 237 255
223 237 255
223 237 255
223 237 255
204 216 233
0 0 42
0 0 42
0 0 42
0 0 42
0 0 42
0 0 42
0 0 42
0 0 42
0 0 42
0 0 42
0 0 42
0 0 42
0 0 42
0 0 42
0 0 42
0 0 42
0 0 42
0 0 42
0 0 42
0 0 42
0 0 42
0 0 42
0 0 42
0 0 42
0 0 42
0 0 42
0 0 42
0 0 42
0 0 42
0 0 42
0 0 42
0 0 42
0 0 42
0 0 42
0 0 42
0 0 42
0 0 42
0 0 42
0 0 42
0 0 42
0 0 42
0 0 42
0 0 42
0 0 42
0 0 42
0 0 42
0 0 42
0 0 42
0 0 42
0 0 42
0 0 42
0 0 42
0 0 42
0 0 42
0 0 42
0 0 42
0 0 42
0 0 42
0 0 42
0 0 42
0 0 42
0 0 42
0 0 42
0 0 42
0 0 42
0 0 42
0 0 42
0 0 42
0 0 42
0 0 42
0 0 42
0 0 42
0 0 42
0 0 42
0 0 42
0 0 42
0 0 42
0 0 42
0 0 42
0 0 42
0 0 42
0 0 42
0 0 42
0 0 42
0 0 42
0 0 42
0 0 42
0 0 42
0 0 42
0 0 42
0 0 42
0 0 42
0 0 42
0 0 42
0 0 42
0 0 42
0 0 42
0 0 42
0 0 42
0 0 42
0 0 42
0 0 42
0 0 42
0 0 42
0 0 42
0 0 42
0 0 42
0 0 42
0 0 42
0 0 42
0 0 42
0 0 42
0 0 42
0 0 42
0 0 42
0 0 42
0 0 42
0 0 42
0 0 42
0 0 42
0 0 43
0 0 45
0 0 45
0 0 43
0 0 45
0 0 47
0 0 48
0 0 50
0 0 50
0 0 54
0 0 56
0 0 57
0 0 61
0 0 64
0 0 59
0 0 54
0 0 55
0 0 59
0 0 61
77 72 100
170 146 119
141 114 81
146 124 76
167 144 99
172 144 97
137 127 67
124 113 62
118 101 63
108 92 61
80 72 43
72 67 37
42 49 11
50 59 17
63 63 24
53 61 20
48 61 14
45 59 3
46 61 11
46 62 16
41 59 8
33 53 0
38 52 1
46 57 16
54 62 27
64 69 35
59 67 31
61 71 30
67 74 35
77 78 42
76 77 42
75 76 40
74 76 40
70 74 39
71 73 36
74 74 36
76 75 38
79 78 42
76 75 38
73 71 34
78 76 38
76 72 35
57 58 22
54 57 21
60 65 28
60 63 20
26 36 48
0 2 43
0 0 43
0 0 42
0 0 42
0 0 42
0 0 42
0 0 42
0 0 42
0 0 42
0 0 42
0 0 42
0 0 42
0 0 42
0 0 42
207 220 237
223 237 255
223 237 255
223 237 255
223 237 255
223 237 255
223 237 255
223 237 255
223 237 255
223 237 255
223 237 255
223 237 255
223 237 255
223 237 255
223 237 255
223 237 255
223 237 255
223 237 255
223 237 255
223 237 255
223 237 255
223 237 255
223 237 255
223 237 255
223 237 255
223 237 255
223 237 255
223 237 255
223 237 255
223 237 255
223 237 255
223 237 255
223 237 255
223 237 255
223 237 255
223 237 255
223 237 255
223 237 255
223 237 255
223 237 255
223 237 255
223 237 255
223 237 255
223 237 255
223 237 255
223 237 255
223 237 255
223 237 255
223 237 255
223 237 255
223 237 255
223 237 255
223 237 255
223 237 255
223 237 255
223 237 255
223 237 255
223 237 255
223 237 255
223 237 255
223 237 255
223 237 255
223 237 255
223 237 255
223 237 255
223 237 255
223 237 255
223 237 255
223 237 255
223 237 255
223 237 255
223 237 255
223 237 255
223 237 255
223 237 255
223 237 255
223 237 255
223 237 255
223 237 255
223 237 255
223 237 255
223 237 255
223 237 255
223 237 255
223 237 255
223 237 255
223 237 255
223 237 255
223 237 255
223 237 255
223 237 255
223 237 255
223 237 255
223 237 255
223 237 255
223 237 255
223 237 255
223 237 255
223 237 255
223 237 255
223 237 255
223 237 255
223 237 255
223 237 255
223 237 255
223 237 255
223 237 255
223 237 255
223 237 255
223 237 255
223 237 255
223 237 255
223 237 255
223 237 255
223 237 255
223 237 255
223 237 255
223 237 255
223 237 255
223 237 255
223 237 255
223 237 255
223 237 255
223 237 255
223 237 255
223 237 255
223 237 255
223 237 255
223 237 255
223 237 255
223 237 255
223 237 255
223 237 255
223 237 255
223 237 255
223 237 255
223 237 255
223 237 255
223 237 255
223 237 255
223 237 255
223 237 255
223 237 255
223 237 255
223 237 255
223 237 255
223 237 255
223 237 255
223 237 255
223 237 255
223 237 255
223 237 255
224 237 255
223 237 255
223 237 255
224 237 255
223 237 255
224 237 255
224 237 255
224 237 255
224 237 255
224 237 255
224 237 255
224 237 255
224 237 255
224 237 255
224 237 255
224 237 255
224 237 255
224 237 255
224 237 255
224 237 255
224 237 255
224 237 255
224 237 255
224 237 255
224 237 255
224 237 255
224 237 255
224 237 255
224 237 255
224 237 255
224 237 255
224 237 255
224 237 255
224 237 255
224 237 255
224 237 255
224 237 255
224 237 255
224 237 255
224 237 255
224 237 255
224 237 255
224 237 255
224 237 255
224 237 255
224 237 255
224 237 255
224 237 255
128 136 151
0 0 42
0 0 42
0 0 42
0 0 42
0 0 42
0 0 42
0 0 42
0 0 42
0 0 42
0 0 42
0 0 42
0 0 42
0 0 42
0 0 42
0 0 42
0 0 42
0 0 42
0 0 42
0 0 42
0 0 42
0 0 42
0 0 42
0 0 42
0 0 42
0 0 42
0 0 42
0 0 42
0 0 42
0 0 42
0 0 42
0 0 42
0 0 42
0 0 42
0 0 42
0 0 42
0 0 42
0 0 42
0 0 42
0 0 42
0 0 42
0 0 42
0 0 42
0 0 42
0 0 42
0 0 42
0 0 42
0 0 42
0 0 42
0 0 42
0 0 42
0 0 42
0 0 42
0 0 42
0 0 42
0 0 42
0 0 42
0 0 42
0 0 42
0 0 42
0 0 42
0 0 42
0 0 42
0 0 42
0 0 42
0 0 42
0 0 42
0 0 42
0 0 42
0 0 42
0 0 42
0 0 42
0 0 42
0 0 42
0 0 42
0 0 42
0 0 42
0 0 42
0 0 42
0 0 42
0 0 42
0 0 42
0 0 42
0 0 42
0 0 42
0 0 42
0 0 42
0 0 42
0 0 42
0 0 42
0 0 42
0 0 42
0 0 42
0 0 42
0 0 42
0 0 42
0 0 42
0 0 42
0 0 42
0 0 42
0 0 42
0 0 42
0 0 42
0 0 42
0 0 42
0 0 42
0 0 42
0 0 42
0 0 42
0 0 42
0 0 42
0 0 42
0 0 42
0 0 42
0 0 42
0 0 42
0 0 42
0 0 42
0 0 42
0 0 42
0 0 42
0 0 44
0 0 45
0 0 43
0 0 44
0 0 46
0 0 48
0 0 48
0 0 50
0 0 53
0 0 54
0 0 55
0 0 55
0 0 54
0 0 52
0 0 51
0 0 50
0 0 56
0 0 55
70 60 80
147 128 105
125 100 77
137 113 67
132 108 67
175 148 102
166 151 97
146 127 87
134 111 79
121 100 68
106 94 62
76 71 39
43 53 10
57 64 23
67 64 28
57 60 21
54 63 16
50 62 13
46 60 11
42 59 11
38 59 1
39 56 8
56 67 24
57 66 27
47 57 12
48 54 16
53 62 21
63 72 32
72 75 38
75 76 42
73 77 39
77 79 40
73 78 41
74 77 41
74 78 40
75 75 38
70 71 33
67 70 31
73 72 35
74 75 37
65 70 29
58 62 24
57 62 25
61 64 31
55 63 28
39 46 40
0 0 44
0 0 42
0 0 42
0 0 42
0 0 42
0 0 42
0 0 42
0 0 42
0 0 42
0 0 42
0 0 42
0 0 42
0 0 42
0 0 42
124 132 146
224 237 255
224 237 255
224 237 255
224 237 255
224 237 255
224 237 255
224 237 255
224 237 255
224 237 255
224 237 255
224 237 255
224 237 255
224 237 255
224 237 255
224 237 255
224 237 255
224 237 255
224 237 255
224 237 255
224 237 255
224 237 255
224 237 255
224 237 255
224 237 255
224 237 255
224 237 255
224 237 255
224 237 255
224 237 255
224 237 255
224 237 255
224 237 255
224 237 255
224 237 255
224 237 255
224 237 255
224 237 255
224 237 255
224 237 255
224 237 255
224 237 255
224 237 255
223 237 255
224 237 255
224 237 255
224 237 255
224 237 255
223 237 255
223 237 255
223 237 255
223 237 255
223 237 255
223 237 255
223 237 255
223 237 255
223 237 255
223 237 255
223 237 255
223 237 255
223 237 255
223 237 255
223 237 255
223 237 255
223 237 255
223 237 255
223 237 255
223 237 255
223 237 255
223 237 255
223 237 255
223 237 255
223 237 255
223 237 255
223 237 255
223 237 255
223 237 255
223 237 255
223 237 255
223 237 255
223 237 255
223 237 255
223 237 255
223 237 255
223 237 255
223 237 255
223 237 255
223 237 255
223 237 255
223 237 255
223 237 255
223 237 255
223 237 255
223 237 255
223 237 255
223 237 255
223 237 255
223 237 255
223 237 255
223 237 255
223 237 255
224 237 255
224 237 255
224 237 255
224 237 255
224 237 255
224 237 255
224 237 255
224 237 255
224 237 255
224 237 255
224 237 255
224 237 255
224 237 255
224 237 255
224 237 255
224 237 255
224 237 255
224 237 255
224 237 255
224 237 255
224 237 255
224 237 255
224 237 255
224 237 255
224 237 255
224 237 255
224 237 255
224 237 255
224 237 255
224 237 255
224 237 255
224 237 255
224 237 255
224 237 255
224 237 255
224 237 255
224 237 255
224 237 255
224 237 255
224 237 255
224 237 255
224 237 255
224 237 255
224 237 255
224 237 255
224 237 255
224 237 255
224 237 255
224 237 255
224 237 255
224 237 255
224 237 255
224 237 255
224 237 255
224 237 255
224 237 255
224 237 255
224 237 255
224 237 255
224 237 255
224 237 255
224 237 255
224 237 255
224 237 255
224 237 255
224 237 255
224 237 255
224 237 255
224 237 255
224 237 255
224 237 255
224 237 255
224 237 255
224 237 255
224 237 255
224 237 255
224 237 255
224 237 255
224 237 255
224 237 255
224 237 255
224 237 255
224 237 255
224 237 255
224 237 255
224 237 255
224 237 255
224 237 255
224 237 255
224 237 255
224 237 255
224 237 255
224 237 255
224 237 255
224 237 255
224 237 255
224 237 255
224 237 255
224 237 255
224 237 255
182 192 209
0 0 42
0 0 42
0 0 42
0 0 42
0 0 42
0 0 42
0 0 42
0 0 42
0 0 42
0 0 42
0 0 42
0 0 42
0 0 42
0 0 42
0 0 42
0 0 42
0 0 42
0 0 42
0 0 42
0 0 42
0 0 42
0 0 42
0 0 42
0 0 42
0 0 42
0 0 42
0 0 42
0 0 42
0 0 42
0 0 42
0 0 42
0 0 42
0 0 42
0 0 42
0 0 42
0 0 42
0 0 42
0 0 42
0 0 42
0 0 42
0 0 42
0 0 42
0 0 42
0 0 42
0 0 42
0 0 42
0 0 42
0 0 42
0 0 42
0 0 42
0 0 42
0 0 42
0 0 42
0 0 42
0 0 42
0 0 42
0 0 42
0 0 42
0 0 42
0 0 42
0 0 42
0 0 42
0 0 42
0 0 42
0 0 42
0 0 42
0 0 42
0 0 42
0 0 42
0 0 42
0 0 42
0 0 42
0 0 42
0 0 42
0 0 42
0 0 42
0 0 42
0 0 42
0 0 42
0 0 42
0 0 42
0 0 42
0 0 42
0 0 42
0 0 42
0 0 42
0 0 42
0 0 42
0 0 42
0 0 42
0 0 42
0 0 42
0 0 42
0 0 42
0 0 42
0 0 42
0 0 42
0 0 42
0 0 42
0 0 42
0 0 42
0 0 42
0 0 42
0 0 42
0 0 42
0 0 42
0 0 42
0 0 42
0 0 42
0 0 42
0 0 42
0 0 42
0 0 42
0 0 42
0 0 42
0 0 42
0 0 42
0 0 42
0 0 42
0 0 42
0 0 42
0 0 44
0 0 42
0 0 44
0 0 45
0 0 46
0 0 47
0 0 48
0 0 50
0 0 50
0 0 48
0 0 48
0 0 48
0 0 55
0 0 49
0 0 51
0 0 55
0 0 65
67 63 87
161 145 126
126 103 78
143 112 81
130 107 79
145 115 76
161 127 96
152 128 93
126 109 76
126 106 74
106 94 57
64 63 31
51 58 19
61 63 26
74 68 38
64 60 29
55 61 23
51 60 18
42 55 4
38 54 0
35 57 0
46 62 13
64 73 31
53 62 21
48 64 19
51 62 23
60 70 29
69 73 35
74 76 40
71 73 39
70 76 34
69 75 32
68 76 34
78 82 43
78 81 42
72 73 34
60 67 27
65 68 30
74 74 36
72 73 34
64 67 29
57 62 25
61 64 27
57 63 22
52 67 39
14 23 48
0 0 42
0 0 42
0 0 42
0 0 42
0 0 42
0 0 42
0 0 42
0 0 42
0 0 42
0 0 42
0 0 42
0 0 42
0 0 42
0 0 42
182 192 209
224 237 255
224 237 255
224 237 255
224 237 255
224 237 255
224 237 255
224 237 255
224 237 255
224 237 255
224 237 255
224 237 255
224 237 255
224 237 255
224 237 255
224 237 255
224 237 255
224 237 255
224 237 255
224 237 255
224 237 255
224 237 255
224 237 255
224 237 255
224 237 255
224 237 255
224 237 255
224 237 255
224 237 255
224 237 255
224 237 255
224 237 255
224 237 255
224 237 255
224 237 255
224 237 255
224 237 255
224 237 255
224 237 255
224 237 255
224 237 255
224 237 255
224 237 255
224 237 255
224 237 255
224 237 255
224 237 255
224 237 255
224 237 255
224 237 255
224 237 255
224 237 255
224 237 255
224 237 255
224 237 255
224 237 255
224 237 255
224 237 255
224 237 255
224 237 255
224 237 255
224 237 255
224 237 255
224 237 255
224 237 255
224 237 255
224 237 255
224 237 255
224 237 255
224 237 255
224 237 255
224 237 255
224 237 255
224 237 255
224 237 255
224 237 255
224 237 255
224 237 255
224 237 255
224 237 255
224 237 255
224 237 255
224 237 255
224 237 255
224 237 255
224 237 255
224 237 255
224 237 255
224 237 255
224 237 255
224 237 255
224 237 255
224 237 255
224 237 255
224 237 255
224 237 255
224 237 255
224 237 255
224 237 255
224 237 255
224 237 255
224 237 255
224 237 255
224 237 255
224 237 255
224 237 255
224 237 255
224 237 255
224 237 255
224 237 255
224 237 255
224 237 255
224 237 255
224 237 255
224 237 255
224 237 255
224 237 255
224 237 255
224 237 255
224 237 255
224 237 255
224 237 255
224 237 255
224 237 255
224 237 255
224 237 255
224 237 255
224 237 255
224 237 255
224 237 255
224 237 255
224 237 255
224 237 255
224 237 255
224 237 255
224 237 255
224 237 255
224 237 255
224 237 255
224 237 255
224 237 255
224 237 255
224 237 255
224 237 255
224 237 255
224 237 255
224 237 255
224 237 255
224 237 255
224 237 255
224 237 255
224 237 255
224 237 255
224 237 255
224 237 255
224 237 255
224 237 255
224 237 255
224 237 255
224 237 255
224 237 255
224 237 255
224 237 255
224 237 255
224 237 255
224 237 255
224 237 255
224 237 255
224 237 255
224 237 255
224 237 255
224 237 255
224 237 255
224 237 255
224 237 255
224 237 255
224 237 255
224 237 255
224 237 255
224 237 255
224 237 255
224 237 255
224 237 255
224 237 255
224 237 255
224 237 255
224 237 255
224 237 255
224 237 255
224 237 255
224 237 255
224 237 255
224 237 255
224 237 255
224 237 255
224 237 255
224 237 255
224 237 255
224 237 255
224 237 255
224 237 255
223 236 254
80 85 100
0 0 42
0 0 42
0 0 42
0 0 42
0 0 42
0 0 42
0 0 42
0 0 42
0 0 42
0 0 42
0 0 42
0 0 42
0 0 42
0 0 42
0 0 42
0 0 42
0 0 42
0 0 42
0 0 42
0 0 42
0 0 42
0 0 42
0 0 42
0 0 42
0 0 42
0 0 42
0 0 42
0 0 42
0 0 42
0 0 42
0 0 42
0 0 42
0 0 42
0 0 42
0 0 42
0 0 42
0 0 42
0 0 42
0 0 42
0 0 42
0 0 42
0 0 42
0 0 42
0 0 42
0 0 42
0 0 42
0 0 42
0 0 42
0 0 42
0 0 42
0 0 42
0 0 42
0 0 42
0 0 42
0 0 42
0 0 42
0 0 42
0 0 42
0 0 42
0 0 42
0 0 42
0 0 42
0 0 42
0 0 42
0 0 42
0 0 42
0 0 42
0 0 42
0 0 42
0 0 42
0 0 42
0 0 42
0 0 42
0 0 42
0 0 42
0 0 42
0 0 42
0 0 42
0 0 42
0 0 42
0 0 42
0 0 42
0 0 42
0 0 42
0 0 42
0 0 42
0 0 42
0 0 42
0 0 42
0 0 42
0 0 42
0 0 42
0 0 42
0 0 42
0 0 42
0 0 42
0 0 42
0 0 42
0 0 42
0 0 42
0 0 42
0 0 42
0 0 42
0 0 42
0 0 42
0 0 42
0 0 42
0 0 42
0 0 42
0 0 42
0 0 42
0 0 42
0 0 42
0 0 42
0 0 42
0 0 42
0 0 42
0 0 42
0 0 42
0 0 42
0 0 42
0 0 42
0 0 44
0 0 45
0 0 47
0 0 46
0 0 47
0 0 48
0 0 49
0 0 50
0 0 51
0 0 52
0 0 53
0 0 56
0 0 58
0 0 57
0 2 67
60 63 89
173 149 126
150 124 98
168 134 104
149 129 102
139 113 86
180 148 120
149 124 90
105 90 55
120 101 69
93 83 47
50 55 19
51 60 22
60 63 29
67 64 36
70 71 42
57 62 23
48 57 15
45 58 12
38 55 1
32 56 0
46 62 18
55 66 24
45 60 16
56 72 25
59 70 27
65 73 30
74 79 39
71 73 34
72 77 37
66 75 29
65 74 28
62 74 28
76 82 38
78 80 40
64 72 30
56 67 27
66 71 31
70 71 32
71 72 35
67 69 32
61 63 28
69 70 34
73 73 40
36 46 63
0 0 41
0 0 42
0 0 42
0 0 42
0 0 42
0 0 42
0 0 42
0 0 42
0 0 42
0 0 42
0 0 42
0 0 42
0 0 42
0 0 42
86 91 106
223 236 254
224 237 255
224 237 255
224 237 255
224 237 255
224 237 255
224 237 255
224 237 255
224 237 255
224 237 255
224 237 255
224 237 255
224 237 255
224 237 255
224 237 255
224 237 255
224 237 255
224 237 255
224 237 255
224 237 255
224 237 255
224 237 255
224 237 255
224 237 255
224 237 255
224 237 255
224 237 255
224 237 255
224 237 255
224 237 255
224 237 255
224 237 255
224 237 255
224 237 255
224 237 255
224 237 255
224 237 255
224 237 255
224 237 255
224 237 255
224 237 255
224 237 255
224 237 255
224 237 255
224 237 255
224 237 255
224 237 255
224 237 255
224 237 255
224 237 255
224 237 255
224 237 255
224 237 255
224 237 255
224 237 255
224 237 255
224 237 255
224 237 255
224 237 255
224 237 255
224 237 255
224 237 255
224 237 255
224 237 255
224 237 255
224 237 255
224 237 255
224 237 255
224 237 255
224 237 255
224 237 255
224 237 255
224 237 255
224 237 255
224 237 255
224 237 255
224 237 255
224 237 255
224 237 255
224 237 255
224 237 255
224 237 255
224 237 255
224 237 255
224 237 255
224 237 255
224 237 255
224 237 255
224 237 255
224 237 255
224 237 255
224 237 255
224 237 255
224 237 255
224 237 255
224 237 255
224 237 255
224 237 255
224 237 255
224 237 255
224 237 255
224 237 255
224 237 255
224 237 255
224 237 255
224 237 255
224 237 255
224 237 255
224 237 255
224 237 255
224 237 255
224 237 255
224 237 255
224 237 255
224 237 255
224 237 255
224 237 255
224 237 255
224 237 255
224 237 255
224 237 255
224 237 255
224 237 255
224 237 255
224 237 255
224 237 255
224 237 255
224 237 255
224 237 255
224 237 255
224 237 255
224 237 255
224 237 255
224 237 255
224 237 255
224 237 255
224 237 255
224 237 255
224 237 255
224 237 255
224 237 255
224 237 255
224 237 255
224 237 255
224 237 255
224 237 255
224 237 255
224 237 255
224 237 255
224 237 255
224 237 255
224 237 255
224 237 255
224 237 255
224 237 255
224 237 255
224 237 255
224 237 255
224 237 255
224 237 255
224 237 255
224 237 255
224 237 255
224 237 255
224 237 255
224 237 255
224 237 255
224 237 255
224 237 255
224 237 255
224 237 255
224 237 255
224 237 255
224 237 255
224 237 255
224 237 255
224 237 255
224 237 255
224 237 255
224 237 255
224 237 255
224 237 255
224 237 255
224 237 255
224 237 255
224 237 255
224 237 255
224 237 255
224 237 255
224 237 255
224 237 255
224 237 255
224 237 255
224 237 255
224 237 255
224 237 255
224 237 255
224 237 255
224 237 255
224 237 255
224 237 255
224 237 255
173 183 200
0 0 42
0 0 42
0 0 42
0 0 42
0 0 42
0 0 42
0 0 42
0 0 42
0 0 42
0 0 42
0 0 42
0 0 42
0 0 42
0 0 42
0 0 42
0 0 42
0 0 42
0 0 42
0 0 42
0 0 42
0 0 42
0 0 42
0 0 42
0 0 42
0 0 42
0 0 42
0 0 42
0 0 42
0 0 42
0 0 42
0 0 42
0 0 42
0 0 42
0 0 42
0 0 42
0 0 42
0 0 42
0 0 42
0 0 42
0 0 42
0 0 42
0 0 42
0 0 42
0 0 42
0 0 42
0 0 42
0 0 42
0 0 42
0 0 42
0 0 42
0 0 42
0 0 42
0 0 42
0 0 42
0 0 42
0 0 42
0 0 42
0 0 42
0 0 42
0 0 42
0 0 42
0 0 42
0 0 42
0 0 42
0 0 42
0 0 42
0 0 42
0 0 42
0 0 42
0 0 42
0 0 42
0 0 42
0 0 42
0 0 42
0 0 42
0 0 42
0 0 42
0 0 42
0 0 42
0 0 42
0 0 42
0 0 42
0 0 42
0 0 42
0 0 42
0 0 42
0 0 42
0 0 42
0 0 42
0 0 42
0 0 42
0 0 42
0 0 42
0 0 42
0 0 42
0 0 42
0 0 42
0 0 42
0 0 42
0 0 42
0 0 42
0 0 42
0 0 42
0 0 42
0 0 42
0 0 42
0 0 42
0 0 42
0 0 42
0 0 42
0 0 42
0 0 42
0 0 42
0 0 42
0 0 42
0 0 42
0 0 42
0 0 42
0 0 42
0 0 42
0 0 42
0 0 41
0 0 44
0 0 45
0 0 47
0 0 48
0 0 48
0 0 49
0 0 51
0 0 53
0 0 53
0 0 53
0 0 52
0 0 54
0 0 59
0 2 59
0 13 76
87 84 101
171 134 104
148 117 93
158 125 90
154 132 102
168 147 122
198 163 135
163 134 101
105 90 54
113 95 63
79 69 38
44 51 13
51 60 21
56 59 26
61 60 34
64 65 34
56 61 24
50 59 16
47 60 15
42 59 15
43 63 13
51 64 20
52 63 21
51 64 20
58 72 26
59 69 26
66 74 31
68 73 33
66 70 26
67 77 30
61 71 24
68 80 32
67 78 31
67 76 30
72 75 34
55 67 25
57 66 26
64 70 29
68 72 34
66 68 34
63 65 29
60 65 29
64 70 29
67 76 44
10 14 64
0 0 40
0 0 42
0 0 42
0 0 42
0 0 42
0 0 42
0 0 42
0 0 42
0 0 42
0 0 42
0 0 42
0 0 42
0 0 42
0 0 42
163 172 188
224 237 255
224 237 255
224 237 255
224 237 255
224 237 255
224 237 255
224 237 255
224 237 255
224 237 255
224 237 255
224 237 255
224 237 255
224 237 255
224 237 255
224 237 255
224 237 255
224 237 255
224 237 255
224 237 255
224 237 255
224 237 255
224 237 255
224 237 255
224 237 255
224 237 255
224 237 255
224 237 255
224 237 255
224 237 255
224 237 255
224 237 255
224 237 255
224 237 255
224 237 255
224 237 255
224 237 255
224 237 255
224 237 255
224 237 255
224 237 255
224 237 255
224 237 255
224 237 255
224 237 255
224 237 255
224 237 255
224 237 255
224 237 255
224 237 255
224 237 255
224 237 255
224 237 255
224 237 255
224 237 255
224 237 255
224 237 255
224 237 255
224 237 255
224 237 255
224 237 255
224 237 255
224 237 255
224 237 255
224 237 255
224 237 255
224 237 255
224 237 255
224 237 255
224 237 255
224 237 255
224 237 255
224 237 255
224 237 255
224 237 255
224 237 255
224 237 255
224 237 255
224 237 255
224 237 255
224 237 255
224 237 255
224 237 255
224 237 255
224 237 255
224 237 255
224 237 255
224 237 255
224 237 255
224 237 255
224 237 255
224 237 255
224 237 255
224 237 255
224 237 255
224 237 255
224 237 255
224 237 255
224 237 255
224 237 255
224 237 255
224 237 255
224 237 255
224 237 255
224 237 255
224 237 255
224 237 255
224 237 255
224 237 255
224 237 255
224 237 255
224 237 255
224 237 255
224 237 255
224 237 255
224 237 255
224 237 255
224 237 255
224 237 255
224 237 255
224 237 255
224 237 255
224 237 255
224 237 255
224 237 255
224 237 255
224 237 255
224 237 255
224 237 255
224 237 255
224 237 255
224 237 255
224 237 255
224 237 255
224 237 255
224 237 255
224 237 255
224 237 255
224 237 255
224 237 255
224 237 255
224 237 255
224 237 255
224 237 255
224 237 255
224 237 255
224 237 255
224 237 255
224 237 255
224 237 255
224 237 255
224 237 255
224 237 255
224 237 255
224 237 255
224 237 255
224 237 255
224 237 255
224 237 255
224 237 255
224 237 255
224 237 255
224 237 255
224 237 255
224 237 255
224 237 255
224 237 255
224 237 255
224 237 255
224 237 255
224 237 255
224 237 255
224 237 255
224 237 255
224 237 255
224 237 255
224 237 255
224 237 255
224 237 255
224 237 255
224 237 255
224 237 255
224 237 255
224 237 255
224 237 255
224 237 255
224 237 255
224 237 255
224 237 255
224 237 255
224 237 255
224 237 255
224 237 255
224 237 255
224 237 255
224 237 255
224 237 255
224 237 255
224 237 255
224 237 255
224 237 255
224 237 255
224 237 255
216 229 247
54 58 74
0 0 42
0 0 42
0 0 42
0 0 42
0 0 42
0 0 42
0 0 42
0 0 42
0 0 42
0 0 42
0 0 42
0 0 42
0 0 42
0 0 42
0 0 42
0 0 42
0 0 42
0 0 42
0 0 42
0 0 42
0 0 42
0 0 42
0 0 42
0 0 42
0 0 42
0 0 42
0 0 42
0 0 42
0 0 42
0 0 42
0 0 42
0 0 42
0 0 42
0 0 42
0 0 42
0 0 42
0 0 42
0 0 42
0 0 42
0 0 42
0 0 42
0 0 42
0 0 42
0 0 42
0 0 42
0 0 42
0 0 42
0 0 42
0 0 42
0 0 42
0 0 42
0 0 42
0 0 42
0 0 42
0 0 42
0 0 42
0 0 42
0 0 42
0 0 42
0 0 42
0 0 42
0 0 42
0 0 42
0 0 42
0 0 42
0 0 42
0 0 42
0 0 42
0 0 42
0 0 42
0 0 42
0 0 42
0 0 42
0 0 42
0 0 42
0 0 42
0 0 42
0 0 42
0 0 42
0 0 42
0 0 42
0 0 42
0 0 42
0 0 42
0 0 42
0 0 42
0 0 42
0 0 42
0 0 42
0 0 42
0 0 42
0 0 42
0 0 42
0 0 42
0 0 42
0 0 42
0 0 42
0 0 42
0 0 42
0 0 42
0 0 42
0 0 42
0 0 42
0 0 42
0 0 42
0 0 42
0 0 42
0 0 42
0 0 42
0 0 42
0 0 42
0 0 42
0 0 42
0 0 42
0 0 42
0 0 42
0 0 42
0 0 42
0 0 42
0 0 42
0 0 41
0 0 42
0 0 45
0 0 46
0 0 48
0 0 49
0 0 50
0 0 53
0 0 54
0 0 54
0 0 53
0 0 50
0 0 53
0 0 55
0 4 64
0 9 76
97 86 99
190 154 126
149 123 97
147 114 84
158 131 98
158 134 103
181 144 115
144 118 85
117 100 62
115 96 65
81 78 47
45 51 17
53 59 23
61 61 30
60 58 31
63 63 31
59 63 27
47 56 13
47 60 16
45 61 16
45 61 13
53 65 23
58 68 24
58 70 24
58 70 26
61 73 28
58 69 22
65 75 27
65 75 26
60 72 26
77 84 41
71 81 32
72 82 35
67 76 33
65 70 31
61 70 31
60 69 28
60 68 25
61 66 28
56 61 26
53 61 21
46 58 17
41 56 40
20 26 60
0 0 44
0 0 42
0 0 42
0 0 42
0 0 42
0 0 42
0 0 42
0 0 42
0 0 42
0 0 42
0 0 42
0 0 42
0 0 42
0 0 42
38 41 60
219 232 250
224 237 255
224 237 255
224 237 255
224 237 255
224 237 255
224 237 255
224 237 255
224 237 255
224 237 255
224 237 255
224 237 255
224 237 255
224 237 255
224 237 255
224 237 255
224 237 255
224 237 255
224 237 255
224 237 255
224 237 255
224 237 255
224 237 255
224 237 255
224 237 255
224 237 255
224 237 255
224 237 255
224 237 255
224 237 255
224 237 255
224 237 255
224 237 255
224 237 255
224 237 255
224 237 255
224 237 255
224 237 255
224 237 255
224 237 255
224 237 255
224 237 255
224 237 255
224 237 255
224 237 255
224 237 255
224 237 255
224 237 255
224 237 255
224 237 255
224 237 255
224 237 255
224 237 255
224 237 255
224 237 255
224 237 255
224 237 255
224 237 255
224 237 255
224 237 255
224 237 255
224 237 255
224 237 255
224 237 255
224 237 255
224 237 255
224 237 255
224 237 255
224 237 255
224 237 255
224 237 255
224 237 255
224 237 255
224 237 255
224 237 255
224 237 255
224 237 255
224 237 255
224 237 255
224 237 255
224 237 255
224 237 255
224 237 255
224 237 255
224 237 255
224 237 255
224 237 255
224 237 255
224 237 255
224 237 255
224 237 255
224 237 255
224 237 255
224 237 255
224 237 255
224 237 255
224 237 255
224 237 255
224 237 255
224 237 255
224 237 255
224 237 255
224 237 255
224 237 255
224 237 255
224 237 255
224 237 255
224 237 255
224 237 255
224 237 255
224 237 255
224 237 255
224 237 255
224 237 255
224 237 255
224 237 255
224 237 255
224 237 255
224 237 255
224 237 255
224 237 255
224 237 255
224 237 255
224 237 255
224 237 255
224 237 255
224 237 255
224 237 255
224 237 255
224 237 255
224 237 255
224 237 255
224 237 255
224 237 255
224 237 255
224 237 255
224 237 255
224 237 255
224 237 255
224 237 255
224 237 255
224 237 255
224 237 255
224 237 255
224 237 255
224 237 255
224 237 255
224 237 255
224 237 255
224 237 255
224 237 255
224 237 255
224 237 255
224 237 255
224 237 255
224 237 255
224 237 255
224 237 255
224 237 255
224 237 255
224 237 255
224 237 255
224 237 255
224 237 255
224 237 255
224 237 255
224 237 255
224 237 255
224 237 255
224 237 255
224 237 255
224 237 255
224 237 255
224 237 255
224 237 255
224 237 255
224 237 255
224 237 255
224 237 255
224 237 255
224 237 255
224 237 255
224 237 255
224 237 255
224 237 255
224 237 255
224 237 255
224 237 255
224 237 255
224 237 255
224 237 255
224 237 255
224 237 255
224 237 255
224 237 255
224 237 255
224 237 255
224 237 255
224 237 255
224 237 255
224 237 255
224 237 255
224 237 255
224 237 255
158 167 183
0 0 42
0 0 42
0 0 42
0 0 42
0 0 42
0 0 42
0 0 42
0 0 42
0 0 42
0 0 42
0 0 42
0 0 42
0 0 42
0 0 42
0 0 42
0 0 42
0 0 42
0 0 42
0 0 42
0 0 42
0 0 42
0 0 42
0 0 42
0 0 42
0 0 42
0 0 42
0 0 42
0 0 42
0 0 42
0 0 42
0 0 42
0 0 42
0 0 42
0 0 42
0 0 42
0 0 42
0 0 42
0 0 42
0 0 42
0 0 42
0 0 42
0 0 42
0 0 42
0 0 42
0 0 42
0 0 42
0 0 42
0 0 42
0 0 42
0 0 42
0 0 42
0 0 42
0 0 42
0 0 42
0 0 42
0 0 42
0 0 42
0 0 42
0 0 42
0 0 42
0 0 42
0 0 42
0 0 42
0 0 42
0 0 42
0 0 42
0 0 42
0 0 42
0 0 42
0 0 42
0 0 42
0 0 42
0 0 42
0 0 42
0 0 42
0 0 42
0 0 42
0 0 42
0 0 42
0 0 42
0 0 42
0 0 42
0 0 42
0 0 42
0 0 42
0 0 42
0 0 42
0 0 42
0 0 42
0 0 42
0 0 42
0 0 42
0 0 42
0 0 42
0 0 42
0 0 42
0 0 42
0 0 42
0 0 42
0 0 42
0 0 42
0 0 42
0 0 42
0 0 42
0 0 42
0 0 42
0 0 42
0 0 42
0 0 42
0 0 42
0 0 42
0 0 42
0 0 42
0 0 42
0 0 42
0 0 42
0 0 42
0 0 42
0 0 42
0 0 42
0 0 42
0 0 42
0 0 43
0 0 45
0 0 46
0 0 48
0 0 50
0 0 50
0 0 51
0 0 51
0 0 51
0 0 52
0 0 54
0 0 53
0 0 60
10 10 65
109 92 97
193 166 140
154 130 109
140 112 86
159 125 93
161 126 94
156 124 94
131 109 71
140 113 76
116 102 70
55 58 30
40 49 10
54 60 23
64 64 29
60 62 31
59 62 29
55 61 22
61 72 27
59 71 26
45 61 14
37 55 1
47 61 18
50 63 18
52 65 19
60 71 29
59 70 27
62 74 25
68 80 26
62 74 25
68 79 35
76 82 40
69 76 31
64 73 27
61 70 29
59 66 29
64 71 29
64 68 30
59 65 25
52 63 21
44 54 25
42 62 40
37 54 37
21 28 52
0 0 48
0 0 41
0 0 42
0 0 42
0 0 42
0 0 42
0 0 42
0 0 42
0 0 42
0 0 42
0 0 42
0 0 42
0 0 42
0 0 42
0 0 42
140 148 163
224 237 255
224 237 255
224 237 255
224 237 255
224 237 255
224 237 255
224 237 255
224 237 255
224 237 255
224 237 255
224 237 255
224 237 255
224 237 255
224 237 255
224 237 255
224 237 255
224 237 255
224 237 255
224 237 255
224 237 255
224 237 255
224 237 255
224 237 255
224 237 255
224 237 255
224 237 255
224 237 255
224 237 255
224 237 255
224 237 255
224 237 255
224 237 255
224 237 255
224 237 255
224 237 255
224 237 255
224 237 255
224 237 255
224 237 255
224 237 255
224 237 255
224 237 255
224 237 255
224 237 255
224 237 255
224 237 255
224 237 255
224 237 255
224 237 255
224 237 255
224 237 255
224 237 255
224 237 255
224 237 255
224 237 255
224 237 255
224 237 255
224 237 255
224 237 255
224 237 255
224 237 255
224 237 255
224 237 255
224 237 255
224 237 255
224 237 255
224 237 255
224 237 255
224 237 255
224 237 255
224 237 255
224 237 255
224 237 255
224 237 255
224 237 255
224 237 255
224 237 255
224 237 255
224 237 255
224 237 255
224 237 255
224 237 255
224 237 255
224 237 255
224 237 255
224 237 255
224 237 255
224 237 255
224 237 255
224 237 255
224 237 255
224 237 255
224 237 255
224 237 255
224 237 255
224 237 255
224 237 255
224 237 255
224 237 255
224 237 255
224 237 255
224 237 255
224 237 255
224 237 255
224 237 255
224 237 255
224 237 255
224 237 255
224 237 255
224 237 255
224 237 255
224 237 255
224 237 255
224 237 255
224 237 255
224 237 255
224 237 255
224 237 255
224 237 255
224 237 255
224 237 255
224 237 255
224 237 255
224 237 255
224 237 255
224 237 255
224 237 255
224 237 255
224 237 255
224 237 255
224 237 255
224 237 255
224 237 255
224 237 255
224 237 255
224 237 255
224 237 255
224 237 255
224 237 255
224 237 255
224 237 255
224 237 255
224 237 255
224 237 255
224 237 255
224 237 255
224 237 255
224 237 255
224 237 255
224 237 255
224 237 255
224 237 255
224 237 255
224 237 255
224 237 255
224 237 255
224 237 255
224 237 255
224 237 255
224 237 255
224 237 255
224 237 255
224 237 255
224 237 255
224 237 255
224 237 255
224 237 255
224 237 255
224 237 255
224 237 255
224 237 255
224 237 255
224 237 255
224 237 255
224 237 255
224 237 255
224 237 255
224 237 255
224 237 255
224 237 255
224 237 255
224 237 255
224 237 255
224 237 255
224 237 255
224 237 255
224 237 255
224 237 255
224 237 255
224 237 255
224 237 255
224 237 255
224 237 255
224 237 255
224 237 255
224 237 255
224 237 255
224 237 255
224 237 255
224 237 255
224 237 255
224 237 255
224 237 255
224 237 255
206 218 236
44 47 65
0 0 42
0 0 42
0 0 42
0 0 42
0 0 42
0 0 42
0 0 42
0 0 42
0 0 42
0 0 42
0 0 42
0 0 42
0 0 42
0 0 42
0 0 42
0 0 42
0 0 42
0 0 42
0 0 42
0 0 42
0 0 42
0 0 42
0 0 42
0 0 42
0 0 42
0 0 42
0 0 42
0 0 42
0 0 42
0 0 42
0 0 42
0 0 42
0 0 42
0 0 42
0 0 42
0 0 42
0 0 42
0 0 42
0 0 42
0 0 42
0 0 42
0 0 42
0 0 42
0 0 42
0 0 42
0 0 42
0 0 42
0 0 42
0 0 42
0 0 42
0 0 42
0 0 42
0 0 42
0 0 42
0 0 42
0 0 42
0 0 42
0 0 42
0 0 42
0 0 42
0 0 42
0 0 42
0 0 42
0 0 42
0 0 42
0 0 42
0 0 42
0 0 42
0 0 42
0 0 42
0 0 42
0 0 42
0 0 42
0 0 42
0 0 42
0 0 42
0 0 42
0 0 42
0 0 42
0 0 42
0 0 42
0 0 42
0 0 42
0 0 42
0 0 42
0 0 42
0 0 42
0 0 42
0 0 42
0 0 42
0 0 42
0 0 42
0 0 42
0 0 42
0 0 42
0 0 42
0 0 42
0 0 42
0 0 42
0 0 42
0 0 42
0 0 42
0 0 42
0 0 42
0 0 42
0 0 42
0 0 42
0 0 42
0 0 42
0 0 42
0 0 42
0 0 42
0 0 42
0 0 42
0 0 42
0 0 42
0 0 42
0 0 42
0 0 42
0 0 42
0 0 42
0 0 42
0 0 43
0 0 45
0 0 46
0 0 47
0 0 48
0 0 49
0 0 49
0 0 52
0 0 57
0 0 57
0 0 53
0 0 57
38 32 70
147 119 103
173 148 130
170 141 122
138 120 96
160 125 101
159 123 95
145 120 88
153 128 88
161 131 96
86 75 44
30 43 4
48 60 22
55 61 25
64 69 32
56 62 27
55 60 25
56 64 22
70 81 37
65 76 30
41 59 14
39 56 13
40 56 12
46 61 18
46 60 18
58 71 28
62 73 25
66 79 26
63 74 23
77 84 40
73 81 37
63 73 30
50 62 19
52 64 16
59 67 28
59 68 26
67 76 31
57 70 26
52 62 20
42 48 29
12 19 48
15 21 54
5 8 48
0 2 48
0 0 38
0 0 42
0 0 42
0 0 42
0 0 42
0 0 42
0 0 42
0 0 42
0 0 42
0 0 42
0 0 42
0 0 42
0 0 42
0 0 42
31 33 55
204 216 233
224 237 255
224 237 255
224 237 255
224 237 255
224 237 255
224 237 255
224 237 255
224 237 255
224 237 255
224 237 255
224 237 255
224 237 255
224 237 255
224 237 255
224 237 255
224 237 255
224 237 255
224 237 255
224 237 255
224 237 255
224 237 255
224 237 255
224 237 255
224 237 255
224 237 255
224 237 255
224 237 255
224 237 255
224 237 255
224 237 255
224 237 255
224 237 255
224 237 255
224 237 255
224 237 255
224 237 255
224 237 255
224 237 255
224 237 255
224 237 255
224 237 255
224 237 255
224 237 255
224 237 255
224 237 255
224 237 255
224 237 255
224 237 255
224 237 255
224 237 255
224 237 255
224 237 255
224 237 255
224 237 255
224 237 255
224 237 255
224 237 255
224 237 255
224 237 255
224 237 255
224 237 255
224 237 255
224 237 255
224 237 255
224 237 255
224 237 255
224 237 255
224 237 255
224 237 255
224 237 255
224 237 255
224 237 255
224 237 255
224 237 255
224 237 255
224 237 255
224 237 255
224 237 255
224 237 255
224 237 255
224 237 255
224 237 255
224 237 255
224 237 255
224 237 255
224 237 255
224 237 255
224 237 255
224 237 255
224 237 255
224 237 255
224 237 255
224 237 255
224 237 255
224 237 255
224 237 255
224 237 255
224 237 255
224 237 255
224 237 255
224 237 255
224 237 255
224 237 255
224 237 255
224 237 255
224 237 255
224 237 255
224 237 255
224 237 255
224 237 255
224 237 255
224 237 255
224 237 255
224 237 255
224 237 255
224 237 255
224 237 255
224 237 255
224 237 255
224 237 255
224 237 255
224 237 255
224 237 255
224 237 255
224 237 255
224 237 255
224 237 255
224 237 255
224 237 255
224 237 255
224 237 255
224 237 255
224 237 255
224 237 255
224 237 255
224 237 255
224 237 255
224 237 255
224 237 255
224 237 255
224 237 255
224 237 255
224 237 255
224 237 255
224 237 255
224 237 255
224 237 255
224 237 255
224 237 255
224 237 255
224 237 255
224 237 255
224 237 255
224 237 255
224 237 255
224 237 255
224 237 255
224 237 255
224 237 255
224 237 255
224 237 255
224 237 255
224 237 255
224 237 255
224 237 255
224 237 255
224 237 255
224 237 255
224 237 255
224 237 255
224 237 255
224 237 255
224 237 255
224 237 255
224 237 255
224 237 255
224 237 255
224 237 255
224 237 255
224 237 255
224 237 255
224 237 255
224 237 255
224 237 255
224 237 255
224 237 255
224 237 255
224 237 255
224 237 255
224 237 255
224 237 255
224 237 255
224 237 255
224 237 255
224 237 255
224 237 255
224 237 255
224 237 255
224 237 255
224 237 255
224 237 255
224 237 255
224 237 255
224 237 255
224 237 255
153 162 178
0 0 42
0 0 42
0 0 42
0 0 42
0 0 42
0 0 42
0 0 42
0 0 42
0 0 42
0 0 42
0 0 42
0 0 42
0 0 42
0 0 42
0 0 42
0 0 42
0 0 42
0 0 42
0 0 42
0 0 42
0 0 42
0 0 42
0 0 42
0 0 42
0 0 42
0 0 42
0 0 42
0 0 42
0 0 42
0 0 42
0 0 42
0 0 42
0 0 42
0 0 42
0 0 42
0 0 42
0 0 42
0 0 42
0 0 42
0 0 42
0 0 42
0 0 42
0 0 42
0 0 42
0 0 42
0 0 42
0 0 42
0 0 42
0 0 42
0 0 42
0 0 42
0 0 42
0 0 42
0 0 42
0 0 42
0 0 42
0 0 42
0 0 42
0 0 42
0 0 42
0 0 42
0 0 42
0 0 42
0 0 42
0 0 42
0 0 42
0 0 42
0 0 42
0 0 42
0 0 42
0 0 42
0 0 42
0 0 42
0 0 42
0 0 42
0 0 42
0 0 42
0 0 42
0 0 42
0 0 42
0 0 42
0 0 42
0 0 42
0 0 42
0 0 42
0 0 42
0 0 42
0 0 42
0 0 42
0 0 42
0 0 42
0 0 42
0 0 42
0 0 42
0 0 42
0 0 42
0 0 42
0 0 42
0 0 42
0 0 42
0 0 42
0 0 42
0 0 42
0 0 42
0 0 42
0 0 42
0 0 42
0 0 42
0 0 42
0 0 42
0 0 42
0 0 42
0 0 42
0 0 42
0 0 42
0 0 42
0 0 42
0 0 42
0 0 42
0 0 41
0 0 42
0 0 43
0 0 44
0 0 45
0 0 44
0 0 45
0 0 46
0 0 48
0 0 48
0 0 55
0 0 60
0 0 53
0 0 56
7 14 79
80 67 81
154 129 109
161 138 112
155 128 112
149 120 104
159 127 99
172 136 107
155 130 94
163 132 94
134 113 79
50 51 21
43 58 18
58 65 29
62 64 29
66 71 32
57 64 26
52 61 19
50 61 18
52 63 22
51 63 20
43 58 17
40 54 11
50 64 22
47 61 17
48 60 16
64 74 30
69 77 29
65 74 24
71 81 33
70 79 33
58 69 25
52 66 24
52 66 25
54 66 20
57 67 23
59 67 24
50 59 26
51 62 27
21 35 42
12 17 49
0 0 48
0 0 44
0 0 46
0 0 42
0 0 40
0 0 42
0 0 42
0 0 42
0 0 42
0 0 42
0 0 42
0 0 42
0 0 42
0 0 42
0 0 42
0 0 42
0 0 42
0 0 42
145 153 169
224 237 255
224 237 255
224 237 255
224 237 255
224 237 255
224 237 255
224 237 255
224 237 255
224 237 255
224 237 255
224 237 255
224 237 255
224 237 255
224 237 255
224 237 255
224 237 255
224 237 255
224 237 255
224 237 255
224 237 255
224 237 255
224 237 255
224 237 255
224 237 255
224 237 255
224 237 255
224 237 255
224 237 255
224 237 255
224 237 255
224 237 255
224 237 255
224 237 255
224 237 255
224 237 255
224 237 255
224 237 255
224 237 255
224 237 255
224 237 255
224 237 255
224 237 255
224 237 255
224 237 255
224 237 255
224 237 255
224 237 255
224 237 255
224 237 255
224 237 255
224 237 255
224 237 255
224 237 255
224 237 255
224 237 255
224 237 255
224 237 255
224 237 255
224 237 255
224 237 255
224 237 255
224 237 255
224 237 255
224 237 255
224 237 255
224 237 255
224 237 255
224 237 255
224 237 255
224 237 255
224 237 255
224 237 255
224 237 255
224 237 255
224 237 255
224 237 255
224 237 255
224 237 255
224 237 255
224 237 255
224 237 255
224 237 255
224 237 255
224 237 255
224 237 255
224 237 255
224 237 255
224 237 255
224 237 255
224 237 255
224 237 255
224 237 255
224 237 255
224 237 255
224 237 255
224 237 255
224 237 255
224 237 255
224 237 255
224 237 255
224 237 255
224 237 255
224 237 255
224 237 255
224 237 255
224 237 255
224 237 255
224 237 255
224 237 255
224 237 255
224 237 255
224 237 255
224 237 255
224 237 255
224 237 255
224 237 255
224 237 255
224 237 255
224 237 255
224 237 255
224 237 255
224 237 255
224 237 255
224 237 255
224 237 255
224 237 255
224 237 255
224 237 255
224 237 255
224 237 255
224 237 255
224 237 255
224 237 255
224 237 255
224 237 255
224 237 255
224 237 255
224 237 255
224 237 255
224 237 255
224 237 255
224 237 255
224 237 255
224 237 255
224 237 255
224 237 255
224 237 255
224 237 255
224 237 255
224 237 255
224 237 255
224 237 255
224 237 255
224 237 255
224 237 255
224 237 255
224 237 255
224 237 255
224 237 255
224 237 255
224 237 255
224 237 255
224 237 255
224 237 255
224 237 255
224 237 255
224 237 255
224 237 255
224 237 255
224 237 255
224 237 255
224 237 255
224 237 255
224 237 255
224 237 255
224 237 255
224 237 255
224 237 255
224 237 255
224 237 255
224 237 255
224 237 255
224 237 255
224 237 255
224 237 255
224 237 255
224 237 255
224 237 255
224 237 255
224 237 255
224 237 255
224 237 255
224 237 255
224 237 255
224 237 255
224 237 255
224 237 255
224 237 255
224 237 255
224 237 255
224 237 255
224 237 255
224 237 255
224 237 255
224 237 255
224 237 255
212 225 243
50 53 70
0 0 42
0 0 42
0 0 42
0 0 42
0 0 42
0 0 42
0 0 42
0 0 42
0 0 42
0 0 42
0 0 42
0 0 42
0 0 42
0 0 42
0 0 42
0 0 42
0 0 42
0 0 42
0 0 42
0 0 42
0 0 42
0 0 42
0 0 42
0 0 42
0 0 42
0 0 42
0 0 42
0 0 42
0 0 42
0 0 42
0 0 42
0 0 42
0 0 42
0 0 42
0 0 42
0 0 42
0 0 42
0 0 42
0 0 42
0 0 42
0 0 42
0 0 42
0 0 42
0 0 42
0 0 42
0 0 42
0 0 42
0 0 42
0 0 42
0 0 42
0 0 42
0 0 42
0 0 42
0 0 42
0 0 42
0 0 42
0 0 42
0 0 42
0 0 42
0 0 42
0 0 42
0 0 42
0 0 42
0 0 42
0 0 42
0 0 42
0 0 42
0 0 42
0 0 42
0 0 42
0 0 42
0 0 42
0 0 42
0 0 42
0 0 42
0 0 42
0 0 42
0 0 42
0 0 42
0 0 42
0 0 42
0 0 42
0 0 42
0 0 42
0 0 42
0 0 42
0 0 42
0 0 42
0 0 42
0 0 42
0 0 42
0 0 42
0 0 42
0 0 42
0 0 42
0 0 42
0 0 42
0 0 42
0 0 42
0 0 42
0 0 42
0 0 42
0 0 42
0 0 42
0 0 42
0 0 42
0 0 42
0 0 42
0 0 42
0 0 42
0 0 42
0 0 42
0 0 42
0 0 42
0 0 42
0 0 42
0 0 42
0 0 42
0 0 42
0 0 42
0 0 44
0 0 45
0 0 45
0 0 44
0 0 45
0 0 46
0 0 48
0 0 48
0 0 52
0 0 59
0 0 52
0 0 70
30 38 88
120 108 103
166 138 112
152 125 98
155 127 107
162 135 117
161 129 106
169 139 111
162 134 102
172 142 106
110 96 62
41 49 13
60 69 32
64 66 31
64 65 32
62 65 28
57 66 24
49 61 18
50 63 21
59 73 32
50 63 22
50 64 20
43 58 11
46 61 17
46 60 13
45 58 11
62 72 27
64 74 28
71 81 32
69 80 33
55 67 22
52 68 22
45 59 16
44 59 19
49 60 16
44 55 12
35 49 7
18 36 36
5 13 56
0 0 58
0 0 45
0 0 46
0 0 43
0 0 44
0 0 39
0 0 41
0 0 42
0 0 42
0 0 42
0 0 42
0 0 42
0 0 42
0 0 42
0 0 42
0 0 42
0 0 42
0 0 42
0 0 42
54 58 74
216 229 247
224 237 255
224 237 255
224 237 255
224 237 255
224 237 255
224 237 255
224 237 255
224 237 255
224 237 255
224 237 255
224 237 255
224 237 255
224 237 255
224 237 255
224 237 255
224 237 255
224 237 255
224 237 255
224 237 255
224 237 255
224 237 255
224 237 255
224 237 255
224 237 255
224 237 255
224 237 255
224 237 255
224 237 255
224 237 255
224 237 255
224 237 255
224 237 255
224 237 255
224 237 255
224 237 255
224 237 255
224 237 255
224 237 255
224 237 255
224 237 255
224 237 255
224 237 255
224 237 255
224 237 255
224 237 255
224 237 255
224 237 255
224 237 255
224 237 255
224 237 255
224 237 255
224 237 255
224 237 255
224 237 255
224 237 255
224 237 255
224 237 255
224 237 255
224 237 255
224 237 255
224 237 255
224 237 255
224 237 255
224 237 255
224 237 255
224 237 255
224 237 255
224 237 255
224 237 255
224 237 255
224 237 255
224 237 255
224 237 255
224 237 255
224 237 255
224 237 255
224 237 255
224 237 255
224 237 255
224 237 255
224 237 255
224 237 255
224 237 255
224 237 255
224 237 255
224 237 255
224 237 255
224 237 255
224 237 255
224 237 255
224 237 255
224 237 255
224 237 255
224 237 255
224 237 255
224 237 255
224 237 255
224 237 255
224 237 255
224 237 255
224 237 255
224 237 255
224 237 255
224 237 255
224 237 255
224 237 255
224 237 255
224 237 255
224 237 255
224 237 255
224 237 255
224 237 255
224 237 255
224 237 255
224 237 255
224 237 255
224 237 255
224 237 255
224 237 255
224 237 255
224 237 255
224 237 255
224 237 255
224 237 255
224 237 255
224 237 255
224 237 255
224 237 255
224 237 255
224 237 255
224 237 255
224 237 255
224 237 255
224 237 255
224 237 255
224 237 255
224 237 255
224 237 255
224 237 255
224 237 255
224 237 255
224 237 255
224 237 255
224 237 255
224 237 255
224 237 255
224 237 255
224 237 255
224 237 255
224 237 255
224 237 255
224 237 255
224 237 255
224 237 255
224 237 255
224 237 255
224 237 255
224 237 255
224 237 255
224 237 255
224 237 255
224 237 255
224 237 255
224 237 255
224 237 255
224 237 255
224 237 255
224 237 255
224 237 255
224 237 255
224 237 255
224 237 255
224 237 255
224 237 255
224 237 255
224 237 255
224 237 255
224 237 255
224 237 255
224 237 255
224 237 255
224 237 255
224 237 255
224 237 255
224 237 255
224 237 255
224 237 255
224 237 255
224 237 255
224 237 255
224 237 255
224 237 255
224 237 255
224 237 255
224 237 255
224 237 255
224 237 255
224 237 255
224 237 255
224 237 255
224 237 255
224 237 255
224 237 255
224 237 255
224 237 255
224 237 255
224 237 255
152 161 176
0 0 42
0 0 42
0 0 42
0 0 42
0 0 42
0 0 42
0 0 42
0 0 42
0 0 42
0 0 42
0 0 42
0 0 42
0 0 42
0 0 42
0 0 42
0 0 42
0 0 42
0 0 42
0 0 42
0 0 42
0 0 42
0 0 42
0 0 42
0 0 42
0 0 42
0 0 42
0 0 42
0 0 42
0 0 42
0 0 42
0 0 42
0 0 42
0 0 42
0 0 42
0 0 42
0 0 42
0 0 42
0 0 42
0 0 42
0 0 42
0 0 42
0 0 42
0 0 42
0 0 42
0 0 42
0 0 42
0 0 42
0 0 42
0 0 42
0 0 42
0 0 42
0 0 42
0 0 42
0 0 42
0 0 42
0 0 42
0 0 42
0 0 42
0 0 42
0 0 42
0 0 42
0 0 42
0 0 42
0 0 42
0 0 42
0 0 42
0 0 42
0 0 42
0 0 42
0 0 42
0 0 42
0 0 42
0 0 42
0 0 42
0 0 42
0 0 42
0 0 42
0 0 42
0 0 42
0 0 42
0 0 42
0 0 42
0 0 42
0 0 42
0 0 42
0 0 42
0 0 42
0 0 42
0 0 42
0 0 42
0 0 42
0 0 42
0 0 42
0 0 42
0 0 42
0 0 42
0 0 42
0 0 42
0 0 42
0 0 42
0 0 42
0 0 42
0 0 42
0 0 42
0 0 42
0 0 42
0 0 42
0 0 42
0 0 42
0 0 42
0 0 42
0 0 42
0 0 42
0 0 42
0 0 42
0 0 42
0 0 42
0 0 42
0 0 42
0 0 42
0 0 45
0 0 45
0 0 45
0 0 45
0 0 45
0 0 48
0 0 48
0 0 49
0 0 53
0 0 53
0 0 58
0 0 52
41 43 74
154 130 108
171 139 110
157 124 98
164 135 107
151 126 107
155 123 102
160 131 104
159 130 99
144 120 91
51 50 17
41 52 14
51 59 22
62 68 34
63 69 34
56 63 27
44 58 16
43 56 13
43 56 12
51 65 26
42 59 14
40 58 12
43 62 16
45 62 17
43 61 13
39 57 7
48 63 19
54 68 23
58 71 25
55 68 23
50 65 19
50 64 20
41 55 12
45 58 20
29 45 1
28 47 7
15 38 50
3 11 57
0 0 49
0 0 43
0 0 45
0 0 41
0 0 41
0 0 41
0 0 43
0 0 41
0 0 42
0 0 42
0 0 42
0 0 42
0 0 42
0 0 42
0 0 42
0 0 42
0 0 42
0 0 42
0 0 42
0 0 42
150 159 174
224 237 255
224 237 255
224 237 255
224 237 255
224 237 255
224 237 255
224 237 255
224 237 255
224 237 255
224 237 255
224 237 255
224 237 255
224 237 255
224 237 255
224 237 255
224 237 255
224 237 255
224 237 255
224 237 255
224 237 255
224 237 255
224 237 255
224 237 255
224 237 255
224 237 255
224 237 255
224 237 255
224 237 255
224 237 255
224 237 255
224 237 255
224 237 255
224 237 255
224 237 255
224 237 255
224 237 255
224 237 255
224 237 255
224 237 255
224 237 255
224 237 255
224 237 255
224 237 255
224 237 255
224 237 255
224 237 255
224 237 255
224 237 255
224 237 255
224 237 255
224 237 255
224 237 255
224 237 255
224 237 255
224 237 255
224 237 255
224 237 255
224 237 255
224 237 255
224 237 255
224 237 255
224 237 255
224 237 255
224 237 255
224 237 255
224 237 255
224 237 255
224 237 255
224 237 255
224 237 255
224 237 255
224 237 255
224 237 255
224 237 255
224 237 255
224 237 255
224 237 255
224 237 255
224 237 255
224 237 255
224 237 255
224 237 255
224 237 255
224 237 255
224 237 255
224 237 255
224 237 255
224 237 255
224 237 255
224 237 255
224 237 255
224 237 255
224 237 255
224 237 255
224 237 255
224 237 255
224 237 255
224 237 255
224 237 255
224 237 255
224 237 255
224 237 255
224 237 255
224 237 255
224 237 255
224 237 255
224 237 255
224 237 255
224 237 255
224 237 255
224 237 255
224 237 255
224 237 255
224 237 255
224 237 255
224 237 255
224 237 255
224 237 255
224 237 255
224 237 255
224 237 255
224 237 255
224 237 255
224 237 255
224 237 255
224 237 255
224 237 255
224 237 255
224 237 255
224 237 255
224 237 255
224 237 255
224 237 255
224 237 255
224 237 255
224 237 255
224 237 255
224 237 255
224 237 255
224 237 255
224 237 255
224 237 255
224 237 255
224 237 255
224 237 255
224 237 255
224 237 255
224 237 255
224 237 255
224 237 255
224 237 255
224 237 255
224 237 255
224 237 255
224 237 255
224 237 255
224 237 255
224 237 255
224 237 255
224 237 255
224 237 255
224 237 255
224 237 255
224 237 255
224 237 255
224 237 255
224 237 255
224 237 255
224 237 255
224 237 255
224 237 255
224 237 255
224 237 255
224 237 255
224 237 255
224 237 255
224 237 255
224 237 255
224 237 255
224 237 255
224 237 255
224 237 255
224 237 255
224 237 255
224 237 255
224 237 255
224 237 255
224 237 255
224 237 255
224 237 255
224 237 255
224 237 255
224 237 255
224 237 255
224 237 255
224 237 255
224 237 255
224 237 255
224 237 255
224 237 255
224 237 255
224 237 255
224 237 255
224 237 255
224 237 255
224 237 255
224 237 255
224 237 255
217 230 248
55 58 74
0 0 42
0 0 42
0 0 42
0 0 42
0 0 42
0 0 42
0 0 42
0 0 42
0 0 42
0 0 42
0 0 42
0 0 42
0 0 42
0 0 42
0 0 42
0 0 42
0 0 42
0 0 42
0 0 42
0 0 42
0 0 42
0 0 42
0 0 42
0 0 42
0 0 42
0 0 42
0 0 42
0 0 42
0 0 42
0 0 42
0 0 42
0 0 42
0 0 42
0 0 42
0 0 42
0 0 42
0 0 42
0 0 42
0 0 42
0 0 42
0 0 42
0 0 42
0 0 42
0 0 42
0 0 42
0 0 42
0 0 42
0 0 42
0 0 42
0 0 42
0 0 42
0 0 42
0 0 42
0 0 42
0 0 42
0 0 42
0 0 42
0 0 42
0 0 42
0 0 42
0 0 42
0 0 42
0 0 42
0 0 42
0 0 42
0 0 42
0 0 42
0 0 42
0 0 42
0 0 42
0 0 42
0 0 42
0 0 42
0 0 42
0 0 42
0 0 42
0 0 42
0 0 42
0 0 42
0 0 42
0 0 42
0 0 42
0 0 42
0 0 42
0 0 42
0 0 42
0 0 42
0 0 42
0 0 42
0 0 42
0 0 42
0 0 42
0 0 42
0 0 42
0 0 42
0 0 42
0 0 42
0 0 42
0 0 42
0 0 42
0 0 42
0 0 42
0 0 42
0 0 42
0 0 42
0 0 42
0 0 42
0 0 42
0 0 42
0 0 42
0 0 42
0 0 42
0 0 42
0 0 42
0 0 42
0 0 42
0 0 42
0 0 42
0 0 42
0 0 45
0 0 45
0 0 45
0 0 45
0 0 46
0 0 48
0 0 50
0 0 51
0 0 51
0 0 57
0 0 55
0 0 57
49 47 68
169 139 113
181 147 118
162 129 103
151 121 96
148 122 104
164 132 112
159 131 102
132 106 76
91 80 52
50 58 23
40 52 17
51 61 21
48 57 15
49 59 20
50 60 21
48 59 19
42 55 15
39 54 11
39 55 10
40 59 14
39 57 10
43 61 16
44 62 15
43 60 12
43 60 13
47 62 22
48 63 20
51 65 22
49 63 18
47 62 15
44 55 8
48 59 20
39 52 12
22 45 17
13 33 49
0 3 51
0 0 49
0 0 43
0 0 45
0 0 41
0 0 42
0 0 42
0 0 42
0 0 42
0 0 42
0 0 42
0 0 42
0 0 42
0 0 42
0 0 42
0 0 42
0 0 42
0 0 42
0 0 42
0 0 42
0 0 42
55 58 74
213 225 243
224 237 255
224 237 255
224 237 255
224 237 255
224 237 255
224 237 255
224 237 255
224 237 255
224 237 255
224 237 255
224 237 255
224 237 255
224 237 255
224 237 255
224 237 255
224 237 255
224 237 255
224 237 255
224 237 255
224 237 255
224 237 255
224 237 255
224 237 255
224 237 255
224 237 255
224 237 255
224 237 255
224 237 255
224 237 255
224 237 255
224 237 255
224 237 255
224 237 255
224 237 255
224 237 255
224 237 255
224 237 255
224 237 255
224 237 255
224 237 255
224 237 255
224 237 255
224 237 255
224 237 255
224 237 255
224 237 255
224 237 255
224 237 255
224 237 255
224 237 255
224 237 255
224 237 255
224 237 255
224 237 255
224 237 255
224 237 255
224 237 255
224 237 255
224 237 255
224 237 255
224 237 255
224 237 255
224 237 255
224 237 255
224 237 255
224 237 255
224 237 255
224 237 255
224 237 255
224 237 255
224 237 255
224 237 255
224 237 255
224 237 255
224 237 255
224 237 255
224 237 255
224 237 255
224 237 255
224 237 255
224 237 255
224 237 255
224 237 255
224 237 255
224 237 255
224 237 255
224 237 255
224 237 255
224 237 255
224 237 255
224 237 255
224 237 255
224 237 255
224 237 255
224 237 255
224 237 255
224 237 255
224 237 255
224 237 255
224 237 255
224 237 255
224 237 255
224 237 255
224 237 255
224 237 255
224 237 255
224 237 255
224 237 255
224 237 255
224 237 255
224 237 255
224 237 255
224 237 255
224 237 255
224 237 255
224 237 255
224 237 255
224 237 255
224 237 255
224 237 255
224 237 255
224 237 255
224 237 255
224 237 255
224 237 255
224 237 255
224 237 255
224 237 255
224 237 255
224 237 255
224 237 255
224 237 255
224 237 255
224 237 255
224 237 255
224 237 255
224 237 255
224 237 255
224 237 255
224 237 255
224 237 255
224 237 255
224 237 255
224 237 255
224 237 255
224 237 255
224 237 255
224 237 255
224 237 255
224 237 255
224 237 255
224 237 255
224 237 255
224 237 255
224 237 255
224 237 255
224 237 255
224 237 255
224 237 255
224 237 255
224 237 255
224 237 255
224 237 255
224 237 255
224 237 255
224 237 255
224 237 255
224 237 255
224 237 255
224 237 255
224 237 255
224 237 255
224 237 255
224 237 255
224 237 255
224 237 255
224 237 255
224 237 255
224 237 255
224 237 255
224 237 255
224 237 255
224 237 255
224 237 255
224 237 255
224 237 255
224 237 255
224 237 255
224 237 255
224 237 255
224 237 255
224 237 255
224 237 255
224 237 255
224 237 255
224 237 255
224 237 255
224 237 255
224 237 255
224 237 255
224 237 255
224 237 255
224 237 255
224 237 255
224 237 255
224 237 255
224 237 255
224 237 255
224 237 255
176 187 203
0 0 42
0 0 42
0 0 42
0 0 42
0 0 42
0 0 42
0 0 42
0 0 42
0 0 42
0 0 42
0 0 42
0 0 42
0 0 42
0 0 42
0 0 42
0 0 42
0 0 42
0 0 42
0 0 42
0 0 42
0 0 42
0 0 42
0 0 42
0 0 42
0 0 42
0 0 42
0 0 42
0 0 42
0 0 42
0 0 42
0 0 42
0 0 42
0 0 42
0 0 42
0 0 42
0 0 42
0 0 42
0 0 42
0 0 42
0 0 42
0 0 42
0 0 42
0 0 42
0 0 42
0 0 42
0 0 42
0 0 42
0 0 42
0 0 42
0 0 42
0 0 42
0 0 42
0 0 42
0 0 42
0 0 42
0 0 42
0 0 42
0 0 42
0 0 42
0 0 42
0 0 42
0 0 42
0 0 42
0 0 42
0 0 42
0 0 42
0 0 42
0 0 42
0 0 42
0 0 42
0 0 42
0 0 42
0 0 42
0 0 42
0 0 42
0 0 42
0 0 42
0 0 42
0 0 42
0 0 42
0 0 42
0 0 42
0 0 42
0 0 42
0 0 42
0 0 42
0 0 42
0 0 42
0 0 42
0 0 42
0 0 42
0 0 42
0 0 42
0 0 42
0 0 42
0 0 42
0 0 42
0 0 42
0 0 42
0 0 42
0 0 42
0 0 42
0 0 42
0 0 42
0 0 42
0 0 42
0 0 42
0 0 42
0 0 42
0 0 42
0 0 42
0 0 42
0 0 42
0 0 42
0 0 42
0 0 42
0 0 42
0 0 42
0 0 42
0 0 45
0 0 45
0 0 45
0 0 43
0 0 46
0 0 50
0 0 51
0 0 51
0 0 56
0 0 60
0 0 59
0 0 70
72 68 81
152 120 97
166 133 99
152 120 96
137 107 89
161 135 112
163 130 108
154 127 97
105 91 64
60 60 33
42 52 15
58 68 29
54 62 23
49 57 16
48 57 16
45 53 16
49 58 18
44 57 14
40 56 14
36 52 8
39 55 13
49 63 20
52 66 22
50 62 17
51 64 19
44 58 16
44 58 17
42 57 15
48 62 20
47 60 19
45 58 19
39 51 11
47 53 18
40 54 18
14 43 43
1 6 56
0 0 48
0 0 45
0 0 45
0 0 44
0 0 42
0 0 42
0 0 42
0 0 42
0 0 42
0 0 42
0 0 42
0 0 42
0 0 42
0 0 42
0 0 42
0 0 42
0 0 42
0 0 42
0 0 42
0 0 42
0 0 42
157 166 181
224 237 255
224 237 255
224 237 255
224 237 255
224 237 255
224 237 255
224 237 255
224 237 255
224 237 255
224 237 255
224 237 255
224 237 255
224 237 255
224 237 255
224 237 255
224 237 255
224 237 255
224 237 255
224 237 255
224 237 255
224 237 255
224 237 255
224 237 255
224 237 255
224 237 255
224 237 255
224 237 255
224 237 255
224 237 255
224 237 255
224 237 255
224 237 255
224 237 255
224 237 255
224 237 255
224 237 255
224 237 255
224 237 255
224 237 255
224 237 255
224 237 255
224 237 255
224 237 255
224 237 255
224 237 255
224 237 255
224 237 255
224 237 255
224 237 255
224 237 255
224 237 255
224 237 255
224 237 255
224 237 255
224 237 255
224 237 255
224 237 255
224 237 255
224 237 255
224 237 255
224 237 255
224 237 255
224 237 255
224 237 255
224 237 255
224 237 255
224 237 255
224 237 255
224 237 255
224 237 255
224 237 255
224 237 255
224 237 255
224 237 255
224 237 255
224 237 255
224 237 255
224 237 255
224 237 255
224 237 255
224 237 255
224 237 255
224 237 255
224 237 255
224 237 255
224 237 255
224 237 255
224 237 255
224 237 255
224 237 255
224 237 255
224 237 255
224 237 255
224 237 255
224 237 255
224 237 255
224 237 255
224 237 255
224 237 255
224 237 255
224 237 255
224 237 255
224 237 255
224 237 255
224 237 255
224 237 255
224 237 255
224 237 255
224 237 255
224 237 255
224 237 255
224 237 255
224 237 255
224 237 255
224 237 255
224 237 255
224 237 255
224 237 255
224 237 255
224 237 255
224 237 255
224 237 255
224 237 255
224 237 255
224 237 255
224 237 255
224 237 255
224 237 255
224 237 255
224 237 255
224 237 255
224 237 255
224 237 255
224 237 255
224 237 255
224 237 255
224 237 255
224 237 255
224 237 255
224 237 255
224 237 255
224 237 255
224 237 255
224 237 255
224 237 255
224 237 255
224 237 255
224 237 255
224 237 255
224 237 255
224 237 255
224 237 255
224 237 255
224 237 255
224 237 255
224 237 255
224 237 255
224 237 255
224 237 255
224 237 255
224 237 255
224 237 255
224 237 255
224 237 255
224 237 255
224 237 255
224 237 255
224 237 255
224 237 255
224 237 255
224 237 255
224 237 255
224 237 255
224 237 255
224 237 255
224 237 255
224 237 255
224 237 255
224 237 255
224 237 255
224 237 255
224 237 255
224 237 255
224 237 255
224 237 255
224 237 255
224 237 255
224 237 255
224 237 255
224 237 255
224 237 255
224 237 255
224 237 255
224 237 255
224 237 255
224 237 255
224 237 255
224 237 255
224 237 255
224 237 255
224 237 255
224 237 255
224 237 255
224 237 255
224 237 255
224 237 255
224 237 255
224 237 255
224 237 255
224 237 255
217 230 248
77 82 97
0 0 42
0 0 42
0 0 42
0 0 42
0 0 42
0 0 42
0 0 42
0 0 42
0 0 42
0 0 42
0 0 42
0 0 42
0 0 42
0 0 42
0 0 42
0 0 42
0 0 42
0 0 42
0 0 42
0 0 42
0 0 42
0 0 42
0 0 42
0 0 42
0 0 42
0 0 42
0 0 42
0 0 42
0 0 42
0 0 42
0 0 42
0 0 42
0 0 42
0 0 42
0 0 42
0 0 42
0 0 42
0 0 42
0 0 42
0 0 42
0 0 42
0 0 42
0 0 42
0 0 42
0 0 42
0 0 42
0 0 42
0 0 42
0 0 42
0 0 42
0 0 42
0 0 42
0 0 42
0 0 42
0 0 42
0 0 42
0 0 42
0 0 42
0 0 42
0 0 42
0 0 42
0 0 42
0 0 42
0 0 42
0 0 42
0 0 42
0 0 42
0 0 42
0 0 42
0 0 42
0 0 42
0 0 42
0 0 42
0 0 42
0 0 42
0 0 42
0 0 42
0 0 42
0 0 42
0 0 42
0 0 42
0 0 42
0 0 42
0 0 42
0 0 42
0 0 42
0 0 42
0 0 42
0 0 42
0 0 42
0 0 42
0 0 42
0 0 42
0 0 42
0 0 42
0 0 42
0 0 42
0 0 42
0 0 42
0 0 42
0 0 42
0 0 42
0 0 42
0 0 42
0 0 42
0 0 42
0 0 42
0 0 42
0 0 42
0 0 42
0 0 42
0 0 42
0 0 42
0 0 42
0 0 42
0 0 42
0 0 42
0 0 43
0 0 45
0 0 45
0 0 45
0 0 43
0 0 47
0 0 51
0 0 53
0 0 54
0 0 60
0 0 60
0 0 61
0 0 58
83 63 74
143 109 83
153 118 85
142 115 88
130 104 84
144 118 95
168 140 114
133 110 78
104 88 63
54 56 25
52 60 24
55 64 24
53 63 23
49 59 17
48 55 16
42 53 13
51 59 22
50 61 24
41 55 15
47 62 22
42 56 16
48 62 19
52 63 23
51 60 18
47 60 17
48 62 20
34 48 9
45 58 16
53 65 26
45 56 14
34 45 5
43 52 14
38 47 13
30 46 24
6 17 61
0 0 51
0 0 45
0 0 45
0 0 45
0 0 45
0 0 45
0 0 42
0 0 42
0 0 42
0 0 42
0 0 42
0 0 42
0 0 42
0 0 42
0 0 42
0 0 42
0 0 42
0 0 42
0 0 42
0 0 42
0 0 42
84 88 103
221 234 252
224 237 255
224 237 255
224 237 255
224 237 255
224 237 255
224 237 255
224 237 255
224 237 255
224 237 255
224 237 255
224 237 255
224 237 255
224 237 255
224 237 255
224 237 255
224 237 255
224 237 255
224 237 255
224 237 255
224 237 255
224 237 255
224 237 255
224 237 255
224 237 255
224 237 255
224 237 255
224 237 255
224 237 255
224 237 255
224 237 255
224 237 255
224 237 255
224 237 255
224 237 255
224 237 255
224 237 255
224 237 255
224 237 255
224 237 255
224 237 255
224 237 255
224 237 255
224 237 255
224 237 255
224 237 255
224 237 255
224 237 255
224 237 255
224 237 255
224 237 255
224 237 255
224 237 255
224 237 255
224 237 255
224 237 255
224 237 255
224 237 255
224 237 255
224 237 255
224 237 255
224 237 255
224 237 255
224 237 255
224 237 255
224 237 255
224 237 255
224 237 255
224 237 255
224 237 255
224 237 255
224 237 255
224 237 255
224 237 255
224 237 255
224 237 255
224 237 255
224 237 255
224 237 255
224 237 255
224 237 255
224 237 255
224 237 255
224 237 255
224 237 255
224 237 255
224 237 255
224 237 255
224 237 255
224 237 255
224 237 255
224 237 255
224 237 255
224 237 255
224 237 255
224 237 255
224 237 255
224 237 255
224 237 255
224 237 255
224 237 255
224 237 255
224 237 255
224 237 255
224 237 255
224 237 255
224 237 255
224 237 255
224 237 255
224 237 255
224 237 255
224 237 255
224 237 255
224 237 255
224 237 255
224 237 255
224 237 255
224 237 255
224 237 255
224 237 255
224 237 255
224 237 255
224 237 255
224 237 255
224 237 255
224 237 255
224 237 255
224 237 255
224 237 255
224 237 255
224 237 255
224 237 255
224 237 255
224 237 255
224 237 255
224 237 255
224 237 255
224 237 255
224 237 255
224 237 255
224 237 255
224 237 255
224 237 255
224 237 255
224 237 255
224 237 255
224 237 255
224 237 255
224 237 255
224 237 255
224 237 255
224 237 255
224 237 255
224 237 255
224 237 255
224 237 255
224 237 255
224 237 255
224 237 255
224 237 255
224 237 255
224 237 255
224 237 255
224 237 255
224 237 255
224 237 255
224 237 255
224 237 255
224 237 255
224 237 255
224 237 255
224 237 255
224 237 255
224 237 255
224 237 255
224 237 255
224 237 255
224 237 255
224 237 255
224 237 255
224 237 255
224 237 255
224 237 255
224 237 255
224 237 255
224 237 255
224 237 255
224 237 255
224 237 255
224 237 255
224 237 255
224 237 255
224 237 255
224 237 255
224 237 255
224 237 255
224 237 255
224 237 255
224 237 255
224 237 255
224 237 255
224 237 255
224 237 255
224 237 255
224 237 255
224 237 255
224 237 255
224 237 255
224 237 255
224 237 255
224 237 255
224 237 255
172 182 198
0 0 42
0 0 42
0 0 42
0 0 42
0 0 42
0 0 42
0 0 42
0 0 42
0 0 42
0 0 42
0 0 42
0 0 42
0 0 42
0 0 42
0 0 42
0 0 42
0 0 42
0 0 42
0 0 42
0 0 42
0 0 42
0 0 42
0 0 42
0 0 42
0 0 42
0 0 42
0 0 42
0 0 42
0 0 42
0 0 42
0 0 42
0 0 42
0 0 42
0 0 42
0 0 42
0 0 42
0 0 42
0 0 42
0 0 42
0 0 42
0 0 42
0 0 42
0 0 42
0 0 42
0 0 42
0 0 42
0 0 42
0 0 42
0 0 42
0 0 42
0 0 42
0 0 42
0 0 42
0 0 42
0 0 42
0 0 42
0 0 42
0 0 42
0 0 42
0 0 42
0 0 42
0 0 42
0 0 42
0 0 42
0 0 42
0 0 42
0 0 42
0 0 42
0 0 42
0 0 42
0 0 42
0 0 42
0 0 42
0 0 42
0 0 42
0 0 42
0 0 42
0 0 42
0 0 42
0 0 42
0 0 42
0 0 42
0 0 42
0 0 42
0 0 42
0 0 42
0 0 42
0 0 42
0 0 42
0 0 42
0 0 42
0 0 42
0 0 42
0 0 42
0 0 42
0 0 42
0 0 42
0 0 42
0 0 42
0 0 42
0 0 42
0 0 42
0 0 42
0 0 42
0 0 42
0 0 42
0 0 42
0 0 42
0 0 42
0 0 42
0 0 42
0 0 42
0 0 42
0 0 42
0 0 42
0 0 42
0 0 42
0 0 44
0 0 45
0 0 47
0 0 45
0 0 47
0 0 48
0 0 52
0 0 53
0 0 53
0 0 55
0 0 55
0 0 64
46 40 71
127 100 84
127 99 68
138 106 76
126 105 81
138 113 96
140 115 95
163 132 106
135 111 81
97 82 55
56 58 25
55 65 27
55 65 27
49 60 19
51 61 21
51 60 23
45 54 18
51 57 22
52 62 26
52 64 25
55 68 29
48 61 21
46 58 19
54 64 25
49 60 19
46 60 18
42 56 15
31 46 5
50 61 22
52 62 24
43 52 16
37 46 4
37 49 7
28 45 3
24 41 47
0 5 60
0 0 48
0 0 45
0 0 44
0 0 44
0 0 45
0 0 44
0 0 42
0 0 42
0 0 42
0 0 42
0 0 42
0 0 42
0 0 42
0 0 42
0 0 42
0 0 42
0 0 42
0 0 42
0 0 42
0 0 42
0 0 42
182 193 209
224 237 255
224 237 255
224 237 255
224 237 255
224 237 255
224 237 255
224 237 255
224 237 255
224 237 255
224 237 255
224 237 255
224 237 255
224 237 255
224 237 255
224 237 255
224 237 255
224 237 255
224 237 255
224 237 255
224 237 255
224 237 255
224 237 255
224 237 255
224 237 255
224 237 255
224 237 255
224 237 255
224 237 255
224 237 255
224 237 255
224 237 255
224 237 255
224 237 255
224 237 255
224 237 255
224 237 255
224 237 255
224 237 255
224 237 255
224 237 255
224 237 255
224 237 255
224 237 255
224 237 255
224 237 255
224 237 255
224 237 255
224 237 255
224 237 255
224 237 255
224 237 255
224 237 255
224 237 255
224 237 255
224 237 255
224 237 255
224 237 255
224 237 255
224 237 255
224 237 255
224 237 255
224 237 255
224 237 255
224 237 255
224 237 255
224 237 255
224 237 255
224 237 255
224 237 255
224 237 255
224 237 255
224 237 255
224 237 255
224 237 255
224 237 255
224 237 255
224 237 255
224 237 255
224 237 255
224 237 255
224 237 255
224 237 255
224 237 255
224 237 255
224 237 255
224 237 255
224 237 255
224 237 255
224 237 255
224 237 255
224 237 255
224 237 255
224 237 255
224 237 255
224 237 255
224 237 255
224 237 255
224 237 255
224 237 255
224 237 255
224 237 255
224 237 255
224 237 255
224 237 255
224 237 255
224 237 255
224 237 255
224 237 255
224 237 255
224 237 255
224 237 255
224 237 255
224 237 255
224 237 255
224 237 255
224 237 255
224 237 255
224 237 255
224 237 255
224 237 255
224 237 255
224 237 255
224 237 255
224 237 255
224 237 255
224 237 255
224 237 255
224 237 255
224 237 255
224 237 255
224 237 255
224 237 255
224 237 255
224 237 255
224 237 255
224 237 255
224 237 255
224 237 255
224 237 255
224 237 255
224 237 255
224 237 255
224 237 255
224 237 255
224 237 255
224 237 255
224 237 255
224 237 255
224 237 255
224 237 255
224 237 255
224 237 255
224 237 255
224 237 255
224 237 255
224 237 255
224 237 255
224 237 255
224 237 255
224 237 255
224 237 255
224 237 255
224 237 255
224 237 255
224 237 255
224 237 255
224 237 255
224 237 255
224 237 255
224 237 255
224 237 255
224 237 255
224 237 255
224 237 255
224 237 255
224 237 255
224 237 255
224 237 255
224 237 255
224 237 255
224 237 255
224 237 255
224 237 255
224 237 255
224 237 255
224 237 255
224 237 255
224 237 255
224 237 255
224 237 255
224 237 255
224 237 255
224 237 255
224 237 255
224 237 255
224 237 255
224 237 255
224 237 255
224 237 255
224 237 255
224 237 255
224 237 255
224 237 255
224 237 255
224 237 255
224 237 255
224 237 255
224 237 255
224 237 255
224 237 255
224 237 255
224 237 255
224 237 255
118 125 140
0 0 42
0 0 42
0 0 42
0 0 42
0 0 42
0 0 42
0 0 42
0 0 42
0 0 42
0 0 42
0 0 42
0 0 42
0 0 42
0 0 42
0 0 42
0 0 42
0 0 42
0 0 42
0 0 42
0 0 42
0 0 42
0 0 42
0 0 42
0 0 42
0 0 42
0 0 42
0 0 42
0 0 42
0 0 42
0 0 42
0 0 42
0 0 42
0 0 42
0 0 42
0 0 42
0 0 42
0 0 42
0 0 42
0 0 42
0 0 42
0 0 42
0 0 42
0 0 42
0 0 42
0 0 42
0 0 42
0 0 42
0 0 42
0 0 42
0 0 42
0 0 42
0 0 42
0 0 42
0 0 42
0 0 42
0 0 42
0 0 40
0 0 42
0 0 42
0 0 42
0 0 42
0 0 42
0 0 42
0 0 42
0 0 42
0 0 42
0 0 42
0 0 42
0 0 42
0 0 42
0 0 42
0 0 42
0 0 42
0 0 42
0 0 42
0 0 42
0 0 42
0 0 42
0 0 42
0 0 42
0 0 42
0 0 42
0 0 42
0 0 42
0 0 42
0 0 42
0 0 42
0 0 42
0 0 42
0 0 42
0 0 42
0 0 42
0 0 42
0 0 42
0 0 42
0 0 42
0 0 42
0 0 42
0 0 42
0 0 42
0 0 42
0 0 42
0 0 42
0 0 42
0 0 42
0 0 42
0 0 42
0 0 42
0 0 42
0 0 42
0 0 42
0 0 42
0 0 42
0 0 41
0 0 41
0 0 43
0 0 45
0 0 47
0 0 48
0 0 48
0 0 48
0 0 50
0 0 49
0 0 50
0 0 52
0 0 54
0 0 59
0 0 67
62 54 63
134 109 79
137 114 84
156 128 106
137 118 99
143 120 104
164 142 121
160 131 104
127 111 79
82 76 46
55 64 26
61 70 32
50 59 22
50 62 21
50 60 21
54 64 28
57 63 29
62 70 34
56 67 29
51 61 22
50 61 23
47 57 19
46 55 18
53 63 27
50 64 22
41 55 12
36 50 7
38 52 10
48 58 20
48 57 18
46 54 16
42 51 12
35 49 9
32 51 16
16 36 58
0 0 49
0 0 43
0 0 45
0 0 43
0 0 43
0 0 45
0 0 43
0 0 42
0 0 42
0 0 42
0 0 42
0 0 42
0 0 42
0 0 42
0 0 42
0 0 42
0 0 42
0 0 42
0 0 42
0 0 42
0 0 42
107 114 128
224 237 255
224 237 255
224 237 255
224 237 255
224 237 255
224 237 255
224 237 255
224 237 255
224 237 255
224 237 255
224 237 255
224 237 255
224 237 255
224 237 255
224 237 255
224 237 255
224 237 255
224 237 255
224 237 255
224 237 255
224 237 255
224 237 255
224 237 255
224 237 255
224 237 255
224 237 255
224 237 255
224 237 255
224 237 255
224 237 255
224 237 255
224 237 255
224 237 255
224 237 255
224 237 255
224 237 255
224 237 255
224 237 255
224 237 255
224 237 255
224 237 255
224 237 255
224 237 255
224 237 255
224 237 255
224 237 255
224 237 255
224 237 255
224 237 255
224 237 255
224 237 255
224 237 255
224 237 255
224 237 255
224 237 255
224 237 255
224 237 255
224 237 255
224 237 255
224 237 255
224 237 255
224 237 255
224 237 255
224 237 255
224 237 255
224 237 255
224 237 255
224 237 255
224 237 255
224 237 255
224 237 255
224 237 255
224 237 255
224 237 255
224 237 255
224 237 255
224 237 255
224 237 255
224 237 255
224 237 255
224 237 255
224 237 255
224 237 255
224 237 255
224 237 255
224 237 255
224 237 255
224 237 255
224 237 255
224 237 255
224 237 255
224 237 255
224 237 255
224 237 255
224 237 255
224 237 255
224 237 255
224 237 255
224 237 255
224 237 255
224 237 255
224 237 255
224 237 255
224 237 255
224 237 255
224 237 255
224 237 255
224 237 255
224 237 255
224 237 255
224 237 255
224 237 255
224 237 255
224 237 255
224 237 255
224 237 255
224 237 255
224 237 255
224 237 255
224 237 255
224 237 255
224 237 255
224 237 255
224 237 255
224 237 255
224 237 255
224 237 255
224 237 255
224 237 255
224 237 255
224 237 255
224 237 255
224 237 255
224 237 255
224 237 255
224 237 255
224 237 255
224 237 255
224 237 255
224 237 255
224 237 255
224 237 255
224 237 255
224 237 255
224 237 255
224 237 255
224 237 255
224 237 255
224 237 255
224 237 255
224 237 255
224 237 255
224 237 255
224 237 255
224 237 255
224 237 255
224 237 255
224 237 255
224 237 255
224 237 255
224 237 255
224 237 255
224 237 255
224 237 255
224 237 255
224 237 255
224 237 255
224 237 255
224 237 255
224 237 255
224 237 255
224 237 255
224 237 255
224 237 255
224 237 255
224 237 255
224 237 255
224 237 255
224 237 255
224 237 255
224 237 255
224 237 255
224 237 255
224 237 255
224 237 255
224 237 255
224 237 255
224 237 255
224 237 255
224 237 255
224 237 255
224 237 255
224 237 255
224 237 255
224 237 255
224 237 255
224 237 255
224 237 255
224 237 255
224 237 255
224 237 255
224 237 255
224 237 255
224 237 255
224 237 255
224 237 255
224 237 255
224 237 255
224 237 255
224 237 255
224 237 255
224 237 255
224 237 255
224 237 255
204 216 233
0 0 42
0 0 42
0 0 42
0 0 42
0 0 42
0 0 42
0 0 42
0 0 42
0 0 42
0 0 42
0 0 42
0 0 42
0 0 42
0 0 42
0 0 42
0 0 42
0 0 42
0 0 42
0 0 42
0 0 42
0 0 42
0 0 42
0 0 42
0 0 42
0 0 42
0 0 42
0 0 42
0 0 42
0 0 42
0 0 42
0 0 42
0 0 42
0 0 42
0 0 42
0 0 42
0 0 42
0 0 42
0 0 42
0 0 42
0 0 42
0 0 42
0 0 42
0 0 42
0 0 42
0 0 42
0 0 42
0 0 42
0 0 42
0 0 42
0 0 42
0 0 42
0 0 42
0 0 42
0 0 42
0 0 42
0 0 42
0 0 42
0 0 42
0 0 40
0 0 40
0 0 42
0 0 42
0 0 42
0 0 42
0 0 42
0 0 42
0 0 42
0 0 42
0 0 42
0 0 42
0 0 42
0 0 42
0 0 42
0 0 42
0 0 42
0 0 42
0 0 42
0 0 42
0 0 42
0 0 42
0 0 42
0 0 42
0 0 42
0 0 42
0 0 42
0 0 42
0 0 42
0 0 42
0 0 42
0 0 42
0 0 42
0 0 42
0 0 42
0 0 42
0 0 42
0 0 42
0 0 42
0 0 42
0 0 42
0 0 42
0 0 42
0 0 42
0 0 42
0 0 42
0 0 42
0 0 42
0 0 42
0 0 42
0 0 42
0 0 42
0 0 42
0 0 42
0 0 42
0 0 41
0 0 41
0 0 44
0 0 46
0 0 48
0 0 50
0 0 51
0 0 52
0 0 52
0 0 52
0 0 52
0 0 55
0 0 55
0 4 62
30 26 69
115 103 82
138 112 85
128 102 78
147 126 111
142 130 115
135 118 96
147 131 110
136 120 90
115 104 74
52 66 26
66 77 37
58 65 27
52 62 23
52 62 24
53 63 26
63 69 36
69 74 40
57 66 29
49 64 23
53 64 24
51 61 21
48 58 19
47 57 19
47 58 17
48 60 17
43 55 11
50 63 22
51 65 26
54 68 28
49 61 20
49 57 19
46 52 16
36 47 15
27 44 20
3 14 58
0 0 45
0 0 43
0 0 45
0 0 43
0 0 42
0 0 44
0 0 42
0 0 42
0 0 42
0 0 42
0 0 42
0 0 42
0 0 42
0 0 42
0 0 42
0 0 42
0 0 42
0 0 42
0 0 42
0 0 42
22 23 49
198 210 226
224 237 255
224 237 255
224 237 255
224 237 255
224 237 255
224 237 255
224 237 255
224 237 255
224 237 255
224 237 255
224 237 255
224 237 255
224 237 255
224 237 255
224 237 255
224 237 255
224 237 255
224 237 255
224 237 255
224 237 255
224 237 255
224 237 255
224 237 255
224 237 255
224 237 255
224 237 255
224 237 255
224 237 255
224 237 255
224 237 255
224 237 255
224 237 255
224 237 255
224 237 255
224 237 255
224 237 255
224 237 255
224 237 255
224 237 255
224 237 255
224 237 255
224 237 255
224 237 255
224 237 255
224 237 255
224 237 255
224 237 255
224 237 255
224 237 255
224 237 255
224 237 255
224 237 255
224 237 255
224 237 255
224 237 255
224 237 255
224 237 255
224 237 255
224 237 255
224 237 255
224 237 255
224 237 255
224 237 255
224 237 255
224 237 255
224 237 255
224 237 255
224 237 255
224 237 255
224 237 255
224 237 255
224 237 255
224 237 255
224 237 255
224 237 255
224 237 255
224 237 255
224 237 255
224 237 255
224 237 255
224 237 255
224 237 255
224 237 255
224 237 255
224 237 255
224 237 255
224 237 255
224 237 255
224 237 255
224 237 255
224 237 255
224 237 255
224 237 255
224 237 255
224 237 255
224 237 255
224 237 255
224 237 255
224 237 255
224 237 255
224 237 255
224 237 255
224 237 255
224 237 255
224 237 255
224 237 255
224 237 255
224 237 255
224 237 255
224 237 255
224 237 255
224 237 255
224 237 255
224 237 255
224 237 255
224 237 255
224 237 255
224 237 255
224 237 255
224 237 255
224 237 255
224 237 255
224 237 255
224 237 255
224 237 255
224 237 255
224 237 255
224 237 255
224 237 255
224 237 255
224 237 255
224 237 255
224 237 255
224 237 255
224 237 255
224 237 255
224 237 255
224 237 255
224 237 255
224 237 255
224 237 255
224 237 255
224 237 255
224 237 255
224 237 255
224 237 255
224 237 255
224 237 255
224 237 255
224 237 255
224 237 255
224 237 255
224 237 255
224 237 255
224 237 255
224 237 255
224 237 255
224 237 255
224 237 255
224 237 255
224 237 255
224 237 255
224 237 255
224 237 255
224 237 255
224 237 255
224 237 255
224 237 255
224 237 255
224 237 255
224 237 255
224 237 255
224 237 255
224 237 255
224 237 255
224 237 255
224 237 255
224 237 255
224 237 255
224 237 255
224 237 255
224 237 255
224 237 255
224 237 255
224 237 255
224 237 255
224 237 255
224 237 255
224 237 255
224 237 255
224 237 255
224 237 255
224 237 255
224 237 255
224 237 255
224 237 255
224 237 255
224 237 255
224 237 255
224 237 255
224 237 255
224 237 255
224 237 255
224 237 255
224 237 255
224 237 255
224 237 255
224 237 255
224 237 255
224 237 255
224 237 255
224 237 255
224 237 255
224 237 255
224 237 255
152 161 176
0 0 42
0 0 42
0 0 42
0 0 42
0 0 42
0 0 42
0 0 42
0 0 42
0 0 42
0 0 42
0 0 42
0 0 42
0 0 42
0 0 42
0 0 42
0 0 42
0 0 42
0 0 42
0 0 42
0 0 42
0 0 42
0 0 42
0 0 42
0 0 42
0 0 42
0 0 42
0 0 42
0 0 42
0 0 42
0 0 42
0 0 42
0 0 42
0 0 42
0 0 42
0 0 42
0 0 42
0 0 42
0 0 42
0 0 42
0 0 42
0 0 42
0 0 42
0 0 42
0 0 42
0 0 42
0 0 42
0 0 42
0 0 42
0 0 42
0 0 42
0 0 42
0 0 42
0 0 42
0 0 42
0 0 42
0 0 42
0 0 42
0 0 41
0 0 40
0 0 42
0 0 42
0 0 42
0 0 42
0 0 42
0 0 42
0 0 42
0 0 42
0 0 42
0 0 42
0 0 42
0 0 42
0 0 42
0 0 42
0 0 42
0 0 42
0 0 42
0 0 42
0 0 42
0 0 42
0 0 42
0 0 42
0 0 42
0 0 42
0 0 42
0 0 42
0 0 42
0 0 42
0 0 42
0 0 42
0 0 42
0 0 42
0 0 42
0 0 42
0 0 42
0 0 42
0 0 42
0 0 42
0 0 42
0 0 42
0 0 42
0 0 42
0 0 42
0 0 42
0 0 42
0 0 42
0 0 42
0 0 42
0 0 42
0 0 42
0 0 42
0 0 42
0 0 42
0 0 42
0 0 43
0 0 46
0 0 48
0 0 49
0 0 51
0 0 53
0 0 55
0 0 57
0 0 59
0 0 60
0 0 64
0 0 63
0 7 63
88 74 81
144 126 99
127 105 81
140 117 100
156 140 129
134 116 100
140 120 95
107 93 67
124 108 79
72 70 36
53 65 26
60 69 29
63 71 33
57 64 28
53 60 24
60 67 31
66 68 36
63 67 32
42 56 10
44 61 17
54 63 24
51 60 22
38 48 12
34 43 10
51 59 20
56 65 24
57 68 27
53 70 25
54 73 25
54 72 28
54 63 25
57 61 27
50 54 15
35 53 24
17 31 52
0 0 48
0 0 45
0 0 45
0 0 45
0 0 43
0 0 43
0 0 45
0 0 43
0 0 42
0 0 42
0 0 42
0 0 42
0 0 42
0 0 42
0 0 42
0 0 42
0 0 42
0 0 42
0 0 42
0 0 42
0 0 42
160 169 185
224 237 255
224 237 255
224 237 255
224 237 255
224 237 255
224 237 255
224 237 255
224 237 255
224 237 255
224 237 255
224 237 255
224 237 255
224 237 255
224 237 255
224 237 255
224 237 255
224 237 255
224 237 255
224 237 255
224 237 255
224 237 255
224 237 255
224 237 255
224 237 255
224 237 255
224 237 255
224 237 255
224 237 255
224 237 255
224 237 255
224 237 255
224 237 255
224 237 255
224 237 255
224 237 255
224 237 255
224 237 255
224 237 255
224 237 255
224 237 255
224 237 255
224 237 255
224 237 255
224 237 255
224 237 255
224 237 255
224 237 255
224 237 255
224 237 255
224 237 255
224 237 255
224 237 255
224 237 255
224 237 255
224 237 255
224 237 255
224 237 255
224 237 255
224 237 255
224 237 255
224 237 255
224 237 255
224 237 255
224 237 255
224 237 255
224 237 255
224 237 255
224 237 255
224 237 255
224 237 255
224 237 255
224 237 255
224 237 255
224 237 255
224 237 255
224 237 255
224 237 255
224 237 255
224 237 255
224 237 255
224 237 255
224 237 255
224 237 255
224 237 255
224 237 255
224 237 255
224 237 255
224 237 255
224 237 255
224 237 255
224 237 255
224 237 255
224 237 255
224 237 255
224 237 255
224 237 255
224 237 255
224 237 255
224 237 255
224 237 255
224 237 255
224 237 255
224 237 255
224 237 255
224 237 255
224 237 255
224 237 255
224 237 255
224 237 255
224 237 255
224 237 255
224 237 255
224 237 255
224 237 255
224 237 255
224 237 255
224 237 255
224 237 255
224 237 255
224 237 255
224 237 255
224 237 255
224 237 255
224 237 255
224 237 255
224 237 255
224 237 255
224 237 255
224 237 255
224 237 255
224 237 255
224 237 255
224 237 255
224 237 255
224 237 255
224 237 255
224 237 255
224 237 255
224 237 255
224 237 255
224 237 255
224 237 255
224 237 255
224 237 255
224 237 255
224 237 255
224 237 255
224 237 255
224 237 255
224 237 255
224 237 255
224 237 255
224 237 255
224 237 255
224 237 255
224 237 255
224 237 255
224 237 255
224 237 255
224 237 255
224 237 255
224 237 255
224 237 255
224 237 255
224 237 255
224 237 255
224 237 255
224 237 255
224 237 255
224 237 255
224 237 255
224 237 255
224 237 255
224 237 255
224 237 255
224 237 255
224 237 255
224 237 255
224 237 255
224 237 255
224 237 255
224 237 255
224 237 255
224 237 255
224 237 255
224 237 255
224 237 255
224 237 255
224 237 255
224 237 255
224 237 255
224 237 255
224 237 255
224 237 255
224 237 255
224 237 255
224 237 255
224 237 255
224 237 255
224 237 255
224 237 255
224 237 255
224 237 255
224 237 255
224 237 255
224 237 255
224 237 255
224 237 255
224 237 255
224 237 255
224 237 255
224 237 255
224 237 255
224 237 255
224 237 255
224 237 255
213 225 243
98 103 117
0 0 42
0 0 42
0 0 42
0 0 42
0 0 42
0 0 42
0 0 42
0 0 42
0 0 42
0 0 42
0 0 42
0 0 42
0 0 42
0 0 42
0 0 42
0 0 42
0 0 42
0 0 42
0 0 42
0 0 42
0 0 42
0 0 42
0 0 42
0 0 42
0 0 42
0 0 42
0 0 42
0 0 42
0 0 42
0 0 42
0 0 42
0 0 42
0 0 42
0 0 42
0 0 42
0 0 42
0 0 42
0 0 42
0 0 42
0 0 42
0 0 42
0 0 42
0 0 42
0 0 42
0 0 42
0 0 42
0 0 42
0 0 42
0 0 42
0 0 42
0 0 42
0 0 42
0 0 42
0 0 42
0 0 42
0 0 41
0 0 42
0 0 42
0 0 42
0 0 42
0 0 42
0 0 42
0 0 42
0 0 42
0 0 42
0 0 42
0 0 42
0 0 42
0 0 42
0 0 42
0 0 42
0 0 42
0 0 42
0 0 42
0 0 42
0 0 42
0 0 42
0 0 42
0 0 42
0 0 42
0 0 42
0 0 42
0 0 42
0 0 42
0 0 42
0 0 42
0 0 42
0 0 42
0 0 42
0 0 42
0 0 42
0 0 42
0 0 42
0 0 42
0 0 42
0 0 42
0 0 42
0 0 42
0 0 42
0 0 42
0 0 42
0 0 42
0 0 42
0 0 42
0 0 42
0 0 42
0 0 42
0 0 42
0 0 42
0 0 42
0 0 42
0 0 43
0 0 45
0 0 47
0 0 48
0 0 50
0 0 51
0 0 53
0 0 55
0 0 60
0 0 63
0 0 64
0 0 65
0 0 68
17 16 63
103 87 80
142 120 93
127 114 92
157 136 122
136 122 108
114 90 71
115 95 69
162 133 110
146 127 100
55 62 24
60 67 32
62 66 33
67 72 39
54 63 27
57 65 28
66 70 37
64 69 35
33 45 9
40 53 12
53 65 26
52 60 23
46 54 18
43 49 14
53 56 22
64 68 29
68 74 33
62 74 31
60 76 31
55 71 27
45 60 23
42 52 19
44 52 23
35 49 30
17 28 59
0 3 51
0 0 45
0 0 45
0 0 45
0 0 45
0 0 45
0 0 45
0 0 45
0 0 43
0 0 42
0 0 42
0 0 42
0 0 42
0 0 42
0 0 42
0 0 42
0 0 42
0 0 42
0 0 42
0 0 42
0 0 42
87 92 106
221 234 252
224 237 255
224 237 255
224 237 255
224 237 255
224 237 255
224 237 255
224 237 255
224 237 255
224 237 255
224 237 255
224 237 255
224 237 255
224 237 255
224 237 255
224 237 255
224 237 255
224 237 255
224 237 255
224 237 255
224 237 255
224 237 255
224 237 255
224 237 255
224 237 255
224 237 255
224 237 255
224 237 255
224 237 255
224 237 255
224 237 255
224 237 255
224 237 255
224 237 255
224 237 255
224 237 255
224 237 255
224 237 255
224 237 255
224 237 255
224 237 255
224 237 255
224 237 255
224 237 255
224 237 255
224 237 255
224 237 255
224 237 255
224 237 255
224 237 255
224 237 255
224 237 255
224 237 255
224 237 255
224 237 255
224 237 255
224 237 255
224 237 255
224 237 255
224 237 255
224 237 255
224 237 255
224 237 255
224 237 255
224 237 255
224 237 255
224 237 255
224 237 255
224 237 255
224 237 255
224 237 255
224 237 255
224 237 255
224 237 255
224 237 255
224 237 255
224 237 255
224 237 255
224 237 255
224 237 255
224 237 255
224 237 255
224 237 255
224 237 255
224 237 255
224 237 255
224 237 255
224 237 255
224 237 255
224 237 255
224 237 255
224 237 255
224 237 255
224 237 255
224 237 255
224 237 255
224 237 255
224 237 255
224 237 255
224 237 255
224 237 255
224 237 255
224 237 255
224 237 255
224 237 255
224 237 255
224 237 255
224 237 255
224 237 255
224 237 255
224 237 255
224 237 255
224 237 255
224 237 255
224 237 255
224 237 255
224 237 255
224 237 255
224 237 255
224 237 255
224 237 255
224 237 255
224 237 255
224 237 255
224 237 255
224 237 255
224 237 255
224 237 255
224 237 255
224 237 255
224 237 255
224 237 255
224 237 255
224 237 255
224 237 255
224 237 255
224 237 255
224 237 255
224 237 255
224 237 255
224 237 255
224 237 255
224 237 255
224 237 255
224 237 255
224 237 255
224 237 255
224 237 255
224 237 255
224 237 255
224 237 255
224 237 255
224 237 255
224 237 255
224 237 255
224 237 255
224 237 255
224 237 255
224 237 255
224 237 255
224 237 255
224 237 255
224 237 255
224 237 255
224 237 255
224 237 255
225 237 255
225 237 255
225 237 255
225 237 255
225 237 255
225 237 255
225 237 255
225 237 255
225 237 255
225 237 255
225 237 255
225 237 255
225 237 255
225 237 255
225 237 255
225 237 255
225 237 255
225 237 255
225 237 255
225 237 255
225 237 255
225 237 255
225 237 255
225 237 255
225 237 255
225 237 255
225 237 255
225 237 255
225 237 255
225 237 255
225 237 255
225 237 255
225 237 255
225 237 255
225 237 255
225 237 255
225 237 255
225 237 255
225 237 255
225 237 255
225 237 255
225 237 255
225 237 255
225 237 255
225 237 255
225 237 255
225 237 255
225 237 255
225 237 255
225 237 255
225 237 255
225 237 255
194 206 222
22 23 49
0 0 42
0 0 42
0 0 42
0 0 42
0 0 42
0 0 42
0 0 42
0 0 42
0 0 42
0 0 42
0 0 42
0 0 42
0 0 42
0 0 42
0 0 42
0 0 42
0 0 42
0 0 42
0 0 42
0 0 42
0 0 42
0 0 42
0 0 42
0 0 42
0 0 42
0 0 42
0 0 42
0 0 42
0 0 42
0 0 42
0 0 42
0 0 42
0 0 42
0 0 42
0 0 42
0 0 42
0 0 42
0 0 42
0 0 42
0 0 42
0 0 42
0 0 42
0 0 42
0 0 42
0 0 42
0 0 42
0 0 42
0 0 42
0 0 42
0 0 42
0 0 42
0 0 42
0 0 42
0 0 42
0 0 42
0 0 42
0 0 42
0 0 42
0 0 42
0 0 42
0 0 42
0 0 42
0 0 42
0 0 42
0 0 42
0 0 42
0 0 42
0 0 42
0 0 42
0 0 42
0 0 42
0 0 42
0 0 42
0 0 42
0 0 42
0 0 42
0 0 42
0 0 42
0 0 42
0 0 42
0 0 42
0 0 42
0 0 42
0 0 42
0 0 42
0 0 42
0 0 42
0 0 42
0 0 42
0 0 42
0 0 42
0 0 42
0 0 42
0 0 42
0 0 42
0 0 42
0 0 42
0 0 42
0 0 42
0 0 42
0 0 42
0 0 42
0 0 42
0 0 42
0 0 42
0 0 42
0 0 42
0 0 43
0 0 45
0 0 45
0 0 43
0 0 45
0 0 45
0 0 46
0 0 48
0 0 50
0 0 50
0 0 52
0 0 54
0 0 58
0 0 61
0 0 64
0 0 66
39 34 55
109 92 67
129 104 80
148 127 111
138 111 93
119 99 73
114 90 68
109 94 67
141 116 95
79 75 48
58 64 29
55 65 29
71 73 36
63 67 32
54 63 26
64 72 34
71 75 40
61 67 32
44 55 17
57 69 31
53 62 23
59 67 31
61 67 31
57 61 25
64 66 29
71 74 35
67 70 31
64 72 30
54 68 25
45 55 18
46 56 13
41 52 8
35 51 25
14 24 66
0 0 56
0 0 45
0 0 45
0 0 45
0 0 45
0 0 45
0 0 45
0 0 45
0 0 45
0 0 43
0 0 42
0 0 42
0 0 42
0 0 42
0 0 42
0 0 42
0 0 42
0 0 42
0 0 42
0 0 42
0 0 42
0 0 42
184 194 210
225 237 255
225 237 255
225 237 255
225 237 255
225 237 255
225 237 255
225 237 255
225 237 255
225 237 255
225 237 255
225 237 255
225 237 255
225 237 255
225 237 255
225 237 255
225 237 255
225 237 255
225 237 255
225 237 255
225 237 255
225 237 255
225 237 255
225 237 255
225 237 255
225 237 255
225 237 255
225 237 255
225 237 255
225 237 255
225 237 255
225 237 255
225 237 255
225 237 255
225 237 255
225 237 255
225 237 255
225 237 255
225 237 255
225 237 255
225 237 255
225 237 255
225 237 255
225 237 255
225 237 255
225 237 255
225 237 255
225 237 255
225 237 255
225 237 255
225 237 255
225 237 255
224 237 255
224 237 255
224 237 255
224 237 255
224 237 255
224 237 255
224 237 255
224 237 255
224 237 255
224 237 255
224 237 255
224 237 255
224 237 255
224 237 255
224 237 255
224 237 255
224 237 255
224 237 255
224 237 255
224 237 255
224 237 255
224 237 255
224 237 255
224 237 255
224 237 255
224 237 255
224 237 255
224 237 255
224 237 255
224 237 255
224 237 255
224 237 255
224 237 255
224 237 255
224 237 255
224 237 255
224 237 255
224 237 255
224 237 255
224 237 255
224 237 255
224 237 255
224 237 255
224 237 255
224 237 255
224 237 255
224 237 255
224 237 255
224 237 255
224 237 255
224 237 255
224 237 255
224 237 255
224 237 255
224 237 255
224 237 255
224 237 255
224 237 255
224 237 255
224 237 255
224 237 255
224 237 255
224 237 255
224 237 255
224 237 255
224 237 255
224 237 255
224 237 255
224 237 255
224 237 255
224 237 255
224 237 255
225 237 255
225 237 255
225 237 255
225 237 255
225 237 255
225 237 255
225 237 255
225 237 255
225 237 255
225 237 255
225 237 255
225 237 255
225 237 255
225 237 255
225 237 255
225 237 255
225 237 255
225 237 255
225 237 255
225 237 255
225 237 255
225 237 255
225 237 255
225 237 255
225 237 255
225 237 255
225 237 255
225 237 255
225 237 255
225 237 255
225 237 255
225 237 255
225 237 255
225 237 255
225 237 255
225 237 255
225 237 255
225 237 255
225 237 255
225 237 255
225 237 255
225 237 255
225 237 255
225 237 255
225 237 255
225 237 255
225 237 255
225 237 255
225 237 255
225 237 255
225 237 255
225 237 255
225 237 255
225 237 255
225 237 255
225 237 255
225 237 255
225 237 255
225 237 255
225 237 255
225 237 255
225 237 255
225 237 255
225 237 255
225 237 255
225 237 255
225 237 255
225 237 255
225 237 255
225 237 255
225 237 255
225 237 255
225 237 255
225 237 255
225 237 255
225 237 255
225 237 255
225 237 255
225 237 255
225 237 255
225 237 255
225 237 255
225 237 255
225 237 255
225 237 255
225 237 255
225 237 255
225 237 255
225 237 255
225 237 255
225 237 255
225 237 255
225 237 255
225 237 255
225 237 255
225 237 255
140 148 163
0 0 42
0 0 42
0 0 42
0 0 42
0 0 42
0 0 42
0 0 42
0 0 42
0 0 42
0 0 42
0 0 42
0 0 42
0 0 42
0 0 42
0 0 42
0 0 42
0 0 42
0 0 42
0 0 42
0 0 42
0 0 42
0 0 42
0 0 42
0 0 42
0 0 42
0 0 42
0 0 42
0 0 42
0 0 42
0 0 42
0 0 42
0 0 42
0 0 42
0 0 42
0 0 42
0 0 42
0 0 42
0 0 42
0 0 42
0 0 42
0 0 42
0 0 42
0 0 42
0 0 42
0 0 42
0 0 42
0 0 42
0 0 42
0 0 42
0 0 42
0 0 42
0 0 42
0 0 42
0 0 42
0 0 42
0 0 42
0 0 42
0 0 42
0 0 42
0 0 42
0 0 42
0 0 42
0 0 42
0 0 42
0 0 42
0 0 42
0 0 42
0 0 42
0 0 42
0 0 42
0 0 42
0 0 42
0 0 42
0 0 42
0 0 42
0 0 42
0 0 42
0 0 42
0 0 42
0 0 42
0 0 42
0 0 42
0 0 42
0 0 42
0 0 42
0 0 42
0 0 42
0 0 42
0 0 42
0 0 42
0 0 42
0 0 42
0 0 42
0 0 42
0 0 42
0 0 42
0 0 42
0 0 42
0 0 42
0 0 42
0 0 42
0 0 42
0 0 42
0 0 42
0 0 42
0 0 42
0 0 42
0 0 43
0 0 45
0 0 45
0 0 45
0 0 45
0 0 45
0 0 47
0 0 50
0 0 50
0 0 51
0 0 53
0 0 57
0 0 61
0 0 68
0 0 63
10 12 69
85 82 63
130 106 78
142 121 107
159 143 123
119 104 78
109 92 70
104 86 57
100 87 60
72 70 44
84 77 54
61 67 32
72 73 35
76 77 40
59 62 29
43 53 21
57 67 31
68 72 36
53 59 23
59 68 32
55 65 27
54 62 24
69 75 39
64 67 29
65 66 30
67 68 30
69 71 33
67 70 30
62 70 27
57 64 23
57 65 24
49 67 31
49 72 53
17 32 67
0 0 54
0 0 45
0 0 45
0 0 45
0 0 45
0 0 45
0 0 45
0 0 45
0 0 45
0 0 45
0 0 44
0 0 43
0 0 42
0 0 42
0 0 42
0 0 42
0 0 42
0 0 42
0 0 42
0 0 42
0 0 42
0 0 42
145 154 169
225 237 255
225 237 255
225 237 255
225 237 255
225 237 255
225 237 255
225 237 255
225 237 255
225 237 255
225 237 255
225 237 255
225 237 255
225 237 255
225 237 255
225 237 255
225 237 255
225 237 255
225 237 255
225 237 255
225 237 255
225 237 255
225 237 255
225 237 255
225 237 255
225 237 255
225 237 255
225 237 255
225 237 255
225 237 255
225 237 255
225 237 255
225 237 255
225 237 255
225 237 255
225 237 255
225 237 255
225 237 255
225 237 255
225 237 255
225 237 255
225 237 255
225 237 255
225 237 255
225 237 255
225 237 255
225 237 255
225 237 255
225 237 255
225 237 255
225 237 255
225 237 255
225 237 255
225 237 255
225 237 255
225 237 255
225 237 255
225 237 255
225 237 255
225 237 255
225 237 255
225 237 255
225 237 255
225 237 255
225 237 255
225 237 255
225 237 255
225 237 255
225 237 255
225 237 255
225 237 255
225 237 255
225 237 255
225 237 255
225 237 255
225 237 255
225 237 255
225 237 255
225 237 255
225 237 255
225 237 255
225 237 255
225 237 255
225 237 255
225 237 255
225 237 255
225 237 255
225 237 255
225 237 255
225 237 255
225 237 255
225 237 255
225 237 255
225 237 255
225 237 255
225 237 255
225 237 255
224 237 255
224 237 255
224 237 255
224 237 255
224 237 255
224 237 255
224 237 255
224 237 255
224 237 255
224 237 255
224 237 255
224 237 255
224 237 255
224 237 255
225 237 255
225 237 255
225 237 255
225 237 255
225 237 255
225 237 255
225 237 255
225 237 255
225 237 255
225 237 255
225 237 255
225 237 255
225 237 255
225 237 255
225 237 255
225 237 255
225 237 255
225 237 255
225 237 255
225 237 255
225 237 255
225 237 255
225 237 255
225 237 255
225 237 255
225 237 255
225 237 255
225 237 255
225 237 255
225 237 255
225 237 255
225 237 255
225 237 255
225 237 255
225 237 255
225 237 255
225 237 255
225 237 255
225 237 255
225 237 255
225 237 255
225 237 255
225 237 255
225 237 255
225 237 255
225 237 255
225 237 255
225 237 255
225 237 255
225 237 255
225 237 255
225 237 255
225 237 255
225 237 255
225 237 255
225 237 255
225 237 255
225 237 255
225 237 255
225 237 255
225 237 255
225 237 255
225 237 255
225 237 255
225 237 255
225 237 255
225 237 255
225 237 255
225 237 255
225 237 255
225 237 255
225 237 255
225 237 255
225 237 255
225 237 255
225 237 255
225 237 255
225 237 255
225 237 255
225 237 255
225 237 255
225 237 255
225 237 255
225 237 255
225 237 255
225 237 255
225 237 255
225 237 255
225 237 255
225 237 255
225 237 255
225 237 255
225 237 255
225 237 255
225 237 255
225 237 255
225 237 255
225 237 255
225 237 255
225 237 255
225 237 255
225 237 255
225 237 255
225 237 255
225 237 255
225 237 255
225 237 255
225 237 255
225 237 255
225 237 255
214 227 244
59 62 79
0 0 42
0 0 42
0 0 42
0 0 42
0 0 42
0 0 42
0 0 42
0 0 42
0 0 42
0 0 42
0 0 42
0 0 42
0 0 42
0 0 42
0 0 42
0 0 42
0 0 42
0 0 42
0 0 42
0 0 42
0 0 42
0 0 42
0 0 42
0 0 42
0 0 42
0 0 42
0 0 42
0 0 42
0 0 42
0 0 42
0 0 42
0 0 42
0 0 42
0 0 42
0 0 42
0 0 42
0 0 42
0 0 42
0 0 42
0 0 42
0 0 42
0 0 42
0 0 42
0 0 42
0 0 42
0 0 42
0 0 42
0 0 42
0 0 42
0 0 42
0 0 42
0 0 42
0 0 42
0 0 42
0 0 42
0 0 42
0 0 42
0 0 42
0 0 42
0 0 42
0 0 42
0 0 42
0 0 42
0 0 42
0 0 42
0 0 42
0 0 42
0 0 42
0 0 42
0 0 42
0 0 42
0 0 42
0 0 42
0 0 42
0 0 42
0 0 42
0 0 42
0 0 42
0 0 42
0 0 42
0 0 42
0 0 42
0 0 42
0 0 42
0 0 42
0 0 42
0 0 42
0 0 42
0 0 42
0 0 42
0 0 42
0 0 42
0 0 42
0 0 42
0 0 42
0 0 42
0 0 42
0 0 42
0 0 42
0 0 42
0 0 42
0 0 42
0 0 42
0 0 42
0 0 42
0 0 42
0 0 44
0 0 45
0 0 45
0 0 45
0 0 45
0 0 47
0 0 49
0 0 51
0 0 52
0 0 53
0 0 55
0 0 58
0 0 62
0 0 66
0 0 66
3 6 69
73 65 52
117 95 69
150 134 122
143 124 101
101 84 60
150 114 96
120 93 68
97 85 58
80 77 50
87 74 47
84 80 44
70 69 31
73 73 40
57 63 32
30 43 11
69 78 43
74 79 42
63 70 33
57 68 30
49 59 19
61 69 33
68 72 34
69 70 31
71 72 34
68 73 33
66 69 30
65 71 31
56 68 25
53 64 16
48 61 26
36 103 104
22 62 79
0 9 61
0 0 43
0 0 45
0 0 45
0 0 45
0 0 45
0 0 44
0 0 43
0 0 45
0 0 45
0 0 45
0 0 45
0 0 43
0 0 44
0 0 42
0 0 43
0 0 44
0 0 43
0 0 43
0 0 42
0 0 42
0 0 42
55 58 75
213 225 243
225 237 255
225 237 255
225 237 255
225 237 255
225 237 255
225 237 255
225 237 255
225 237 255
225 237 255
225 237 255
225 237 255
225 237 255
225 237 255
225 237 255
225 237 255
225 237 255
225 237 255
225 237 255
225 237 255
225 237 255
225 237 255
225 237 255
225 237 255
225 237 255
225 237 255
225 237 255
225 237 255
225 237 255
225 237 255
225 237 255
225 237 255
225 237 255
225 237 255
225 237 255
225 237 255
225 237 255
225 237 255
225 237 255
225 237 255
225 237 255
225 237 255
225 237 255
225 237 255
225 237 255
225 237 255
225 237 255
225 237 255
225 237 255
225 237 255
225 237 255
225 237 255
225 237 255
225 237 255
225 237 255
225 237 255
225 237 255
225 237 255
225 237 255
225 237 255
225 237 255
225 237 255
225 237 255
225 237 255
225 237 255
225 237 255
225 237 255
225 237 255
225 237 255
225 237 255
225 237 255
225 237 255
225 237 255
225 237 255
225 237 255
225 237 255
225 237 255
225 237 255
225 237 255
225 237 255
225 237 255
225 237 255
225 237 255
225 237 255
225 237 255
225 237 255
225 237 255
225 237 255
225 237 255
225 237 255
225 237 255
225 237 255
225 237 255
225 237 255
225 237 255
225 237 255
225 237 255
225 237 255
225 237 255
225 237 255
225 237 255
225 237 255
225 237 255
225 237 255
225 237 255
225 237 255
225 237 255
225 237 255
225 237 255
225 237 255
225 237 255
225 237 255
225 237 255
225 237 255
225 237 255
225 237 255
225 237 255
225 237 255
225 237 255
225 237 255
225 237 255
225 237 255
225 237 255
225 237 255
225 237 255
225 237 255
225 237 255
225 237 255
225 237 255
225 237 255
225 237 255
225 237 255
225 237 255
225 237 255
225 237 255
225 237 255
225 237 255
225 237 255
225 237 255
225 237 255
225 237 255
225 237 255
225 237 255
225 237 255
225 237 255
225 237 255
225 237 255
225 237 255
225 237 255
225 237 255
225 237 255
225 237 255
225 237 255
225 237 255
225 237 255
225 237 255
225 237 255
225 237 255
225 237 255
225 237 255
225 237 255
225 237 255
225 237 255
225 237 255
225 237 255
225 237 255
225 237 255
225 237 255
225 237 255
225 237 255
225 237 255
225 237 255
225 237 255
225 237 255
225 237 255
225 237 255
225 237 255
225 237 255
225 237 255
225 237 255
225 237 255
225 237 255
225 237 255
225 237 255
225 237 255
225 237 255
225 237 255
225 237 255
225 237 255
225 237 255
225 237 255
225 237 255
225 237 255
225 237 255
225 237 255
225 237 255
225 237 255
225 237 255
225 237 255
225 237 255
225 237 255
225 237 255
225 238 255
225 237 255
225 237 255
225 237 255
225 238 255
225 238 255
225 238 255
225 238 255
225 238 255
225 238 255
225 238 255
225 238 255
225 238 255
225 238 255
225 238 255
225 238 255
225 238 255
225 238 255
225 238 255
225 238 255
200 211 228
0 0 42
0 0 42
0 0 42
0 0 42
0 0 42
0 0 42
0 0 42
0 0 42
0 0 42
0 0 42
0 0 42
0 0 42
0 0 42
0 0 42
0 0 42
0 0 42
0 0 42
0 0 42
0 0 42
0 0 42
0 0 42
0 0 42
0 0 42
0 0 42
0 0 42
0 0 42
0 0 42
0 0 42
0 0 42
0 0 42
0 0 42
0 0 42
0 0 42
0 0 42
0 0 42
0 0 42
0 0 42
0 0 42
0 0 42
0 0 42
0 0 42
0 0 42
0 0 42
0 0 42
0 0 42
0 0 42
0 0 42
0 0 42
0 0 42
0 0 42
0 0 42
0 0 42
0 0 42
0 0 42
0 0 42
0 0 42
0 0 42
0 0 42
0 0 42
0 0 42
0 0 42
0 0 42
0 0 42
0 0 42
0 0 42
0 0 42
0 0 42
0 0 42
0 0 42
0 0 42
0 0 42
0 0 42
0 0 42
0 0 42
0 0 42
0 0 42
0 0 42
0 0 42
0 0 42
0 0 42
0 0 42
0 0 42
0 0 42
0 0 42
0 0 42
0 0 42
0 0 42
0 0 42
0 0 42
0 0 42
0 0 42
0 0 42
0 0 42
0 0 42
0 0 42
0 0 42
0 0 42
0 0 42
0 0 42
0 0 42
0 0 42
0 0 42
0 0 42
0 0 42
0 0 42
0 0 42
0 0 44
0 0 45
0 0 45
0 0 45
0 0 47
0 0 48
0 0 50
0 0 52
0 0 53
0 0 53
0 0 57
0 0 60
0 0 61
0 0 67
0 0 64
30 36 61
86 75 60
121 109 85
149 135 111
118 101 74
116 105 74
149 119 92
92 81 56
90 78 53
68 68 37
76 72 40
72 70 38
67 69 36
76 78 43
48 62 22
44 61 22
75 85 46
74 81 44
66 74 37
53 64 25
57 68 30
62 72 33
68 72 33
78 80 42
71 76 38
61 69 31
60 68 28
61 71 29
55 63 22
55 66 33
39 88 96
21 61 84
0 6 61
0 0 46
0 0 46
0 0 45
0 0 45
0 0 45
0 0 45
0 0 45
0 0 45
0 0 45
0 0 45
0 0 45
0 0 45
0 0 44
0 0 44
0 0 43
0 0 45
0 0 45
0 0 45
0 0 44
0 0 42
0 0 42
22 23 49
195 206 222
225 238 255
225 238 255
225 238 255
225 238 255
225 238 255
225 238 255
225 238 255
225 238 255
225 238 255
225 238 255
225 238 255
225 238 255
225 238 255
225 238 255
225 238 255
225 238 255
225 237 255
225 237 255
225 237 255
225 237 255
225 237 255
225 237 255
225 237 255
225 237 255
225 237 255
225 237 255
225 237 255
225 237 255
225 237 255
225 237 255
225 237 255
225 237 255
225 237 255
225 237 255
225 237 255
225 237 255
225 237 255
225 237 255
225 237 255
225 237 255
225 237 255
225 237 255
225 237 255
225 237 255
225 237 255
225 237 255
225 237 255
225 237 255
225 237 255
225 237 255
225 237 255
225 237 255
225 237 255
225 237 255
225 237 255
225 237 255
225 237 255
225 237 255
225 237 255
225 237 255
225 237 255
225 237 255
225 237 255
225 237 255
225 237 255
225 237 255
225 237 255
225 237 255
225 237 255
225 237 255
225 237 255
225 237 255
225 237 255
225 237 255
225 237 255
225 237 255
225 237 255
225 237 255
225 237 255
225 237 255
225 237 255
225 237 255
225 237 255
225 237 255
225 237 255
225 237 255
225 237 255
225 237 255
225 237 255
225 237 255
225 237 255
225 237 255
225 237 255
225 237 255
225 237 255
225 237 255
225 237 255
225 237 255
225 237 255
225 237 255
225 237 255
225 237 255
225 237 255
225 237 255
225 237 255
225 237 255
225 237 255
225 237 255
225 237 255
225 237 255
225 237 255
225 237 255
225 237 255
225 237 255
225 237 255
225 237 255
225 237 255
225 237 255
225 237 255
225 237 255
225 237 255
225 237 255
225 237 255
225 237 255
225 237 255
225 237 255
225 237 255
225 237 255
225 237 255
225 237 255
225 237 255
225 237 255
225 237 255
225 237 255
225 237 255
225 237 255
225 237 255
225 237 255
225 237 255
225 237 255
225 237 255
225 237 255
225 237 255
225 237 255
225 237 255
225 237 255
225 237 255
225 237 255
225 237 255
225 237 255
225 237 255
225 237 255
225 237 255
225 237 255
225 238 255
225 238 255
225 238 255
225 238 255
225 238 255
225 238 255
225 238 255
225 238 255
225 238 255
225 238 255
225 238 255
225 238 255
225 238 255
225 238 255
225 238 255
225 238 255
225 238 255
225 238 255
225 238 255
225 238 255
225 238 255
225 238 255
225 238 255
225 238 255
225 238 255
225 238 255
225 238 255
225 238 255
225 238 255
225 238 255
225 238 255
225 238 255
225 238 255
225 238 255
225 238 255
225 238 255
225 238 255
225 238 255
225 238 255
225 238 255
225 238 255
225 238 255
225 238 255
225 238 255
225 238 255
225 238 255
225 238 255
225 238 255
225 238 255
225 238 255
225 238 255
225 238 255
225 238 255
225 238 255
225 238 255
225 238 255
225 238 255
225 238 255
225 238 255
225 238 255
225 238 255
225 238 255
225 238 255
225 238 255
225 238 255
225 238 255
225 238 255
225 238 255
225 238 255
164 173 188
0 0 42
0 0 42
0 0 42
0 0 42
0 0 42
0 0 42
0 0 42
0 0 42
0 0 42
0 0 42
0 0 42
0 0 42
0 0 42
0 0 42
0 0 42
0 0 42
0 0 42
0 0 42
0 0 42
0 0 42
0 0 42
0 0 42
0 0 42
0 0 42
0 0 42
0 0 42
0 0 42
0 0 42
0 0 42
0 0 42
0 0 42
0 0 42
0 0 42
0 0 42
0 0 42
0 0 42
0 0 42
0 0 42
0 0 42
0 0 42
0 0 42
0 0 42
0 0 42
0 0 42
0 0 42
0 0 42
0 0 42
0 0 42
0 0 42
0 0 42
0 0 42
0 0 42
0 0 42
0 0 42
0 0 42
0 0 42
0 0 42
0 0 42
0 0 42
0 0 42
0 0 42
0 0 42
0 0 42
0 0 42
0 0 42
0 0 42
0 0 42
0 0 42
0 0 42
0 0 42
0 0 42
0 0 42
0 0 42
0 0 42
0 0 42
0 0 42
0 0 42
0 0 42
0 0 42
0 0 42
0 0 42
0 0 42
0 0 42
0 0 42
0 0 42
0 0 42
0 0 42
0 0 42
0 0 42
0 0 42
0 0 42
0 0 42
0 0 42
0 0 42
0 0 42
0 0 42
0 0 42
0 0 42
0 0 42
0 0 42
0 0 42
0 0 42
0 0 42
0 0 42
0 0 42
0 0 44
0 0 45
0 0 45
0 0 47
0 0 48
0 0 50
0 0 50
0 0 52
0 0 53
0 0 54
0 0 57
0 0 60
0 0 62
0 3 67
0 8 69
61 67 49
96 84 61
154 138 122
133 105 81
111 91 67
140 126 95
141 116 94
82 72 50
80 74 50
63 66 36
63 65 33
70 67 37
79 79 45
87 85 48
80 85 45
74 82 42
73 86 43
75 84 45
66 73 36
58 68 31
60 69 32
61 71 31
74 78 36
74 81 38
59 67 29
62 72 33
58 70 30
56 67 29
48 64 21
38 82 75
10 57 93
3 13 67
0 0 47
0 0 43
0 0 45
0 0 45
0 0 45
0 0 45
0 0 45
0 0 45
0 0 45
0 0 45
0 0 45
0 0 45
0 0 45
0 0 45
0 0 44
0 0 44
0 0 45
0 0 45
0 0 45
0 0 43
0 0 44
0 0 44
165 174 190
225 238 255
225 238 255
225 238 255
225 238 255
225 238 255
225 238 255
225 238 255
225 238 255
225 238 255
225 238 255
225 238 255
225 238 255
225 238 255
225 238 255
225 238 255
225 238 255
225 238 255
225 238 255
225 238 255
225 238 255
225 238 255
225 238 255
225 238 255
225 238 255
225 238 255
225 238 255
225 238 255
225 238 255
225 238 255
225 238 255
225 238 255
225 238 255
225 238 255
225 238 255
225 238 255
225 238 255
225 238 255
225 238 255
225 238 255
225 238 255
225 238 255
225 238 255
225 238 255
225 238 255
225 238 255
225 238 255
225 238 255
225 238 255
225 238 255
225 238 255
225 238 255
225 238 255
225 238 255
225 238 255
225 238 255
225 238 255
225 238 255
225 238 255
225 238 255
225 238 255
225 238 255
225 238 255
225 238 255
225 238 255
225 238 255
225 238 255
225 238 255
225 238 255
225 238 255
225 237 255
225 237 255
225 237 255
225 237 255
225 237 255
225 237 255
225 237 255
225 237 255
225 237 255
225 237 255
225 237 255
225 237 255
225 237 255
225 237 255
225 237 255
225 237 255
225 237 255
225 237 255
225 237 255
225 237 255
225 237 255
225 237 255
225 237 255
225 237 255
225 237 255
225 237 255
225 237 255
225 237 255
225 237 255
225 237 255
225 237 255
225 237 255
225 237 255
225 237 255
225 237 255
225 237 255
225 237 255
225 237 255
225 237 255
225 237 255
225 237 255
225 237 255
225 237 255
225 237 255
225 237 255
225 237 255
225 238 255
225 238 255
225 238 255
225 238 255
225 238 255
225 238 255
225 238 255
225 238 255
225 238 255
225 238 255
225 238 255
225 238 255
225 238 255
225 238 255
225 238 255
225 238 255
225 238 255
225 238 255
225 238 255
225 238 255
225 238 255
225 238 255
225 238 255
225 238 255
225 238 255
225 238 255
225 238 255
225 238 255
225 238 255
225 238 255
225 238 255
225 238 255
225 238 255
225 238 255
225 238 255
225 238 255
225 238 255
225 238 255
225 238 255
225 238 255
225 238 255
225 238 255
225 238 255
225 238 255
225 238 255
225 238 255
225 238 255
225 238 255
225 238 255
225 238 255
225 238 255
225 238 255
225 238 255
225 238 255
225 238 255
225 238 255
225 238 255
225 238 255
225 238 255
225 238 255
225 238 255
225 238 255
225 238 255
225 238 255
225 238 255
225 238 255
225 238 255
225 238 255
225 238 255
225 238 255
225 238 255
225 238 255
225 238 255
225 238 255
225 238 255
225 238 255
225 238 255
225 238 255
225 238 255
225 238 255
225 238 255
225 238 255
225 238 255
225 238 255
225 238 255
225 238 255
225 238 255
225 238 255
225 238 255
225 238 255
225 238 255
225 238 255
225 238 255
225 238 255
225 238 255
225 238 255
225 238 255
225 238 255
225 238 255
225 238 255
225 238 255
225 238 255
225 238 255
225 238 255
225 238 255
225 238 255
225 238 255
225 238 255
225 238 255
223 235 253
95 101 115
0 0 42
0 0 42
0 0 42
0 0 42
0 0 42
0 0 42
0 0 42
0 0 42
0 0 42
0 0 42
0 0 42
0 0 42
0 0 42
0 0 42
0 0 42
0 0 42
0 0 42
0 0 42
0 0 42
0 0 42
0 0 42
0 0 42
0 0 42
0 0 42
0 0 42
0 0 42
0 0 42
0 0 42
0 0 42
0 0 42
0 0 42
0 0 42
0 0 42
0 0 42
0 0 42
0 0 42
0 0 42
0 0 42
0 0 42
0 0 42
0 0 42
0 0 42
0 0 42
0 0 42
0 0 42
0 0 42
0 0 42
0 0 42
0 0 42
0 0 42
0 0 42
0 0 42
0 0 42
0 0 42
0 0 42
0 0 42
0 0 42
0 0 42
0 0 42
0 0 42
0 0 42
0 0 42
0 0 42
0 0 42
0 0 42
0 0 42
0 0 42
0 0 42
0 0 42
0 0 42
0 0 42
0 0 42
0 0 42
0 0 42
0 0 42
0 0 42
0 0 42
0 0 42
0 0 42
0 0 42
0 0 42
0 0 42
0 0 42
0 0 42
0 0 42
0 0 42
0 0 42
0 0 42
0 0 42
0 0 42
0 0 42
0 0 42
0 0 42
0 0 42
0 0 42
0 0 42
0 0 42
0 0 42
0 0 42
0 0 42
0 0 42
0 0 42
0 0 42
0 0 42
0 0 42
0 0 45
0 0 47
0 0 50
0 0 49
0 0 51
0 0 53
0 0 57
0 0 60
0 0 59
0 0 59
0 0 63
0 0 62
0 5 70
10 13 78
68 69 47
126 118 102
177 165 156
122 99 74
89 78 46
122 107 79
121 101 75
115 103 79
80 74 48
65 66 37
74 72 43
82 79 48
96 93 59
85 86 48
85 89 51
80 85 49
73 84 45
69 77 37
70 79 38
64 72 34
65 73 36
62 71 29
68 75 31
67 79 35
55 66 25
55 68 27
60 73 31
60 68 25
49 66 56
11 44 93
0 12 77
0 2 51
0 0 44
0 0 45
0 0 45
0 0 45
0 0 45
0 0 46
0 0 46
0 0 45
0 0 45
0 0 45
0 0 45
0 0 45
0 0 45
0 0 45
0 0 43
0 0 44
0 0 45
0 0 45
0 0 44
0 0 45
0 0 45
121 128 143
221 234 252
225 238 255
225 238 255
225 238 255
225 238 255
225 238 255
225 238 255
225 238 255
225 238 255
225 238 255
225 238 255
225 238 255
225 238 255
225 238 255
225 238 255
225 238 255
225 238 255
225 238 255
225 238 255
225 238 255
225 238 255
225 238 255
225 238 255
225 238 255
225 238 255
225 238 255
225 238 255
225 238 255
225 238 255
225 238 255
225 238 255
225 238 255
225 238 255
225 238 255
225 238 255
225 238 255
225 238 255
225 238 255
225 238 255
225 238 255
225 238 255
225 238 255
225 238 255
225 238 255
225 238 255
225 238 255
225 238 255
225 238 255
225 238 255
225 238 255
225 238 255
225 238 255
225 238 255
225 238 255
225 238 255
225 238 255
225 238 255
225 238 255
225 238 255
225 238 255
225 238 255
225 238 255
225 238 255
225 238 255
225 238 255
225 238 255
225 238 255
225 238 255
225 238 255
225 238 255
225 238 255
225 238 255
225 238 255
225 238 255
225 238 255
225 238 255
225 238 255
225 238 255
225 238 255
225 238 255
225 238 255
225 238 255
225 238 255
225 238 255
225 238 255
225 238 255
225 238 255
225 238 255
225 238 255
225 238 255
225 238 255
225 238 255
225 238 255
225 238 255
225 238 255
225 238 255
225 238 255
225 238 255
225 238 255
225 238 255
225 238 255
225 238 255
225 238 255
225 238 255
225 238 255
225 238 255
225 238 255
225 238 255
225 238 255
225 237 255
225 237 255
225 237 255
225 237 255
225 238 255
225 238 255
225 238 255
225 238 255
225 238 255
225 238 255
225 238 255
225 238 255
225 238 255
225 238 255
225 238 255
225 238 255
225 238 255
225 238 255
225 238 255
225 238 255
225 238 255
225 238 255
225 238 255
225 238 255
225 238 255
225 238 255
225 238 255
225 238 255
225 238 255
225 238 255
225 238 255
225 238 255
225 238 255
225 238 255
225 238 255
225 238 255
225 238 255
225 238 255
225 238 255
225 238 255
225 238 255
225 238 255
225 238 255
225 238 255
225 238 255
225 238 255
225 238 255
225 238 255
225 238 255
225 238 255
225 238 255
225 238 255
225 238 255
225 238 255
225 238 255
225 238 255
225 238 255
225 238 255
225 238 255
225 238 255
225 238 255
225 238 255
225 238 255
225 238 255
225 238 255
225 238 255
225 238 255
225 238 255
225 238 255
225 238 255
225 238 255
225 238 255
225 238 255
225 238 255
225 238 255
225 238 255
225 238 255
225 238 255
225 238 255
225 238 255
225 238 255
225 238 255
225 238 255
225 238 255
225 238 255
225 238 255
225 238 255
225 238 255
225 238 255
225 238 255
225 238 255
225 238 255
225 238 255
225 238 255
225 238 255
225 238 255
225 238 255
225 238 255
225 238 255
225 238 255
225 238 255
225 238 255
225 238 255
225 238 255
225 238 255
225 238 255
225 238 255
225 238 255
225 238 255
225 238 255
225 238 255
225 238 255
225 238 255
225 238 255
225 238 255
225 238 255
225 238 255
212 224 241
59 62 79
0 0 42
0 0 42
0 0 42
0 0 42
0 0 42
0 0 42
0 0 42
0 0 42
0 0 42
0 0 42
0 0 42
0 0 42
0 0 42
0 0 42
0 0 42
0 0 42
0 0 42
0 0 42
0 0 42
0 0 42
0 0 42
0 0 42
0 0 42
0 0 42
0 0 42
0 0 42
0 0 42
0 0 42
0 0 42
0 0 42
0 0 42
0 0 42
0 0 42
0 0 42
0 0 42
0 0 42
0 0 42
0 0 42
0 0 42
0 0 42
0 0 42
0 0 42
0 0 42
0 0 42
0 0 42
0 0 42
0 0 42
0 0 42
0 0 42
0 0 42
0 0 42
0 0 42
0 0 42
0 0 42
0 0 42
0 0 42
0 0 42
0 0 42
0 0 42
0 0 42
0 0 42
0 0 42
0 0 42
0 0 42
0 0 42
0 0 42
0 0 42
0 0 42
0 0 42
0 0 42
0 0 42
0 0 42
0 0 42
0 0 42
0 0 42
0 0 42
0 0 42
0 0 42
0 0 42
0 0 42
0 0 42
0 0 42
0 0 42
0 0 42
0 0 42
0 0 42
0 0 42
0 0 42
0 0 42
0 0 42
0 0 42
0 0 42
0 0 42
0 0 42
0 0 42
0 0 43
0 0 44
0 0 44
0 0 43
0 0 44
0 0 43
0 0 42
0 0 44
0 0 45
0 0 49
0 0 51
0 0 52
0 0 51
0 0 51
0 0 56
0 0 62
0 0 64
0 0 62
0 0 63
0 0 66
0 0 67
0 0 68
10 15 66
62 61 42
118 114 100
163 153 146
118 100 77
103 93 59
135 116 88
137 120 91
99 87 62
74 70 43
71 67 39
74 71 42
85 78 49
100 95 62
84 88 51
85 88 54
82 88 50
75 84 44
61 71 29
74 84 40
69 78 36
61 73 30
62 73 28
68 77 37
62 73 31
59 71 28
57 71 29
54 67 26
43 63 46
20 57 95
0 15 79
0 2 56
0 0 48
0 0 46
0 0 47
0 0 47
0 0 48
0 0 48
0 0 48
0 0 47
0 0 46
0 0 46
0 0 45
0 0 45
0 0 45
0 0 45
0 0 44
0 0 43
0 0 45
0 0 45
0 0 45
0 0 45
0 0 45
63 67 84
211 223 240
225 238 255
225 238 255
225 238 255
225 238 255
225 238 255
225 238 255
225 238 255
225 238 255
225 238 255
225 238 255
225 238 255
225 238 255
225 238 255
225 238 255
225 238 255
225 238 255
225 238 255
225 238 255
225 238 255
225 238 255
225 238 255
225 238 255
225 238 255
225 238 255
225 238 255
225 238 255
225 238 255
225 238 255
225 238 255
225 238 255
225 238 255
225 238 255
225 238 255
225 238 255
225 238 255
225 238 255
225 238 255
225 238 255
225 238 255
225 238 255
225 238 255
225 238 255
225 238 255
225 238 255
225 238 255
225 238 255
225 238 255
225 238 255
225 238 255
225 238 255
225 238 255
225 238 255
225 238 255
225 238 255
225 238 255
225 238 255
225 238 255
225 238 255
225 238 255
225 238 255
225 238 255
225 238 255
225 238 255
225 238 255
225 238 255
225 238 255
225 238 255
225 238 255
225 238 255
225 238 255
225 238 255
225 238 255
225 238 255
225 238 255
225 238 255
225 238 255
225 238 255
225 238 255
225 238 255
225 238 255
225 238 255
225 238 255
225 238 255
225 238 255
225 238 255
225 238 255
225 238 255
225 238 255
225 238 255
225 238 255
225 238 255
225 238 255
225 238 255
225 238 255
225 238 255
225 238 255
225 238 255
225 238 255
225 238 255
225 238 255
225 238 255
225 238 255
225 238 255
225 238 255
225 238 255
225 238 255
225 238 255
225 238 255
225 238 255
225 238 255
225 238 255
225 238 255
225 238 255
225 238 255
225 238 255
225 238 255
225 238 255
225 238 255
225 238 255
225 238 255
225 238 255
225 238 255
225 238 255
225 238 255
225 238 255
225 238 255
225 238 255
225 238 255
225 238 255
225 238 255
225 238 255
225 238 255
225 238 255
225 238 255
225 238 255
225 238 255
225 238 255
225 238 255
225 238 255
225 238 255
225 238 255
225 238 255
225 238 255
225 238 255
225 238 255
225 238 255
225 238 255
225 238 255
225 238 255
225 238 255
225 238 255
225 238 255
225 238 255
225 238 255
225 238 255
225 238 255
225 238 255
225 238 255
225 238 255
225 238 255
225 238 255
225 238 255
225 238 255
225 238 255
225 238 255
225 238 255
225 238 255
225 238 255
225 238 255
225 238 255
225 238 255
225 238 255
225 238 255
225 238 255
225 238 255
225 238 255
225 238 255
225 238 255
225 238 255
225 238 255
225 238 255
225 238 255
225 238 255
225 238 255
225 238 255
225 238 255
225 238 255
225 238 255
225 238 255
225 238 255
225 238 255
225 238 255
225 238 255
225 238 255
225 238 255
225 238 255
225 238 255
225 238 255
225 238 255
225 238 255
225 238 255
225 238 255
225 238 255
225 238 255
225 238 255
225 238 255
225 238 255
225 238 255
225 238 255
225 238 255
225 238 255
225 238 255
225 238 255
225 238 255
225 238 255
225 238 255
225 238 255
225 238 255
225 238 255
225 238 255
225 238 255
225 238 255
225 238 255
225 238 255
225 238 255
225 238 255
225 238 255
192 203 219
22 23 49
0 0 42
0 0 42
0 0 42
0 0 42
0 0 42
0 0 42
0 0 42
0 0 42
0 0 42
0 0 42
0 0 42
0 0 42
0 0 42
0 0 42
0 0 42
0 0 42
0 0 42
0 0 42
0 0 42
0 0 42
0 0 42
0 0 42
0 0 42
0 0 42
0 0 42
0 0 42
0 0 42
0 0 42
0 0 42
0 0 42
0 0 42
0 0 42
0 0 42
0 0 42
0 0 42
0 0 42
0 0 42
0 0 42
0 0 42
0 0 42
0 0 42
0 0 42
0 0 42
0 0 42
0 0 42
0 0 42
0 0 42
0 0 42
0 0 42
0 0 42
0 0 42
0 0 42
0 0 42
0 0 42
0 0 42
0 0 42
0 0 42
0 0 42
0 0 42
0 0 42
0 0 42
0 0 42
0 0 42
0 0 42
0 0 42
0 0 42
0 0 42
0 0 42
0 0 42
0 0 42
0 0 42
0 0 42
0 0 42
0 0 42
0 0 42
0 0 42
0 0 42
0 0 42
0 0 42
0 0 43
0 0 43
0 0 42
0 0 42
0 0 42
0 0 42
0 0 42
0 0 42
0 0 42
0 0 42
0 0 42
0 0 42
0 0 42
0 0 42
0 0 42
0 0 43
0 0 45
0 0 45
0 0 45
0 0 44
0 0 45
0 0 45
0 0 47
0 0 49
0 0 52
0 0 54
0 0 53
0 0 52
0 0 54
0 0 60
0 0 65
0 0 66
0 0 65
0 0 67
0 4 70
0 10 73
0 3 67
10 21 65
56 59 29
129 128 122
178 171 172
103 91 70
107 94 68
105 89 64
109 94 69
74 68 41
78 73 46
87 78 51
86 81 51
100 91 61
92 89 57
81 86 51
88 89 54
83 87 48
74 84 40
43 51 9
58 67 27
64 78 38
58 75 30
68 76 33
72 79 36
71 79 35
62 74 31
52 66 24
39 57 43
16 57 96
0 21 78
0 4 59
0 0 49
0 0 47
0 0 47
0 0 47
0 0 48
0 0 50
0 0 52
0 0 49
0 0 47
0 0 48
0 0 47
0 0 47
0 0 46
0 0 46
0 0 45
0 0 45
0 0 45
0 0 45
0 0 45
0 0 45
0 0 45
0 0 46
200 211 228
225 238 255
225 238 255
225 238 255
225 238 255
225 238 255
225 238 255
225 238 255
225 238 255
225 238 255
225 238 255
225 238 255
225 238 255
225 238 255
225 238 255
225 238 255
225 238 255
225 238 255
225 238 255
225 238 255
225 238 255
225 238 255
225 238 255
225 238 255
225 238 255
225 238 255
225 238 255
225 238 255
225 238 255
225 238 255
225 238 255
225 238 255
225 238 255
225 238 255
225 238 255
225 238 255
225 238 255
225 238 255
225 238 255
225 238 255
225 238 255
225 238 255
225 238 255
225 238 255
225 238 255
225 238 255
225 238 255
225 238 255
225 238 255
225 238 255
225 238 255
225 238 255
225 238 255
225 238 255
225 238 255
225 238 255
225 238 255
225 238 255
225 238 255
225 238 255
225 238 255
225 238 255
225 238 255
225 238 255
225 238 255
225 238 255
225 238 255
225 238 255
225 238 255
225 238 255
225 238 255
225 238 255
225 238 255
225 238 255
225 238 255
225 238 255
225 238 255
225 238 255
225 238 255
225 238 255
225 238 255
225 238 255
225 238 255
225 238 255
225 238 255
225 238 255
225 238 255
225 238 255
225 238 255
225 238 255
225 238 255
225 238 255
225 238 255
225 238 255
225 238 255
225 238 255
225 238 255
225 238 255
225 238 255
225 238 255
225 238 255
225 238 255
225 238 255
225 238 255
225 238 255
225 238 255
225 238 255
225 238 255
225 238 255
225 238 255
225 238 255
225 238 255
225 238 255
225 238 255
225 238 255
225 238 255
225 238 255
225 238 255
225 238 255
225 238 255
225 238 255
225 238 255
225 238 255
225 238 255
225 238 255
225 238 255
225 238 255
225 238 255
225 238 255
225 238 255
225 238 255
225 238 255
225 238 255
225 238 255
225 238 255
225 238 255
225 238 255
225 238 255
225 238 255
225 238 255
225 238 255
225 238 255
225 238 255
225 238 255
225 238 255
225 238 255
225 238 255
225 238 255
225 238 255
225 238 255
225 238 255
225 238 255
225 238 255
225 238 255
225 238 255
225 238 255
225 238 255
225 238 255
225 238 255
225 238 255
225 238 255
225 238 255
225 238 255
225 238 255
225 238 255
225 238 255
225 238 255
225 238 255
225 238 255
225 238 255
225 238 255
225 238 255
225 238 255
225 238 255
225 238 255
225 238 255
225 238 255
225 238 255
225 238 255
225 238 255
225 238 255
225 238 255
225 238 255
225 238 255
225 238 255
225 238 255
225 238 255
225 238 255
225 238 255
225 238 255
225 238 255
225 238 255
225 238 255
225 238 255
225 238 255
225 238 255
225 238 255
225 238 255
225 238 255
225 238 255
225 238 255
225 238 255
225 238 255
225 238 255
225 238 255
225 238 255
225 238 255
225 238 255
225 238 255
225 238 255
225 238 255
225 238 255
225 238 255
225 238 255
225 238 255
225 238 255
225 238 255
225 238 255
225 238 255
225 238 255
225 238 255
225 238 255
225 238 255
225 238 255
225 238 255
225 238 255
225 238 255
225 238 255
225 238 255
225 238 255
161 170 185
0 0 43
0 0 44
0 0 42
0 0 43
0 0 43
0 0 42
0 0 42
0 0 42
0 0 42
0 0 42
0 0 42
0 0 42
0 0 42
0 0 42
0 0 42
0 0 42
0 0 42
0 0 42
0 0 42
0 0 42
0 0 42
0 0 42
0 0 42
0 0 42
0 0 42
0 0 41
0 0 42
0 0 42
0 0 42
0 0 42
0 0 42
0 0 42
0 0 42
0 0 42
0 0 42
0 0 42
0 0 42
0 0 42
0 0 42
0 0 42
0 0 42
0 0 42
0 0 42
0 0 42
0 0 42
0 0 42
0 0 42
0 0 42
0 0 42
0 0 42
0 0 42
0 0 42
0 0 42
0 0 42
0 0 42
0 0 42
0 0 42
0 0 42
0 0 42
0 0 42
0 0 42
0 0 42
0 0 42
0 0 42
0 0 42
0 0 42
0 0 42
0 0 42
0 0 42
0 0 42
0 0 42
0 0 42
0 0 42
0 0 42
0 0 42
0 0 43
0 0 42
0 0 42
0 0 43
0 0 45
0 0 45
0 0 44
0 0 44
0 0 44
0 0 42
0 0 42
0 0 42
0 0 42
0 0 42
0 0 44
0 0 44
0 0 44
0 0 44
0 0 44
0 0 43
0 0 45
0 0 45
0 0 45
0 0 44
0 0 44
0 0 46
0 0 48
0 0 50
0 0 53
0 0 53
0 0 53
0 0 54
0 0 57
0 0 61
0 0 68
0 0 68
0 0 68
0 5 69
0 15 76
0 18 80
0 13 79
24 43 51
56 59 25
136 142 141
179 177 182
87 80 58
91 82 57
85 77 53
79 73 48
67 69 40
90 81 53
102 90 59
94 88 56
98 89 57
87 82 49
78 82 46
78 81 44
77 81 40
73 83 39
58 68 28
43 52 14
48 74 37
67 79 30
73 78 35
67 80 32
63 74 31
55 69 26
41 64 53
10 47 101
0 22 79
0 6 57
0 0 50
0 0 48
0 0 49
0 0 48
0 0 48
0 0 50
0 0 52
0 0 51
0 0 49
0 0 49
0 0 50
0 0 51
0 0 47
0 0 47
0 0 45
0 0 45
0 0 45
0 0 46
0 0 47
0 0 45
0 0 46
0 0 47
140 148 164
225 238 255
225 238 255
225 238 255
225 238 255
225 238 255
225 238 255
225 238 255
225 238 255
225 238 255
225 238 255
225 238 255
225 238 255
225 238 255
225 238 255
225 238 255
225 238 255
225 238 255
225 238 255
225 238 255
225 238 255
225 238 255
225 238 255
225 238 255
225 238 255
225 238 255
225 238 255
225 238 255
225 238 255
225 238 255
225 238 255
225 238 255
225 238 255
225 238 255
225 238 255
225 238 255
225 238 255
225 238 255
225 238 255
225 238 255
225 238 255
225 238 255
225 238 255
225 238 255
225 238 255
225 238 255
225 238 255
225 238 255
225 238 255
225 238 255
225 238 255
225 238 255
225 238 255
225 238 255
225 238 255
225 238 255
225 238 255
225 238 255
225 238 255
225 238 255
225 238 255
225 238 255
225 238 255
225 238 255
225 238 255
225 238 255
225 238 255
225 238 255
225 238 255
225 238 255
225 238 255
225 238 255
225 238 255
225 238 255
225 238 255
225 238 255
225 238 255
225 238 255
225 238 255
225 238 255
225 238 255
225 238 255
225 238 255
225 238 255
225 238 255
225 238 255
225 238 255
225 238 255
225 238 255
225 238 255
225 238 255
225 238 255
225 238 255
225 238 255
225 238 255
225 238 255
225 238 255
225 238 255
225 238 255
225 238 255
225 238 255
225 238 255
225 238 255
225 238 255
225 238 255
225 238 255
225 238 255
225 238 255
225 238 255
225 238 255
225 238 255
225 238 255
225 238 255
225 238 255
225 238 255
225 238 255
225 238 255
225 238 255
225 238 255
225 238 255
225 238 255
225 238 255
225 238 255
225 238 255
225 238 255
225 238 255
225 238 255
225 238 255
225 238 255
225 238 255
225 238 255
225 238 255
225 238 255
225 238 255
225 238 255
225 238 255
225 238 255
225 238 255
225 238 255
225 238 255
225 238 255
225 238 255
225 238 255
225 238 255
225 238 255
225 238 255
225 238 255
225 238 255
225 238 255
225 238 255
225 238 255
225 238 255
225 238 255
225 238 255
225 238 255
225 238 255
225 238 255
225 238 255
225 238 255
225 238 255
225 238 255
225 238 255
225 238 255
225 238 255
225 238 255
225 238 255
225 238 255
225 238 255
225 238 255
225 238 255
225 238 255
225 238 255
225 238 255
225 238 255
225 238 255
225 238 255
225 238 255
225 238 255
225 238 255
225 238 255
225 238 255
225 238 255
225 238 255
225 238 255
225 238 255
225 238 255
225 238 255
225 238 255
225 238 255
225 238 255
225 238 255
225 238 255
225 238 255
225 238 255
225 238 255
225 238 255
225 238 255
225 238 255
225 238 255
225 238 255
225 238 255
225 238 255
225 238 255
225 238 255
225 238 255
225 238 255
225 238 255
225 238 255
225 238 255
225 238 255
225 238 255
225 238 255
225 238 255
225 238 255
225 238 255
225 238 255
225 238 255
225 238 255
225 238 255
225 238 255
225 238 255
225 238 255
225 238 255
225 238 255
225 238 255
225 238 255
225 238 255
225 238 255
225 238 255
225 238 255
225 238 255
223 235 253
135 142 157
0 0 45
0 0 45
0 0 44
0 0 43
0 0 42
0 0 42
0 0 42
0 0 42
0 0 42
0 0 43
0 0 42
0 0 42
0 0 42
0 0 42
0 0 42
0 0 42
0 0 42
0 0 42
0 0 42
0 0 42
0 0 42
0 0 42
0 0 42
0 0 42
0 0 42
0 0 42
0 0 42
0 0 42
0 0 42
0 0 42
0 0 42
0 0 42
0 0 42
0 0 42
0 0 42
0 0 42
0 0 42
0 0 42
0 0 42
0 0 42
0 0 42
0 0 42
0 0 42
0 0 42
0 0 42
0 0 42
0 0 42
0 0 42
0 0 42
0 0 42
0 0 42
0 0 42
0 0 42
0 0 42
0 0 42
0 0 42
0 0 42
0 0 42
0 0 42
0 0 42
0 0 42
0 0 42
0 0 42
0 0 42
0 0 42
0 0 42
0 0 42
0 0 42
0 0 42
0 0 42
0 0 42
0 0 42
0 0 42
0 0 45
0 0 45
0 0 45
0 0 45
0 0 45
0 0 44
0 0 45
0 0 45
0 0 45
0 0 45
0 0 45
0 0 45
0 0 45
0 0 45
0 0 45
0 0 45
0 0 45
0 0 45
0 0 45
0 0 45
0 0 45
0 0 45
0 0 45
0 0 45
0 0 45
0 0 45
0 0 46
0 0 48
0 0 50
0 0 53
0 0 55
0 0 55
0 0 56
0 0 58
0 0 63
0 6 70
0 13 74
0 17 76
0 20 79
0 26 84
0 18 84
18 31 71
44 61 22
63 64 45
164 170 178
165 163 159
84 74 52
80 75 46
78 73 52
75 69 45
79 76 45
97 84 57
93 86 55
92 85 54
80 77 43
73 76 39
66 72 37
71 77 42
70 77 36
70 80 36
65 76 33
57 70 36
30 99 111
43 92 94
51 74 36
52 70 42
52 69 43
39 70 72
11 44 96
0 18 76
0 1 56
0 0 49
0 0 50
0 0 52
0 0 53
0 0 51
0 0 50
0 0 51
0 0 53
0 0 52
0 0 52
0 0 52
0 0 54
0 0 53
0 0 48
0 0 47
0 0 45
0 0 45
0 0 46
0 0 47
0 0 48
0 0 48
0 0 49
135 142 159
223 235 253
225 238 255
225 238 255
225 238 255
225 238 255
225 238 255
225 238 255
225 238 255
225 238 255
225 238 255
225 238 255
225 238 255
225 238 255
225 238 255
225 238 255
225 238 255
225 238 255
225 238 255
225 238 255
225 238 255
225 238 255
225 238 255
225 238 255
225 238 255
225 238 255
225 238 255
225 238 255
225 238 255
225 238 255
225 238 255
225 238 255
225 238 255
225 238 255
225 238 255
225 238 255
225 238 255
225 238 255
225 238 255
225 238 255
225 238 255
225 238 255
225 238 255
225 238 255
225 238 255
225 238 255
225 238 255
225 238 255
225 238 255
225 238 255
225 238 255
225 238 255
225 238 255
225 238 255
225 238 255
225 238 255
225 238 255
225 238 255
225 238 255
225 238 255
225 238 255
225 238 255
225 238 255
225 238 255
225 238 255
225 238 255
225 238 255
225 238 255
225 238 255
225 238 255
225 238 255
225 238 255
225 238 255
225 238 255
225 238 255
225 238 255
225 238 255
225 238 255
225 238 255
225 238 255
225 238 255
225 238 255
225 238 255
225 238 255
225 238 255
225 238 255
225 238 255
225 238 255
225 238 255
225 238 255
225 238 255
225 238 255
225 238 255
225 238 255
225 238 255
225 238 255
225 238 255
225 238 255
225 238 255
225 238 255
225 238 255
225 238 255
225 238 255
225 238 255
225 238 255
225 238 255
225 238 255
225 238 255
225 238 255
225 238 255
225 238 255
225 238 255
225 238 255
225 238 255
225 238 255
225 238 255
225 238 255
225 238 255
225 238 255
225 238 255
225 238 255
225 238 255
225 238 255
225 238 255
225 238 255
225 238 255
225 238 255
225 238 255
225 238 255
225 238 255
225 238 255
225 238 255
225 238 255
225 238 255
225 238 255
225 238 255
225 238 255
225 238 255
225 238 255
225 238 255
225 238 255
225 238 255
225 238 255
225 238 255
225 238 255
225 238 255
225 238 255
225 238 255
225 238 255
225 238 255
225 238 255
225 238 255
225 238 255
225 238 255
225 238 255
225 238 255
225 238 255
225 238 255
225 238 255
225 238 255
225 238 255
225 238 255
225 238 255
225 238 255
225 238 255
225 238 255
225 238 255
225 238 255
225 238 255
225 238 255
225 238 255
225 238 255
225 238 255
225 238 255
225 238 255
225 238 255
225 238 255
225 238 255
225 238 255
225 238 255
225 238 255
225 238 255
225 238 255
225 238 255
225 238 255
225 238 255
225 238 255
225 238 255
225 238 255
225 238 255
225 238 255
225 238 255
225 238 255
225 238 255
225 238 255
225 238 255
225 238 255
225 238 255
225 238 255
225 238 255
225 238 255
225 238 255
225 238 255
225 238 255
225 238 255
225 238 255
225 238 255
225 238 255
225 238 255
225 238 255
225 238 255
225 238 255
225 238 255
225 238 255
225 238 255
225 238 255
225 238 255
225 238 255
225 238 255
225 238 255
225 238 255
225 238 255
225 238 255
225 238 255
225 238 255
225 238 255
225 238 255
225 238 255
225 238 255
225 238 255
225 238 255
225 238 255
225 238 255
218 230 248
95 101 116
0 0 45
0 0 45
0 0 44
0 0 42
0 0 42
0 0 42
0 0 41
0 0 42
0 0 43
0 0 43
0 0 42
0 0 42
0 0 42
0 0 42
0 0 42
0 0 42
0 0 42
0 0 42
0 0 42
0 0 42
0 0 42
0 0 42
0 0 42
0 0 42
0 0 42
0 0 42
0 0 45
0 0 44
0 0 43
0 0 43
0 0 43
0 0 42
0 0 42
0 0 42
0 0 42
0 0 42
0 0 42
0 0 42
0 0 42
0 0 42
0 0 42
0 0 42
0 0 42
0 0 42
0 0 42
0 0 42
0 0 42
0 0 42
0 0 42
0 0 42
0 0 42
0 0 42
0 0 42
0 0 42
0 0 42
0 0 42
0 0 42
0 0 42
0 0 42
0 0 42
0 0 42
0 0 42
0 0 42
0 0 42
0 0 42
0 0 42
0 0 42
0 0 42
0 0 42
0 0 43
0 0 44
0 0 45
0 0 45
0 0 45
0 0 45
0 0 45
0 0 45
0 0 43
0 0 43
0 0 44
0 0 45
0 0 45
0 0 45
0 0 45
0 0 45
0 0 45
0 0 45
0 0 45
0 0 45
0 0 45
0 0 45
0 0 45
0 0 45
0 0 47
0 0 48
0 0 48
0 0 47
0 0 48
0 0 50
0 0 50
0 0 53
0 0 53
0 0 53
0 0 53
0 0 56
0 0 59
0 8 68
0 13 74
0 17 80
0 26 88
0 25 88
0 25 86
0 14 82
34 52 38
47 60 20
120 123 123
210 215 224
122 116 97
88 77 55
80 76 48
81 73 53
82 77 49
90 83 53
88 79 52
89 86 54
81 81 46
71 75 37
65 74 36
46 56 19
48 56 20
58 67 25
58 69 27
59 70 28
61 75 38
40 80 77
9 87 133
10 97 129
4 78 119
5 57 102
0 38 96
0 16 72
0 1 55
0 0 48
0 0 49
0 0 52
0 0 53
0 0 53
0 0 51
0 0 50
0 0 52
0 0 54
0 0 54
0 0 55
0 0 57
0 0 58
0 0 53
0 0 49
0 0 47
0 0 47
0 0 48
0 0 48
0 0 48
0 0 49
0 0 50
90 95 113
217 229 247
225 238 255
225 238 255
225 238 255
225 238 255
225 238 255
225 238 255
225 238 255
225 238 255
225 238 255
225 238 255
225 238 255
225 238 255
225 238 255
225 238 255
225 238 255
225 238 255
225 238 255
225 238 255
225 238 255
225 238 255
225 238 255
225 238 255
225 238 255
225 238 255
225 238 255
225 238 255
225 238 255
225 238 255
225 238 255
225 238 255
225 238 255
225 238 255
225 238 255
225 238 255
225 238 255
225 238 255
225 238 255
225 238 255
225 238 255
225 238 255
225 238 255
225 238 255
225 238 255
225 238 255
225 238 255
225 238 255
225 238 255
225 238 255
225 238 255
225 238 255
225 238 255
225 238 255
225 238 255
225 238 255
225 238 255
225 238 255
225 238 255
225 238 255
225 238 255
225 238 255
225 238 255
225 238 255
225 238 255
225 238 255
225 238 255
225 238 255
225 238 255
225 238 255
225 238 255
225 238 255
225 238 255
225 238 255
225 238 255
225 238 255
225 238 255
225 238 255
225 238 255
225 238 255
225 238 255
225 238 255
225 238 255
225 238 255
225 238 255
225 238 255
225 238 255
225 238 255
225 238 255
225 238 255
225 238 255
225 238 255
225 238 255
225 238 255
225 238 255
225 238 255
225 238 255
225 238 255
225 238 255
225 238 255
225 238 255
225 238 255
225 238 255
225 238 255
225 238 255
225 238 255
225 238 255
225 238 255
225 238 255
225 238 255
225 238 255
225 238 255
225 238 255
225 238 255
225 238 255
225 238 255
225 238 255
225 238 255
225 238 255
225 238 255
225 238 255
225 238 255
225 238 255
225 238 255
225 238 255
225 238 255
225 238 255
225 238 255
225 238 255
225 238 255
225 238 255
225 238 255
225 238 255
225 238 255
225 238 255
225 238 255
225 238 255
225 238 255
225 238 255
225 238 255
225 238 255
225 238 255
225 238 255
225 238 255
225 238 255
225 238 255
225 238 255
225 238 255
225 238 255
225 238 255
225 238 255
225 238 255
225 238 255
225 238 255
225 238 255
225 238 255
225 238 255
225 238 255
225 238 255
225 238 255
225 238 255
225 238 255
225 238 255
225 238 255
225 238 255
225 238 255
225 238 255
225 238 255
225 238 255
225 238 255
225 238 255
225 238 255
225 238 255
225 238 255
225 238 255
225 238 255
225 238 255
225 238 255
225 238 255
225 238 255
225 238 255
225 238 255
225 238 255
225 238 255
225 238 255
225 238 255
225 238 255
225 238 255
225 238 255
225 238 255
225 238 255
225 238 255
225 238 255
225 238 255
225 238 255
225 238 255
225 238 255
225 238 255
225 238 255
225 238 255
225 238 255
225 238 255
225 238 255
225 238 255
225 238 255
225 238 255
225 238 255
225 238 255
225 238 255
225 238 255
225 238 255
225 238 255
225 238 255
225 238 255
225 238 255
225 238 255
225 238 255
225 238 255
225 238 255
225 238 255
225 238 255
225 238 255
225 238 255
225 238 255
225 238 255
225 238 255
225 238 255
225 238 255
225 238 255
225 238 255
225 238 255
225 238 255
225 238 255
225 238 255
225 238 255
206 218 235
50 53 72
0 0 45
0 0 45
0 0 44
0 0 43
0 0 43
0 0 43
0 0 43
0 0 43
0 0 42
0 0 42
0 0 42
0 0 42
0 0 42
0 0 42
0 0 42
0 0 42
0 0 42
0 0 42
0 0 42
0 0 42
0 0 42
0 0 42
0 0 42
0 0 42
0 0 43
0 0 45
0 0 45
0 0 45
0 0 45
0 0 45
0 0 44
0 0 42
0 0 42
0 0 42
0 0 42
0 0 42
0 0 42
0 0 42
0 0 42
0 0 42
0 0 42
0 0 42
0 0 42
0 0 42
0 0 42
0 0 42
0 0 42
0 0 42
0 0 42
0 0 42
0 0 42
0 0 42
0 0 42
0 0 42
0 0 42
0 0 42
0 0 42
0 0 42
0 0 42
0 0 42
0 0 42
0 0 42
0 0 42
0 0 42
0 0 42
0 0 42
0 0 42
0 0 42
0 0 42
0 0 42
0 0 42
0 0 45
0 0 45
0 0 45
0 0 45
0 0 45
0 0 45
0 0 45
0 0 45
0 0 45
0 0 45
0 0 45
0 0 45
0 0 45
0 0 45
0 0 45
0 0 45
0 0 45
0 0 45
0 0 45
0 0 45
0 0 46
0 0 48
0 0 48
0 0 48
0 0 48
0 0 48
0 0 50
0 0 50
0 0 53
0 0 54
0 0 56
0 0 57
0 0 59
0 0 64
0 11 71
0 9 75
0 21 84
0 27 89
0 23 85
0 18 84
11 26 61
40 58 11
61 68 48
192 197 206
162 161 156
101 87 56
85 75 45
76 73 48
83 78 53
84 76 46
86 78 49
76 74 45
77 79 45
72 77 40
64 73 35
59 70 32
49 60 21
46 58 17
51 63 24
53 65 24
51 60 22
50 62 26
38 92 86
7 104 135
0 78 119
0 41 103
0 23 84
0 6 67
0 0 55
0 0 49
0 0 49
0 0 48
0 0 51
0 0 53
0 0 54
0 0 54
0 0 53
0 0 56
0 0 58
0 0 56
0 0 59
0 0 62
0 0 57
0 0 52
0 0 49
0 0 45
0 0 48
0 0 50
0 0 51
0 0 52
0 0 53
67 71 92
205 217 234
225 238 255
225 238 255
225 238 255
225 238 255
225 238 255
225 238 255
225 238 255
225 238 255
225 238 255
225 238 255
225 238 255
225 238 255
225 238 255
225 238 255
225 238 255
225 238 255
225 238 255
225 238 255
225 238 255
225 238 255
225 238 255
225 238 255
225 238 255
225 238 255
225 238 255
225 238 255
225 238 255
225 238 255
225 238 255
225 238 255
225 238 255
225 238 255
225 238 255
225 238 255
225 238 255
225 238 255
225 238 255
225 238 255
225 238 255
225 238 255
225 238 255
225 238 255
225 238 255
225 238 255
225 238 255
225 238 255
225 238 255
225 238 255
225 238 255
225 238 255
225 238 255
225 238 255
225 238 255
225 238 255
225 238 255
225 238 255
225 238 255
225 238 255
225 238 255
225 238 255
225 238 255
225 238 255
225 238 255
225 238 255
225 238 255
225 238 255
225 238 255
225 238 255
225 238 255
225 238 255
225 238 255
225 238 255
225 238 255
225 238 255
225 238 255
225 238 255
225 238 255
225 238 255
225 238 255
225 238 255
225 238 255
225 238 255
225 238 255
225 238 255
225 238 255
225 238 255
225 238 255
225 238 255
225 238 255
225 238 255
225 238 255
225 238 255
225 238 255
225 238 255
225 238 255
225 238 255
225 238 255
225 238 255
225 238 255
225 238 255
225 238 255
225 238 255
225 238 255
225 238 255
225 238 255
225 238 255
225 238 255
225 238 255
225 238 255
225 238 255
225 238 255
225 238 255
225 238 255
225 238 255
225 238 255
225 238 255
225 238 255
225 238 255
225 238 255
225 238 255
225 238 255
225 238 255
225 238 255
225 238 255
225 238 255
225 238 255
225 238 255
225 238 255
225 238 255
225 238 255
225 238 255
225 238 255
225 238 255
225 238 255
225 238 255
225 238 255
225 238 255
225 238 255
225 238 255
225 238 255
225 238 255
225 238 255
225 238 255
225 238 255
225 238 255
225 238 255
225 238 255
225 238 255
225 238 255
225 238 255
225 238 255
225 238 255
225 238 255
225 238 255
225 238 255
225 238 255
225 238 255
225 238 255
225 238 255
225 238 255
225 238 255
225 238 255
225 238 255
225 238 255
225 238 255
225 238 255
225 238 255
225 238 255
225 238 255
225 238 255
225 238 255
225 238 255
225 238 255
225 238 255
225 238 255
225 238 255
225 238 255
225 238 255
225 238 255
225 238 255
225 238 255
225 238 255
225 238 255
225 238 255
225 238 255
225 238 255
225 238 255
225 238 255
225 238 255
225 238 255
225 238 255
225 238 255
225 238 255
225 238 255
225 238 255
225 238 255
225 238 255
225 238 255
225 238 255
225 238 255
225 238 255
225 238 255
225 238 255
225 238 255
225 238 255
225 238 255
225 238 255
225 238 255
225 238 255
225 238 255
225 238 255
225 238 255
225 238 255
225 238 255
225 238 255
225 238 255
225 238 255
225 238 255
225 238 255
225 238 255
225 238 255
225 238 255
225 238 255
225 238 255
225 238 255
225 238 255
225 238 255
225 238 255
225 238 255
225 238 255
225 238 255
225 238 255
225 238 255
225 238 255
225 238 255
201 213 229
39 41 64
0 0 45
0 0 45
0 0 45
0 0 45
0 0 45
0 0 45
0 0 45
0 0 43
0 0 42
0 0 42
0 0 42
0 0 42
0 0 42
0 0 42
0 0 42
0 0 42
0 0 42
0 0 42
0 0 42
0 0 42
0 0 44
0 0 44
0 0 43
0 0 43
0 0 45
0 0 45
0 0 45
0 0 45
0 0 45
0 0 45
0 0 42
0 0 42
0 0 42
0 0 42
0 0 42
0 0 42
0 0 42
0 0 42
0 0 42
0 0 42
0 0 42
0 0 42
0 0 42
0 0 42
0 0 42
0 0 42
0 0 42
0 0 42
0 0 42
0 0 42
0 0 42
0 0 42
0 0 42
0 0 42
0 0 42
0 0 42
0 0 42
0 0 42
0 0 42
0 0 42
0 0 42
0 0 42
0 0 42
0 0 42
0 0 42
0 0 42
0 0 42
0 0 42
0 0 44
0 0 44
0 0 45
0 0 45
0 0 45
0 0 45
0 0 45
0 0 45
0 0 45
0 0 45
0 0 45
0 0 45
0 0 45
0 0 45
0 0 45
0 0 45
0 0 45
0 0 45
0 0 45
0 0 45
0 0 45
0 0 45
0 0 45
0 0 47
0 0 48
0 0 48
0 0 48
0 0 48
0 0 50
0 0 51
0 0 53
0 0 59
0 0 62
0 0 62
0 0 63
0 8 69
0 14 73
0 12 76
0 21 83
0 18 81
0 11 75
6 20 63
36 52 23
45 55 21
154 159 159
222 225 233
114 105 78
106 90 58
90 82 51
82 77 51
93 85 59
92 81 53
73 70 44
70 71 42
73 75 41
75 79 42
75 82 42
62 70 32
53 62 27
48 57 19
41 52 12
42 55 18
41 54 13
47 62 19
35 79 82
6 61 115
0 36 95
0 22 81
0 6 67
0 0 60
0 0 55
0 0 55
0 0 52
0 0 51
0 0 54
0 0 59
0 0 60
0 0 57
0 0 58
0 0 60
0 0 57
0 0 58
0 0 61
0 0 59
0 0 54
0 0 55
0 0 50
0 0 48
0 0 52
0 0 53
0 0 55
0 0 54
50 53 79
195 206 223
225 238 255
225 238 255
225 238 255
225 238 255
225 238 255
225 238 255
225 238 255
225 238 255
225 238 255
225 238 255
225 238 255
225 238 255
225 238 255
225 238 255
225 238 255
225 238 255
225 238 255
225 238 255
225 238 255
225 238 255
225 238 255
225 238 255
225 238 255
225 238 255
225 238 255
225 238 255
225 238 255
225 238 255
225 238 255
225 238 255
225 238 255
225 238 255
225 238 255
225 238 255
225 238 255
225 238 255
225 238 255
225 238 255
225 238 255
225 238 255
225 238 255
225 238 255
225 238 255
225 238 255
225 238 255
225 238 255
225 238 255
225 238 255
225 238 255
225 238 255
225 238 255
225 238 255
225 238 255
225 238 255
225 238 255
225 238 255
225 238 255
225 238 255
225 238 255
225 238 255
225 238 255
225 238 255
225 238 255
225 238 255
225 238 255
225 238 255
225 238 255
225 238 255
225 238 255
225 238 255
225 238 255
225 238 255
225 238 255
225 238 255
225 238 255
225 238 255
225 238 255
225 238 255
225 238 255
225 238 255
225 238 255
225 238 255
225 238 255
225 238 255
225 238 255
225 238 255
225 238 255
225 238 255
225 238 255
225 238 255
225 238 255
225 238 255
225 238 255
225 238 255
225 238 255
225 238 255
225 238 255
225 238 255
225 238 255
225 238 255
225 238 255
225 238 255
225 238 255
225 238 255
225 238 255
225 238 255
225 238 255
225 238 255
225 238 255
225 238 255
225 238 255
225 238 255
225 238 255
225 238 255
225 238 255
225 238 255
225 238 255
225 238 255
225 238 255
225 238 255
225 238 255
225 238 255
225 238 255
225 238 255
225 238 255
225 238 255
225 238 255
225 238 255
225 238 255
225 238 255
225 238 255
225 238 255
225 238 255
225 238 255
225 238 255
225 238 255
225 238 255
225 238 255
225 238 255
225 238 255
225 238 255
225 238 255
225 238 255
225 238 255
225 238 255
225 238 255
225 238 255
225 238 255
225 238 255
225 238 255
225 238 255
225 238 255
225 238 255
225 238 255
225 238 255
225 238 255
225 238 255
225 238 255
225 238 255
225 238 255
225 238 255
225 238 255
225 238 255
225 238 255
225 238 255
225 238 255
225 238 255
225 238 255
225 238 255
225 238 255
225 238 255
225 238 255
225 238 255
225 238 255
225 238 255
225 238 255
225 238 255
225 238 255
225 238 255
225 238 255
225 238 255
225 238 255
225 238 255
225 238 255
225 238 255
225 238 255
225 238 255
225 238 255
225 238 255
225 238 255
225 238 255
225 238 255
225 238 255
225 238 255
225 238 255
225 238 255
225 238 255
225 238 255
225 238 255
225 238 255
225 238 255
225 238 255
225 238 255
225 238 255
225 238 255
225 238 255
225 238 255
225 238 255
225 238 255
225 238 255
225 238 255
225 238 255
225 238 255
225 238 255
225 238 255
225 238 255
225 238 255
225 238 255
225 238 255
225 238 255
225 238 255
225 238 255
225 238 255
225 238 255
225 238 255
225 238 255
225 238 255
225 238 255
225 238 255
225 238 255
225 238 255
225 238 255
225 238 255
225 238 255
225 238 255
225 238 255
225 238 255
192 203 220
39 41 64
0 0 45
0 0 45
0 0 45
0 0 45
0 0 45
0 0 44
0 0 44
0 0 44
0 0 43
0 0 45
0 0 44
0 0 42
0 0 42
0 0 42
0 0 43
0 0 42
0 0 42
0 0 42
0 0 42
0 0 44
0 0 45
0 0 45
0 0 45
0 0 45
0 0 45
0 0 45
0 0 45
0 0 45
0 0 44
0 0 43
0 0 43
0 0 42
0 0 43
0 0 43
0 0 42
0 0 42
0 0 42
0 0 43
0 0 42
0 0 42
0 0 42
0 0 42
0 0 42
0 0 42
0 0 42
0 0 42
0 0 42
0 0 42
0 0 42
0 0 42
0 0 42
0 0 42
0 0 42
0 0 42
0 0 42
0 0 42
0 0 42
0 0 42
0 0 42
0 0 42
0 0 42
0 0 42
0 0 42
0 0 42
0 0 42
0 0 42
0 0 42
0 0 45
0 0 45
0 0 45
0 0 45
0 0 45
0 0 45
0 0 45
0 0 45
0 0 45
0 0 45
0 0 45
0 0 45
0 0 45
0 0 45
0 0 45
0 0 45
0 0 45
0 0 48
0 0 48
0 0 48
0 0 48
0 0 47
0 0 46
0 0 47
0 0 48
0 0 48
0 0 48
0 0 48
0 0 50
0 0 51
0 0 55
0 0 60
0 0 61
0 0 63
0 0 64
0 5 69
0 5 73
0 9 75
0 19 81
0 11 76
0 6 68
28 47 30
45 57 17
101 105 104
207 214 222
184 182 185
110 95 66
103 89 57
93 85 56
87 83 54
90 81 52
80 72 44
66 64 37
67 68 38
73 74 40
73 77 45
73 77 39
74 79 39
69 76 39
58 67 29
54 64 25
50 64 24
49 64 21
46 60 27
24 53 80
0 37 95
0 17 77
0 4 69
0 0 61
0 0 56
0 0 58
0 0 58
0 0 54
0 0 55
0 0 59
0 0 61
0 0 59
0 0 58
0 0 60
0 0 59
0 0 58
0 0 59
0 0 61
0 0 55
0 0 56
0 0 56
0 0 54
0 0 52
0 0 55
0 0 57
0 0 55
39 41 72
186 196 213
225 238 255
225 238 255
225 238 255
225 238 255
225 238 255
225 238 255
225 238 255
225 238 255
225 238 255
225 238 255
225 238 255
225 238 255
225 238 255
225 238 255
225 238 255
225 238 255
225 238 255
225 238 255
225 238 255
225 238 255
225 238 255
225 238 255
225 238 255
225 238 255
225 238 255
225 238 255
225 238 255
225 238 255
225 238 255
225 238 255
225 238 255
225 238 255
225 238 255
225 238 255
225 238 255
225 238 255
225 238 255
225 238 255
225 238 255
225 238 255
225 238 255
225 238 255
225 238 255
225 238 255
225 238 255
225 238 255
225 238 255
225 238 255
225 238 255
225 238 255
225 238 255
225 238 255
225 238 255
225 238 255
225 238 255
225 238 255
225 238 255
225 238 255
225 238 255
225 238 255
225 238 255
225 238 255
225 238 255
225 238 255
225 238 255
225 238 255
225 238 255
225 238 255
225 238 255
225 238 255
225 238 255
225 238 255
225 238 255
225 238 255
225 238 255
225 238 255
225 238 255
225 238 255
225 238 255
225 238 255
225 238 255
225 238 255
225 238 255
225 238 255
225 238 255
225 238 255
225 238 255
225 238 255
225 238 255
225 238 255
225 238 255
225 238 255
225 238 255
225 238 255
225 238 255
225 238 255
225 238 255
225 238 255
225 238 255
225 238 255
225 238 255
225 238 255
225 238 255
225 238 255
225 238 255
225 238 255
225 238 255
225 238 255
225 238 255
225 238 255
225 238 255
225 238 255
225 238 255
225 238 255
225 238 255
225 238 255
225 238 255
225 238 255
225 238 255
225 238 255
225 238 255
225 238 255
225 238 255
225 238 255
225 238 255
225 238 255
225 238 255
225 238 255
225 238 255
225 238 255
225 238 255
225 238 255
225 238 255
225 238 255
225 238 255
225 238 255
225 238 255
225 238 255
225 238 255
225 238 255
225 238 255
225 238 255
225 238 255
225 238 255
225 238 255
225 238 255
225 238 255
225 238 255
225 238 255
225 238 255
225 238 255
225 238 255
225 238 255
225 238 255
225 238 255
225 238 255
225 238 255
225 238 255
225 238 255
225 238 255
225 238 255
225 238 255
225 238 255
225 238 255
225 238 255
225 238 255
225 238 255
225 238 255
225 238 255
225 238 255
225 238 255
225 238 255
225 238 255
225 238 255
225 238 255
225 238 255
225 238 255
225 238 255
225 238 255
225 238 255
225 238 255
225 238 255
225 238 255
225 238 255
225 238 255
225 238 255
225 238 255
225 238 255
225 238 255
225 238 255
225 238 255
225 238 255
225 238 255
225 238 255
225 238 255
225 238 255
225 238 255
225 238 255
225 238 255
225 238 255
225 238 255
225 238 255
225 238 255
225 238 255
225 238 255
225 238 255
225 238 255
225 238 255
225 238 255
225 238 255
225 238 255
225 238 255
225 238 255
225 238 255
225 238 255
225 238 255
225 238 255
225 238 255
225 238 255
225 238 255
225 238 255
225 238 255
225 238 255
225 238 255
225 238 255
225 238 255
225 238 255
225 238 255
225 238 255
225 238 255
225 238 255
225 238 255
225 238 255
225 238 255
225 238 255
225 238 255
225 238 255
225 238 255
225 238 255
182 192 208
31 33 59
0 0 46
0 0 46
0 0 46
0 0 45
0 0 45
0 0 44
0 0 46
0 0 45
0 0 45
0 0 45
0 0 44
0 0 42
0 0 42
0 0 44
0 0 45
0 0 45
0 0 45
0 0 44
0 0 44
0 0 45
0 0 45
0 0 45
0 0 45
0 0 45
0 0 45
0 0 45
0 0 45
0 0 45
0 0 45
0 0 45
0 0 42
0 0 42
0 0 44
0 0 42
0 0 42
0 0 42
0 0 42
0 0 45
0 0 43
0 0 42
0 0 42
0 0 42
0 0 42
0 0 42
0 0 42
0 0 44
0 0 45
0 0 43
0 0 42
0 0 42
0 0 42
0 0 42
0 0 42
0 0 44
0 0 42
0 0 43
0 0 44
0 0 44
0 0 43
0 0 42
0 0 42
0 0 42
0 0 42
0 0 42
0 0 42
0 0 42
0 0 44
0 0 43
0 0 45
0 0 45
0 0 45
0 0 45
0 0 45
0 0 43
0 0 42
0 0 43
0 0 44
0 0 44
0 0 45
0 0 45
0 0 45
0 0 45
0 0 45
0 0 46
0 0 47
0 0 48
0 0 48
0 0 48
0 0 48
0 0 48
0 0 48
0 0 48
0 0 48
0 0 50
0 0 50
0 0 51
0 0 54
0 0 57
0 0 59
0 0 62
0 0 65
0 0 69
0 3 67
0 15 71
0 20 87
0 16 75
17 31 47
40 52 19
44 54 27
161 164 168
166 161 154
123 114 91
98 83 57
90 79 50
84 77 51
72 68 41
84 78 50
76 70 42
69 68 40
71 70 43
68 70 34
69 68 36
68 73 38
71 81 36
62 72 30
59 70 31
62 70 31
55 66 30
46 64 35
24 52 88
0 27 91
0 16 76
0 4 69
0 0 63
0 0 57
0 0 59
0 0 62
0 0 62
0 0 61
0 0 59
0 0 61
0 0 58
0 0 58
0 0 60
0 0 62
0 0 60
0 0 60
0 0 61
0 0 61
0 0 58
0 0 59
0 0 59
0 0 59
0 0 58
0 0 59
0 0 58
0 0 60
177 187 205
225 238 255
225 238 255
225 238 255
225 238 255
225 238 255
225 238 255
225 238 255
225 238 255
225 238 255
225 238 255
225 238 255
225 238 255
225 238 255
225 238 255
225 238 255
225 238 255
225 238 255
225 238 255
225 238 255
225 238 255
225 238 255
225 238 255
225 238 255
225 238 255
225 238 255
225 238 255
225 238 255
225 238 255
225 238 255
225 238 255
225 238 255
225 238 255
225 238 255
225 238 255
225 238 255
225 238 255
225 238 255
225 238 255
225 238 255
225 238 255
225 238 255
225 238 255
225 238 255
225 238 255
225 238 255
225 238 255
225 238 255
225 238 255
225 238 255
225 238 255
225 238 255
225 238 255
225 238 255
225 238 255
225 238 255
225 238 255
225 238 255
225 238 255
225 238 255
225 238 255
225 238 255
225 238 255
225 238 255
225 238 255
225 238 255
225 238 255
225 238 255
225 238 255
225 238 255
225 238 255
225 238 255
225 238 255
225 238 255
225 238 255
225 238 255
225 238 255
225 238 255
225 238 255
225 238 255
225 238 255
225 238 255
225 238 255
225 238 255
225 238 255
225 238 255
225 238 255
225 238 255
225 238 255
225 238 255
225 238 255
225 238 255
225 238 255
225 238 255
225 238 255
225 238 255
225 238 255
225 238 255
225 238 255
225 238 255
225 238 255
225 238 255
225 238 255
225 238 255
225 238 255
225 238 255
225 238 255
225 238 255
225 238 255
225 238 255
225 238 255
225 238 255
225 238 255
225 238 255
225 238 255
225 238 255
225 238 255
225 238 255
225 238 255
225 238 255
225 238 255
225 238 255
225 238 255
225 238 255
225 238 255
225 238 255
225 238 255
225 238 255
225 238 255
225 238 255
225 238 255
225 238 255
225 238 255
225 238 255
225 238 255
225 238 255
225 238 255
225 238 255
225 238 255
225 238 255
225 238 255
225 238 255
225 238 255
225 238 255
225 238 255
225 238 255
225 238 255
225 238 255
225 238 255
225 238 255
225 238 255
225 238 255
225 238 255
225 238 255
225 238 255
225 238 255
225 238 255
225 238 255
225 238 255
225 238 255
225 238 255
225 238 255
225 238 255
225 238 255
225 238 255
225 238 255
225 238 255
225 238 255
225 238 255
225 238 255
225 238 255
225 238 255
225 238 255
225 238 255
225 238 255
225 238 255
225 238 255
225 238 255
225 238 255
225 238 255
225 238 255
225 238 255
225 238 255
225 238 255
225 238 255
225 238 255
225 238 255
225 238 255
225 238 255
225 238 255
225 238 255
225 238 255
225 238 255
225 238 255
225 238 255
225 238 255
225 238 255
225 238 255
225 238 255
225 238 255
225 238 255
225 238 255
225 238 255
225 238 255
225 238 255
225 238 255
225 238 255
225 238 255
225 238 255
225 238 255
225 238 255
225 238 255
225 238 255
225 238 255
225 238 255
225 238 255
225 238 255
225 238 255
225 238 255
225 238 255
225 238 255
225 238 255
225 238 255
225 238 255
225 238 255
225 238 255
225 238 255
225 238 255
225 238 255
225 238 255
225 238 255
225 238 255
225 238 255
225 238 255
225 238 255
225 238 255
225 238 255
225 238 255
225 238 255
225 238 255
225 238 255
225 238 255
167 176 192
0 0 46
0 0 47
0 0 47
0 0 45
0 0 45
0 0 45
0 0 45
0 0 45
0 0 45
0 0 45
0 0 45
0 0 44
0 0 44
0 0 44
0 0 45
0 0 45
0 0 45
0 0 45
0 0 45
0 0 45
0 0 45
0 0 45
0 0 45
0 0 45
0 0 45
0 0 45
0 0 45
0 0 45
0 0 45
0 0 45
0 0 44
0 0 42
0 0 44
0 0 44
0 0 43
0 0 42
0 0 42
0 0 44
0 0 45
0 0 44
0 0 42
0 0 42
0 0 42
0 0 42
0 0 42
0 0 43
0 0 45
0 0 44
0 0 42
0 0 42
0 0 42
0 0 42
0 0 43
0 0 45
0 0 43
0 0 43
0 0 45
0 0 44
0 0 42
0 0 42
0 0 42
0 0 42
0 0 42
0 0 42
0 0 42
0 0 42
0 0 42
0 0 42
0 0 44
0 0 45
0 0 45
0 0 45
0 0 45
0 0 45
0 0 44
0 0 44
0 0 44
0 0 44
0 0 45
0 0 45
0 0 45
0 0 45
0 0 45
0 0 45
0 0 46
0 0 48
0 0 48
0 0 48
0 0 48
0 0 48
0 0 48
0 0 48
0 0 49
0 0 50
0 0 51
0 0 51
0 0 53
0 0 54
0 0 58
0 0 61
0 0 64
0 0 66
0 4 71
0 17 79
0 23 85
8 28 43
28 40 7
36 45 11
98 103 94
156 156 153
100 91 66
99 83 56
108 90 63
94 82 53
84 74 48
81 76 49
77 72 45
65 64 35
59 63 32
64 67 36
66 74 35
74 80 42
77 77 37
69 73 39
59 66 30
63 67 31
62 65 34
48 64 50
18 42 80
0 21 78
0 1 74
0 7 69
0 0 64
0 0 60
0 0 58
0 0 60
0 0 62
0 0 64
0 0 62
0 0 59
0 0 60
0 0 59
0 0 62
0 0 62
0 0 61
0 0 59
0 0 59
0 0 65
0 0 66
0 0 63
0 0 64
0 0 63
0 0 62
0 0 62
0 0 62
0 0 62
176 186 203
225 238 255
225 238 255
225 238 255
225 238 255
225 238 255
225 238 255
225 238 255
225 238 255
225 238 255
225 238 255
225 238 255
225 238 255
225 238 255
225 238 255
225 238 255
225 238 255
225 238 255
225 238 255
225 238 255
225 238 255
225 238 255
225 238 255
225 238 255
225 238 255
225 238 255
225 238 255
225 238 255
225 238 255
225 238 255
225 238 255
225 238 255
225 238 255
225 238 255
225 238 255
225 238 255
225 238 255
225 238 255
225 238 255
225 238 255
225 238 255
225 238 255
225 238 255
225 238 255
225 238 255
225 238 255
225 238 255
225 238 255
225 238 255
225 238 255
225 238 255
225 238 255
225 238 255
225 238 255
225 238 255
225 238 255
225 238 255
225 238 255
225 238 255
225 238 255
225 238 255
225 238 255
225 238 255
225 238 255
225 238 255
225 238 255
225 238 255
225 238 255
225 238 255
225 238 255
225 238 255
225 238 255
225 238 255
225 238 255
225 238 255
225 238 255
225 238 255
225 238 255
225 238 255
225 238 255
225 238 255
225 238 255
225 238 255
225 238 255
225 238 255
225 238 255
225 238 255
225 238 255
225 238 255
225 238 255
225 238 255
225 238 255
225 238 255
225 238 255
225 238 255
225 238 255
225 238 255
225 238 255
225 238 255
225 238 255
225 238 255
225 238 255
225 238 255
225 238 255
225 238 255
225 238 255
225 238 255
225 238 255
225 238 255
225 238 255
225 238 255
225 238 255
225 238 255
225 238 255
225 238 255
225 238 255
225 238 255
225 238 255
225 238 255
225 238 255
225 238 255
225 238 255
225 238 255
225 238 255
225 238 255
225 238 255
225 238 255
225 238 255
225 238 255
225 238 255
225 238 255
225 238 255
225 238 255
225 238 255
225 238 255
225 238 255
225 238 255
225 238 255
225 238 255
225 238 255
225 238 255
225 238 255
225 238 255
225 238 255
225 238 255
225 238 255
225 238 255
225 238 255
225 238 255
225 238 255
225 238 255
225 238 255
225 238 255
225 238 255
225 238 255
225 238 255
225 238 255
225 238 255
225 238 255
225 238 255
225 238 255
225 238 255
225 238 255
225 238 255
225 238 255
225 238 255
225 238 255
225 238 255
225 238 255
225 238 255
225 238 255
225 238 255
225 238 255
225 238 255
225 238 255
225 238 255
225 238 255
225 238 255
225 238 255
225 238 255
225 238 255
225 238 255
225 238 255
225 238 255
225 238 255
225 238 255
225 238 255
225 238 255
225 238 255
225 238 255
225 238 255
225 238 255
225 238 255
225 238 255
225 238 255
225 238 255
225 238 255
225 238 255
225 238 255
225 238 255
225 238 255
225 238 255
225 238 255
225 238 255
225 238 255
225 238 255
225 238 255
225 238 255
225 238 255
225 238 255
225 238 255
225 238 255
225 238 255
225 238 255
225 238 255
225 238 255
225 238 255
225 238 255
225 238 255
225 238 255
225 238 255
225 238 255
225 238 255
225 238 255
225 238 255
225 238 255
225 238 255
225 238 255
225 238 255
225 238 255
225 238 255
225 238 255
225 238 255
225 238 255
225 238 255
225 238 255
225 238 255
225 238 255
225 238 255
225 238 255
225 238 255
225 238 255
225 238 255
225 238 255
151 159 175
0 0 48
0 0 48
0 0 47
0 0 45
0 0 45
0 0 45
0 0 45
0 0 47
0 0 47
0 0 46
0 0 45
0 0 45
0 0 46
0 0 45
0 0 45
0 0 45
0 0 44
0 0 45
0 0 45
0 0 43
0 0 44
0 0 45
0 0 45
0 0 45
0 0 45
0 0 45
0 0 45
0 0 45
0 0 45
0 0 45
0 0 42
0 0 42
0 0 44
0 0 44
0 0 45
0 0 43
0 0 43
0 0 45
0 0 45
0 0 43
0 0 42
0 0 42
0 0 42
0 0 42
0 0 45
0 0 45
0 0 45
0 0 42
0 0 42
0 0 42
0 0 42
0 0 43
0 0 45
0 0 44
0 0 44
0 0 45
0 0 45
0 0 44
0 0 43
0 0 43
0 0 43
0 0 43
0 0 43
0 0 43
0 0 43
0 0 43
0 0 43
0 0 44
0 0 45
0 0 45
0 0 45
0 0 45
0 0 45
0 0 45
0 0 45
0 0 45
0 0 45
0 0 45
0 0 45
0 0 45
0 0 45
0 0 45
0 0 45
0 0 45
0 0 46
0 0 47
0 0 48
0 0 48
0 0 48
0 0 48
0 0 48
0 0 51
0 0 51
0 0 51
0 0 53
0 0 53
0 0 53
0 0 56
0 0 59
0 0 62
0 0 61
0 2 69
0 21 76
0 20 80
19 33 34
37 45 14
39 47 19
117 121 115
132 128 116
99 87 57
101 81 54
105 88 61
93 82 54
79 70 45
76 70 46
72 69 44
67 69 41
57 64 30
53 58 29
62 73 34
64 82 46
71 78 41
63 69 43
46 60 63
36 53 66
25 38 85
7 29 82
0 16 83
0 15 73
0 5 69
0 0 65
0 0 61
0 0 58
0 0 57
0 0 60
0 0 63
0 0 66
0 0 67
0 0 62
0 0 62
0 0 63
0 0 64
0 0 64
0 0 65
0 0 63
0 0 66
0 4 70
0 2 69
0 0 67
0 0 67
0 0 65
0 0 65
0 0 65
0 0 63
175 184 201
225 238 255
225 238 255
225 238 255
225 238 255
225 238 255
225 238 255
225 238 255
225 238 255
225 238 255
225 238 255
225 238 255
225 238 255
225 238 255
225 238 255
225 238 255
225 238 255
225 238 255
225 238 255
225 238 255
225 238 255
225 238 255
225 238 255
225 238 255
225 238 255
225 238 255
225 238 255
225 238 255
225 238 255
225 238 255
225 238 255
225 238 255
225 238 255
225 238 255
225 238 255
225 238 255
225 238 255
225 238 255
225 238 255
225 238 255
225 238 255
225 238 255
225 238 255
225 238 255
225 238 255
225 238 255
225 238 255
225 238 255
225 238 255
225 238 255
225 238 255
225 238 255
225 238 255
225 238 255
225 238 255
225 238 255
225 238 255
225 238 255
225 238 255
225 238 255
225 238 255
225 238 255
225 238 255
225 238 255
225 238 255
225 238 255
225 238 255
225 238 255
225 238 255
225 238 255
225 238 255
225 238 255
225 238 255
225 238 255
225 238 255
225 238 255
225 238 255
225 238 255
225 238 255
225 238 255
225 238 255
225 238 255
225 238 255
225 238 255
225 238 255
225 238 255
225 238 255
225 238 255
225 238 255
225 238 255
225 238 255
225 238 255
225 238 255
225 238 255
225 238 255
225 238 255
225 238 255
225 238 255
225 238 255
225 238 255
225 238 255
225 238 255
225 238 255
225 238 255
225 238 255
225 238 255
225 238 255
225 238 255
225 238 255
225 238 255
225 238 255
225 238 255
225 238 255
225 238 255
225 238 255
225 238 255
225 238 255
225 238 255
225 238 255
225 238 255
225 238 255
225 238 255
225 238 255
225 238 255
225 238 255
225 238 255
225 238 255
225 238 255
225 238 255
225 238 255
225 238 255
225 238 255
225 238 255
225 238 255
225 238 255
225 238 255
225 238 255
225 238 255
225 238 255
225 238 255
225 238 255
225 238 255
225 238 255
225 238 255
225 238 255
225 238 255
225 238 255
225 238 255
225 238 255
225 238 255
225 238 255
225 238 255
225 238 255
225 238 255
225 238 255
225 238 255
225 238 255
225 238 255
225 238 255
225 238 255
225 238 255
225 238 255
225 238 255
225 238 255
225 238 255
225 238 255
225 238 255
225 238 255
225 238 255
225 238 255
225 238 255
225 238 255
225 238 255
225 238 255
225 238 255
225 238 255
225 238 255
225 238 255
225 238 255
225 238 255
225 238 255
225 238 255
225 238 255
225 238 255
225 238 255
225 238 255
225 238 255
225 238 255
225 238 255
225 238 255
225 238 255
225 238 255
225 238 255
225 238 255
225 238 255
225 238 255
225 238 255
225 238 255
225 238 255
225 238 255
225 238 255
225 238 255
225 238 255
225 238 255
225 238 255
225 238 255
225 238 255
225 238 255
225 238 255
225 238 255
225 238 255
225 238 255
225 238 255
225 238 255
225 238 255
225 238 255
225 238 255
225 238 255
225 238 255
225 238 255
225 238 255
225 238 255
225 238 255
225 238 255
225 238 255
225 238 255
225 238 255
225 238 255
225 238 255
225 238 255
225 238 255
225 238 255
225 238 255
225 238 255
225 238 255
225 238 255
225 238 255
225 238 255
225 238 255
225 238 255
225 238 255
225 238 255
225 238 255
225 238 255
225 238 255
225 238 255
149 158 174
0 0 47
0 0 49
0 0 48
0 0 45
0 0 45
0 0 45
0 0 47
0 0 48
0 0 48
0 0 47
0 0 47
0 0 45
0 0 45
0 0 44
0 0 45
0 0 44
0 0 45
0 0 45
0 0 45
0 0 45
0 0 47
0 0 47
0 0 45
0 0 45
0 0 49
0 0 45
0 0 45
0 0 44
0 0 43
0 0 43
0 0 44
0 0 45
0 0 43
0 0 43
0 0 44
0 0 43
0 0 44
0 0 43
0 0 42
0 0 42
0 0 42
0 0 42
0 0 42
0 0 45
0 0 45
0 0 45
0 0 43
0 0 42
0 0 42
0 0 42
0 0 43
0 0 45
0 0 43
0 0 42
0 0 42
0 0 42
0 0 42
0 0 44
0 0 45
0 0 45
0 0 45
0 0 45
0 0 45
0 0 45
0 0 45
0 0 45
0 0 45
0 0 45
0 0 45
0 0 45
0 0 45
0 0 45
0 0 45
0 0 45
0 0 45
0 0 45
0 0 45
0 0 45
0 0 45
0 0 45
0 0 45
0 0 45
0 0 45
0 0 45
0 0 47
0 0 48
0 0 48
0 0 48
0 0 48
0 0 48
0 0 50
0 0 51
0 0 52
0 0 53
0 0 54
0 0 56
0 0 57
0 0 58
0 0 63
0 0 66
0 0 77
0 8 75
3 19 75
29 46 23
48 57 26
66 75 58
137 140 138
129 123 110
101 89 60
107 89 63
98 85 58
86 77 49
78 71 45
72 66 42
66 64 39
63 63 37
56 61 34
55 58 29
73 75 36
38 84 85
8 46 98
0 27 88
0 25 91
0 24 87
0 18 81
0 16 78
0 15 77
0 8 71
0 0 67
0 0 66
0 0 63
0 0 58
0 0 58
0 0 63
0 0 65
0 0 69
0 0 68
0 0 67
0 0 66
0 0 63
0 0 66
0 0 66
0 0 67
0 0 69
0 8 72
0 6 72
0 3 69
0 0 69
0 0 67
0 0 67
0 0 66
0 0 64
144 152 170
225 238 255
226 238 255
225 238 255
225 238 255
225 238 255
225 238 255
225 238 255
225 238 255
225 238 255
225 238 255
225 238 255
225 238 255
225 238 255
225 238 255
225 238 255
225 238 255
225 238 255
225 238 255
225 238 255
225 238 255
225 238 255
225 238 255
225 238 255
225 238 255
225 238 255
225 238 255
225 238 255
225 238 255
225 238 255
225 238 255
225 238 255
225 238 255
225 238 255
225 238 255
225 238 255
225 238 255
225 238 255
225 238 255
225 238 255
225 238 255
225 238 255
225 238 255
225 238 255
225 238 255
225 238 255
225 238 255
225 238 255
225 238 255
225 238 255
225 238 255
225 238 255
225 238 255
225 238 255
225 238 255
225 238 255
225 238 255
225 238 255
225 238 255
225 238 255
225 238 255
225 238 255
225 238 255
225 238 255
225 238 255
225 238 255
225 238 255
225 238 255
225 238 255
225 238 255
225 238 255
225 238 255
225 238 255
225 238 255
225 238 255
225 238 255
225 238 255
225 238 255
225 238 255
225 238 255
225 238 255
225 238 255
225 238 255
225 238 255
225 238 255
225 238 255
225 238 255
225 238 255
225 238 255
225 238 255
225 238 255
225 238 255
225 238 255
225 238 255
225 238 255
225 238 255
225 238 255
225 238 255
225 238 255
225 238 255
225 238 255
225 238 255
225 238 255
225 238 255
225 238 255
225 238 255
225 238 255
225 238 255
225 238 255
225 238 255
225 238 255
225 238 255
225 238 255
225 238 255
225 238 255
225 238 255
225 238 255
225 238 255
225 238 255
225 238 255
225 238 255
225 238 255
225 238 255
225 238 255
225 238 255
225 238 255
225 238 255
225 238 255
225 238 255
225 238 255
225 238 255
225 238 255
225 238 255
225 238 255
225 238 255
225 238 255
225 238 255
225 238 255
225 238 255
225 238 255
225 238 255
225 238 255
225 238 255
225 238 255
225 238 255
225 238 255
225 238 255
225 238 255
225 238 255
225 238 255
225 238 255
225 238 255
225 238 255
225 238 255
225 238 255
225 238 255
225 238 255
225 238 255
225 238 255
225 238 255
225 238 255
225 238 255
225 238 255
225 238 255
225 238 255
225 238 255
225 238 255
225 238 255
225 238 255
225 238 255
225 238 255
225 238 255
225 238 255
225 238 255
225 238 255
225 238 255
225 238 255
225 238 255
225 238 255
225 238 255
225 238 255
225 238 255
225 238 255
225 238 255
225 238 255
225 238 255
225 238 255
225 238 255
225 238 255
225 238 255
225 238 255
225 238 255
225 238 255
226 238 255
225 238 255
225 238 255
226 238 255
226 238 255
226 238 255
226 238 255
226 238 255
226 238 255
226 238 255
226 238 255
226 238 255
226 238 255
226 238 255
226 238 255
226 238 255
226 238 255
226 238 255
226 238 255
226 238 255
226 238 255
226 238 255
226 238 255
226 238 255
226 238 255
226 238 255
226 238 255
226 238 255
226 238 255
226 238 255
226 238 255
226 238 255
226 238 255
226 238 255
226 238 255
226 238 255
226 238 255
226 238 255
226 238 255
226 238 255
226 238 255
226 238 255
226 238 255
226 238 255
226 238 255
226 238 255
226 238 255
226 238 255
226 238 255
226 238 255
226 238 255
226 238 255
226 238 255
226 238 255
226 238 255
153 161 177
0 0 47
0 0 50
0 0 48
0 0 47
0 0 45
0 0 45
0 0 48
0 0 48
0 0 48
0 0 50
0 0 50
0 0 48
0 0 45
0 0 46
0 0 47
0 0 47
0 0 45
0 0 45
0 0 45
0 0 45
0 0 45
0 0 45
0 0 45
0 0 46
0 0 47
0 0 45
0 0 44
0 0 45
0 0 45
0 0 45
0 0 43
0 0 42
0 0 42
0 0 42
0 0 42
0 0 42
0 0 42
0 0 42
0 0 42
0 0 42
0 0 42
0 0 42
0 0 42
0 0 43
0 0 43
0 0 43
0 0 42
0 0 42
0 0 43
0 0 42
0 0 44
0 0 44
0 0 44
0 0 43
0 0 43
0 0 43
0 0 44
0 0 45
0 0 45
0 0 45
0 0 45
0 0 45
0 0 45
0 0 45
0 0 45
0 0 45
0 0 45
0 0 45
0 0 45
0 0 45
0 0 45
0 0 45
0 0 45
0 0 45
0 0 45
0 0 45
0 0 45
0 0 45
0 0 45
0 0 45
0 0 45
0 0 46
0 0 48
0 0 48
0 0 48
0 0 48
0 0 48
0 0 48
0 0 48
0 0 51
0 0 53
0 0 53
0 0 54
0 0 58
0 0 58
0 0 58
0 0 58
0 0 62
0 1 68
0 8 65
0 0 61
0 22 73
30 44 26
40 52 25
70 73 61
97 92 87
91 85 58
93 83 53
88 76 51
95 85 56
96 85 55
81 74 50
74 69 47
65 64 40
61 61 35
52 57 29
56 62 36
52 80 75
11 64 104
0 23 87
0 20 84
0 24 85
0 21 82
0 17 77
0 16 78
0 9 70
0 0 66
0 0 68
0 6 70
0 0 65
0 0 58
0 0 62
0 0 66
0 0 67
0 0 68
0 0 70
0 0 70
0 0 68
0 0 66
0 0 67
0 0 67
0 0 68
0 3 69
0 4 70
0 0 70
0 2 70
0 0 68
0 0 65
0 0 65
0 0 64
151 159 177
226 238 255
226 238 255
226 238 255
226 238 255
226 238 255
226 238 255
226 238 255
226 238 255
226 238 255
226 238 255
226 238 255
226 238 255
226 238 255
226 238 255
226 238 255
226 238 255
226 238 255
226 238 255
226 238 255
226 238 255
226 238 255
226 238 255
226 238 255
226 238 255
226 238 255
226 238 255
226 238 255
226 238 255
226 238 255
226 238 255
226 238 255
226 238 255
226 238 255
226 238 255
226 238 255
226 238 255
226 238 255
226 238 255
226 238 255
226 238 255
226 238 255
226 238 255
226 238 255
226 238 255
226 238 255
226 238 255
226 238 255
226 238 255
226 238 255
226 238 255
226 238 255
226 238 255
226 238 255
225 238 255
225 238 255
225 238 255
225 238 255
225 238 255
225 238 255
225 238 255
225 238 255
225 238 255
225 238 255
225 238 255
225 238 255
225 238 255
225 238 255
225 238 255
225 238 255
225 238 255
225 238 255
225 238 255
225 238 255
225 238 255
225 238 255
225 238 255
225 238 255
225 238 255
225 238 255
225 238 255
225 238 255
225 238 255
225 238 255
225 238 255
225 238 255
225 238 255
225 238 255
225 238 255
225 238 255
225 238 255
225 238 255
225 238 255
225 238 255
225 238 255
225 238 255
225 238 255
225 238 255
225 238 255
225 238 255
225 238 255
225 238 255
225 238 255
225 238 255
225 238 255
225 238 255
225 238 255
225 238 255
225 238 255
225 238 255
225 238 255
225 238 255
225 238 255
225 238 255
225 238 255
225 238 255
225 238 255
225 238 255
225 238 255
225 238 255
225 238 255
225 238 255
225 238 255
225 238 255
225 238 255
225 238 255
225 238 255
225 238 255
225 238 255
225 238 255
225 238 255
225 238 255
225 238 255
225 238 255
225 238 255
225 238 255
225 238 255
225 238 255
225 238 255
225 238 255
225 238 255
225 238 255
225 238 255
225 238 255
225 238 255
225 238 255
225 238 255
225 238 255
225 238 255
225 238 255
225 238 255
225 238 255
225 238 255
225 238 255
225 238 255
225 238 255
226 238 255
225 238 255
225 238 255
226 238 255
226 238 255
226 238 255
226 238 255
226 238 255
226 238 255
226 238 255
226 238 255
226 238 255
226 238 255
226 238 255
226 238 255
226 238 255
226 238 255
226 238 255
226 238 255
226 238 255
226 238 255
226 238 255
226 238 255
226 238 255
226 238 255
226 238 255
226 238 255
226 238 255
226 238 255
226 238 255
226 238 255
226 238 255
226 238 255
226 238 255
226 238 255
226 238 255
226 238 255
226 238 255
226 238 255
226 238 255
226 238 255
226 238 255
226 238 255
226 238 255
226 238 255
226 238 255
226 238 255
226 238 255
226 238 255
226 238 255
226 238 255
226 238 255
226 238 255
226 238 255
226 238 255
226 238 255
226 238 255
226 238 255
226 238 255
226 238 255
226 238 255
226 238 255
226 238 255
226 238 255
226 238 255
226 238 255
226 238 255
226 238 255
226 238 255
226 238 255
226 238 255
226 238 255
226 238 255
226 238 255
226 238 255
226 238 255
226 238 255
226 238 255
226 238 255
226 238 255
226 238 255
226 238 255
226 238 255
226 238 255
226 238 255
226 238 255
226 238 255
226 238 255
226 238 255
226 238 255
226 238 255
226 238 255
226 238 255
226 238 255
159 168 184
0 0 48
0 0 51
0 0 48
0 0 48
0 0 46
0 0 45
0 0 48
0 0 48
0 0 49
0 0 52
0 0 53
0 0 49
0 0 48
0 0 48
0 0 48
0 0 47
0 0 45
0 0 46
0 0 46
0 0 46
0 0 45
0 0 45
0 0 45
0 0 45
0 0 45
0 0 45
0 0 45
0 0 45
0 0 45
0 0 45
0 0 42
0 0 42
0 0 42
0 0 42
0 0 42
0 0 42
0 0 42
0 0 42
0 0 42
0 0 42
0 0 42
0 0 42
0 0 42
0 0 42
0 0 42
0 0 43
0 0 44
0 0 45
0 0 43
0 0 43
0 0 44
0 0 45
0 0 45
0 0 45
0 0 45
0 0 45
0 0 45
0 0 45
0 0 45
0 0 45
0 0 45
0 0 45
0 0 45
0 0 45
0 0 45
0 0 45
0 0 45
0 0 45
0 0 45
0 0 45
0 0 45
0 0 45
0 0 45
0 0 45
0 0 45
0 0 45
0 0 45
0 0 45
0 0 46
0 0 48
0 0 48
0 0 48
0 0 48
0 0 48
0 0 48
0 0 48
0 0 48
0 0 48
0 0 51
0 0 53
0 0 53
0 0 53
0 0 58
0 0 59
0 0 59
0 0 60
0 0 65
0 0 64
0 0 72
0 6 64
19 36 23
39 53 16
55 68 60
106 108 101
72 63 37
83 71 45
87 73 47
92 75 50
98 79 52
94 79 52
88 78 47
81 73 44
66 68 44
59 67 38
58 66 33
60 69 48
30 62 88
0 23 86
0 25 88
0 28 90
0 23 85
0 21 82
0 17 78
0 9 71
0 6 70
0 0 68
0 9 71
0 9 72
0 0 63
0 0 65
0 0 68
0 0 68
0 7 68
0 4 69
0 0 69
0 6 71
0 0 69
0 0 66
0 0 67
0 10 71
0 5 70
0 8 71
0 0 70
0 0 69
0 0 67
0 0 62
0 0 63
0 0 64
173 183 200
226 238 255
226 238 255
226 238 255
226 238 255
226 238 255
226 238 255
226 238 255
226 238 255
226 238 255
226 238 255
226 238 255
226 238 255
226 238 255
226 238 255
226 238 255
226 238 255
226 238 255
226 238 255
226 238 255
226 238 255
226 238 255
226 238 255
226 238 255
226 238 255
226 238 255
226 238 255
226 238 255
226 238 255
226 238 255
226 238 255
226 238 255
226 238 255
226 238 255
226 238 255
226 238 255
226 238 255
226 238 255
226 238 255
226 238 255
226 238 255
226 238 255
226 238 255
226 238 255
226 238 255
226 238 255
226 238 255
226 238 255
226 238 255
226 238 255
226 238 255
226 238 255
226 238 255
226 238 255
226 238 255
226 238 255
226 238 255
226 238 255
226 238 255
226 238 255
226 238 255
226 238 255
226 238 255
226 238 255
226 238 255
226 238 255
226 238 255
226 238 255
226 238 255
226 238 255
226 238 255
226 238 255
226 238 255
226 238 255
226 238 255
226 238 255
226 238 255
226 238 255
226 238 255
226 238 255
226 238 255
226 238 255
226 238 255
226 238 255
226 238 255
226 238 255
226 238 255
226 238 255
226 238 255
226 238 255
226 238 255
225 238 255
226 238 255
226 238 255
225 238 255
225 238 255
225 238 255
225 238 255
225 238 255
225 238 255
225 238 255
225 238 255
225 238 255
225 238 255
225 238 255
225 238 255
225 238 255
225 238 255
225 238 255
225 238 255
225 238 255
225 238 255
225 238 255
225 238 255
225 238 255
225 238 255
225 238 255
225 238 255
225 238 255
225 238 255
225 238 255
225 238 255
225 238 255
225 238 255
225 238 255
225 238 255
225 238 255
225 238 255
226 238 255
226 238 255
226 238 255
226 238 255
226 238 255
226 238 255
226 238 255
226 238 255
226 238 255
226 238 255
226 238 255
226 238 255
226 238 255
226 238 255
226 238 255
226 238 255
226 238 255
226 238 255
226 238 255
226 238 255
226 238 255
226 238 255
226 238 255
226 238 255
226 238 255
226 238 255
226 238 255
226 238 255
226 238 255
226 238 255
226 238 255
226 238 255
226 238 255
226 238 255
226 238 255
226 238 255
226 238 255
226 238 255
226 238 255
226 238 255
226 238 255
226 238 255
226 238 255
226 238 255
226 238 255
226 238 255
226 238 255
226 238 255
226 238 255
226 238 255
226 238 255
226 238 255
226 238 255
226 238 255
226 238 255
226 238 255
226 238 255
226 238 255
226 238 255
226 238 255
226 238 255
226 238 255
226 238 255
226 238 255
226 238 255
226 238 255
226 238 255
226 238 255
226 238 255
226 238 255
226 238 255
226 238 255
226 238 255
226 238 255
226 238 255
226 238 255
226 238 255
226 238 255
226 238 255
226 238 255
226 238 255
226 238 255
226 238 255
226 238 255
226 238 255
226 238 255
226 238 255
226 238 255
226 238 255
226 238 255
226 238 255
226 238 255
226 238 255
226 238 255
226 238 255
226 238 255
226 238 255
226 238 255
226 238 255
226 238 255
226 238 255
226 238 255
226 238 255
226 238 255
226 238 255
226 238 255
226 238 255
226 238 255
226 238 255
226 238 255
226 238 255
226 238 255
226 238 255
226 238 255
226 238 255
226 238 255
226 238 255
226 238 255
226 238 255
226 238 255
226 238 255
226 238 255
226 238 255
226 238 255
164 173 189
0 0 50
0 0 52
0 0 50
0 0 50
0 0 47
0 0 47
0 0 48
0 0 48
0 0 49
0 0 54
0 0 53
0 0 52
0 0 53
0 0 50
0 0 48
0 0 47
0 0 47
0 0 47
0 0 47
0 0 46
0 0 45
0 0 45
0 0 45
0 0 45
0 0 44
0 0 45
0 0 45
0 0 45
0 0 45
0 0 45
0 0 44
0 0 42
0 0 42
0 0 42
0 0 44
0 0 45
0 0 45
0 0 45
0 0 44
0 0 44
0 0 44
0 0 44
0 0 43
0 0 42
0 0 42
0 0 42
0 0 43
0 0 45
0 0 45
0 0 45
0 0 43
0 0 45
0 0 45
0 0 45
0 0 45
0 0 45
0 0 45
0 0 45
0 0 45
0 0 45
0 0 45
0 0 45
0 0 45
0 0 45
0 0 45
0 0 45
0 0 45
0 0 45
0 0 44
0 0 45
0 0 45
0 0 45
0 0 45
0 0 45
0 0 45
0 0 45
0 0 45
0 0 46
0 0 48
0 0 48
0 0 48
0 0 48
0 0 48
0 0 48
0 0 48
0 0 48
0 0 49
0 0 52
0 0 53
0 0 53
0 0 53
0 0 57
0 0 59
0 0 60
0 0 61
0 0 62
0 3 69
0 7 66
9 23 43
43 59 22
43 59 36
104 118 117
92 93 82
82 68 45
85 72 46
87 74 47
92 78 49
86 73 44
82 69 48
86 79 50
82 73 57
24 24 69
24 32 72
26 45 73
18 35 85
0 20 82
0 22 85
0 24 87
0 24 86
0 19 82
0 14 76
0 5 69
0 13 73
0 8 71
0 0 67
0 17 77
0 7 67
0 0 66
0 6 71
0 6 73
0 6 72
0 3 71
0 0 70
0 0 70
0 2 70
0 3 68
0 6 68
0 8 71
0 14 74
0 9 71
0 0 66
0 0 67
0 0 67
0 0 62
0 0 65
22 23 70
173 183 200
226 238 255
226 238 255
226 238 255
226 238 255
226 238 255
226 238 255
226 238 255
226 238 255
226 238 255
226 238 255
226 238 255
226 238 255
226 238 255
226 238 255
226 238 255
226 238 255
226 238 255
226 238 255
226 238 255
226 238 255
226 238 255
226 238 255
226 238 255
226 238 255
226 238 255
226 238 255
226 238 255
226 238 255
226 238 255
226 238 255
226 238 255
226 238 255
226 238 255
226 238 255
226 238 255
226 238 255
226 238 255
226 238 255
226 238 255
226 238 255
226 238 255
226 238 255
226 238 255
226 238 255
226 238 255
226 238 255
226 238 255
226 238 255
226 238 255
226 238 255
226 238 255
226 238 255
226 238 255
226 238 255
226 238 255
226 238 255
226 238 255
226 238 255
226 238 255
226 238 255
226 238 255
226 238 255
226 238 255
226 238 255
226 238 255
226 238 255
226 238 255
226 238 255
226 238 255
226 238 255
226 238 255
226 238 255
226 238 255
226 238 255
226 238 255
226 238 255
226 238 255
226 238 255
226 238 255
226 238 255
226 238 255
226 238 255
226 238 255
226 238 255
226 238 255
226 238 255
226 238 255
226 238 255
226 238 255
226 238 255
226 238 255
226 238 255
226 238 255
226 238 255
226 238 255
226 238 255
226 238 255
226 238 255
226 238 255
226 238 255
226 238 255
226 238 255
226 238 255
226 238 255
226 238 255
226 238 255
226 238 255
226 238 255
226 238 255
226 238 255
226 238 255
226 238 255
226 238 255
226 238 255
226 238 255
226 238 255
226 238 255
226 238 255
226 238 255
226 238 255
226 238 255
226 238 255
226 238 255
225 238 255
226 238 255
225 238 255
226 238 255
226 238 255
226 238 255
226 238 255
226 238 255
226 238 255
226 238 255
226 238 255
226 238 255
226 238 255
226 238 255
226 238 255
226 238 255
226 238 255
226 238 255
226 238 255
226 238 255
226 238 255
226 238 255
226 238 255
226 238 255
226 238 255
226 238 255
226 238 255
226 238 255
226 238 255
226 238 255
226 238 255
226 238 255
226 238 255
226 238 255
226 238 255
226 238 255
226 238 255
226 238 255
226 238 255
226 238 255
226 238 255
226 238 255
226 238 255
226 238 255
226 238 255
226 238 255
226 238 255
226 238 255
226 238 255
226 238 255
226 238 255
226 238 255
226 238 255
226 238 255
226 238 255
226 238 255
226 238 255
226 238 255
226 238 255
226 238 255
226 238 255
226 238 255
226 238 255
226 238 255
226 238 255
226 238 255
226 238 255
226 238 255
226 238 255
226 238 255
226 238 255
226 238 255
226 238 255
226 238 255
226 238 255
226 238 255
226 238 255
226 238 255
226 238 255
226 238 255
226 238 255
226 238 255
226 238 255
226 238 255
226 238 255
226 238 255
226 238 255
226 238 255
226 238 255
226 238 255
226 238 255
226 238 255
226 238 255
226 238 255
226 238 255
226 238 255
226 238 255
226 238 255
226 238 255
226 238 255
226 238 255
226 238 255
226 238 255
226 238 255
226 238 255
226 238 255
226 238 255
226 238 255
226 238 255
226 238 255
226 238 255
226 238 255
226 238 255
226 238 255
226 238 255
226 238 255
226 238 255
226 238 255
226 238 255
226 238 255
226 238 255
226 238 255
226 238 255
226 238 255
226 238 255
226 238 255
226 238 255
226 238 255
226 238 255
226 238 255
183 193 210
45 47 71
0 0 53
0 0 50
0 0 50
0 0 47
0 0 48
0 0 48
0 0 48
0 0 48
0 0 54
0 0 50
0 0 54
0 0 55
0 0 50
0 0 48
0 0 48
0 0 46
0 0 47
0 0 48
0 0 47
0 0 45
0 0 45
0 0 45
0 0 45
0 0 45
0 0 45
0 0 44
0 0 44
0 0 45
0 0 45
0 0 43
0 0 43
0 0 43
0 0 42
0 0 45
0 0 45
0 0 45
0 0 45
0 0 45
0 0 45
0 0 45
0 0 45
0 0 44
0 0 45
0 0 45
0 0 45
0 0 45
0 0 45
0 0 45
0 0 45
0 0 45
0 0 45
0 0 45
0 0 45
0 0 45
0 0 45
0 0 45
0 0 45
0 0 45
0 0 45
0 0 45
0 0 45
0 0 45
0 0 45
0 0 45
0 0 45
0 0 45
0 0 45
0 0 45
0 0 45
0 0 46
0 0 46
0 0 46
0 0 46
0 0 46
0 0 46
0 0 47
0 0 48
0 0 48
0 0 48
0 0 48
0 0 49
0 0 49
0 0 49
0 0 49
0 0 50
0 0 51
0 0 53
0 0 53
0 0 55
0 0 57
0 0 58
0 0 60
0 0 60
0 0 68
0 6 75
0 7 65
18 37 37
22 44 34
73 86 75
115 119 118
107 101 82
97 81 55
93 80 51
115 102 75
89 77 52
81 71 43
90 75 49
99 82 56
72 64 56
18 23 67
18 32 80
0 21 83
0 19 80
0 19 80
0 20 83
0 21 83
0 15 76
0 9 71
0 10 72
0 14 77
0 15 78
0 10 74
0 9 72
0 5 69
0 12 71
0 10 74
0 14 75
0 11 74
0 2 72
0 0 70
0 8 70
0 12 72
0 6 70
0 13 72
0 18 77
0 13 74
0 6 70
0 0 66
0 0 64
0 0 65
0 0 65
0 0 63
22 23 71
186 196 214
226 238 255
226 238 255
226 238 255
226 238 255
226 238 255
226 238 255
226 238 255
226 238 255
226 238 255
226 238 255
226 238 255
226 238 255
226 238 255
226 238 255
226 238 255
226 238 255
226 238 255
226 238 255
226 238 255
226 238 255
226 238 255
226 238 255
226 238 255
226 238 255
226 238 255
226 238 255
226 238 255
226 238 255
226 238 255
226 238 255
226 238 255
226 238 255
226 238 255
226 238 255
226 238 255
226 238 255
226 238 255
226 238 255
226 238 255
226 238 255
226 238 255
226 238 255
226 238 255
226 238 255
226 238 255
226 238 255
226 238 255
226 238 255
226 238 255
226 238 255
226 238 255
226 238 255
226 238 255
226 238 255
226 238 255
226 238 255
226 238 255
226 238 255
226 238 255
226 238 255
226 238 255
226 238 255
226 238 255
226 238 255
226 238 255
226 238 255
226 238 255
226 238 255
226 238 255
226 238 255
226 238 255
226 238 255
226 238 255
226 238 255
226 238 255
226 238 255
226 238 255
226 238 255
226 238 255
226 238 255
226 238 255
226 238 255
226 238 255
226 238 255
226 238 255
226 238 255
226 238 255
226 238 255
226 238 255
226 238 255
226 238 255
226 238 255
226 238 255
226 238 255
226 238 255
226 238 255
226 238 255
226 238 255
226 238 255
226 238 255
226 238 255
226 238 255
226 238 255
226 238 255
226 238 255
226 238 255
226 238 255
226 238 255
226 238 255
226 238 255
226 238 255
226 238 255
226 238 255
226 238 255
226 238 255
226 238 255
226 238 255
226 238 255
226 238 255
226 238 255
226 238 255
226 238 255
226 238 255
226 238 255
226 238 255
226 238 255
226 238 255
226 238 255
226 238 255
226 238 255
226 238 255
226 238 255
226 238 255
226 238 255
226 238 255
226 238 255
226 238 255
226 238 255
226 238 255
226 238 255
226 238 255
226 238 255
226 238 255
226 238 255
226 238 255
226 238 255
226 238 255
226 238 255
226 238 255
226 238 255
226 238 255
226 238 255
226 238 255
226 238 255
226 238 255
226 238 255
226 238 255
226 238 255
226 238 255
226 238 255
226 238 255
226 238 255
226 238 255
226 238 255
226 238 255
226 238 255
226 238 255
226 238 255
226 238 255
226 238 255
226 238 255
226 238 255
226 238 255
226 238 255
226 238 255
226 238 255
226 238 255
226 238 255
226 238 255
226 238 255
226 238 255
226 238 255
226 238 255
226 238 255
226 238 255
226 238 255
226 238 255
226 238 255
226 238 255
226 238 255
226 238 255
226 238 255
226 238 255
226 238 255
226 238 255
226 238 255
226 238 255
226 238 255
226 238 255
226 238 255
226 238 255
226 238 255
226 238 255
226 238 255
226 238 255
226 238 255
226 238 255
226 238 255
226 238 255
226 238 255
226 238 255
226 238 255
226 238 255
226 238 255
226 238 255
226 238 255
226 238 255
226 238 255
226 238 255
226 238 255
226 238 255
226 238 255
226 238 255
226 238 255
226 238 255
226 238 255
226 238 255
226 238 255
226 238 255
226 238 255
226 238 255
226 238 255
226 238 255
226 238 255
226 238 255
226 238 255
226 238 255
226 238 255
226 238 255
226 238 255
226 238 255
226 238 255
226 238 255
226 238 255
226 238 255
226 238 255
226 238 255
226 238 255
226 238 255
226 238 255
226 238 255
226 238 255
226 238 255
226 238 255
226 238 255
197 208 224
55 58 82
0 0 54
0 0 49
0 0 48
0 0 48
0 0 48
0 0 48
0 0 48
0 0 50
0 0 53
0 0 52
0 0 52
0 0 52
0 0 50
0 0 48
0 0 47
0 0 47
0 0 48
0 0 50
0 0 47
0 0 45
0 0 45
0 0 45
0 0 47
0 0 45
0 0 45
0 0 45
0 0 45
0 0 45
0 0 45
0 0 44
0 0 45
0 0 45
0 0 45
0 0 45
0 0 45
0 0 45
0 0 45
0 0 45
0 0 45
0 0 45
0 0 45
0 0 45
0 0 45
0 0 45
0 0 45
0 0 44
0 0 46
0 0 45
0 0 45
0 0 45
0 0 45
0 0 45
0 0 45
0 0 45
0 0 46
0 0 46
0 0 45
0 0 45
0 0 45
0 0 45
0 0 45
0 0 45
0 0 45
0 0 45
0 0 45
0 0 45
0 0 46
0 0 47
0 0 48
0 0 48
0 0 48
0 0 48
0 0 48
0 0 48
0 0 48
0 0 48
0 0 48
0 0 48
0 0 48
0 0 50
0 0 50
0 0 50
0 0 51
0 0 51
0 0 52
0 0 53
0 0 53
0 0 54
0 0 55
0 0 57
0 0 59
0 0 63
0 6 73
0 11 74
3 25 58
6 29 45
43 55 74
142 155 158
90 87 70
91 79 52
96 82 52
104 89 59
116 103 75
95 82 55
93 80 51
89 75 49
84 76 52
48 49 63
45 58 67
11 25 79
0 14 73
0 17 76
0 19 82
0 17 80
0 11 72
0 5 67
0 14 75
0 19 83
0 19 81
0 15 76
0 14 74
0 4 72
0 12 74
0 15 79
0 10 74
0 11 74
0 14 75
0 5 70
0 0 69
0 9 72
0 14 75
0 10 73
0 13 75
0 11 71
0 6 69
0 5 68
0 9 69
0 3 66
0 7 69
0 4 66
55 58 87
187 198 215
226 238 255
226 238 255
226 238 255
226 238 255
226 238 255
226 238 255
226 238 255
226 238 255
226 238 255
226 238 255
226 238 255
226 238 255
226 238 255
226 238 255
226 238 255
226 238 255
226 238 255
226 238 255
226 238 255
226 238 255
226 238 255
226 238 255
226 238 255
226 238 255
226 238 255
226 238 255
226 238 255
226 238 255
226 238 255
226 238 255
226 238 255
226 238 255
226 238 255
226 238 255
226 238 255
226 238 255
226 238 255
226 238 255
226 238 255
226 238 255
226 238 255
226 238 255
226 238 255
226 238 255
226 238 255
226 238 255
226 238 255
226 238 255
226 238 255
226 238 255
226 238 255
226 238 255
226 238 255
226 238 255
226 238 255
226 238 255
226 238 255
226 238 255
226 238 255
226 238 255
226 238 255
226 238 255
226 238 255
226 238 255
226 238 255
226 238 255
226 238 255
226 238 255
226 238 255
226 238 255
226 238 255
226 238 255
226 238 255
226 238 255
226 238 255
226 238 255
226 238 255
226 238 255
226 238 255
226 238 255
226 238 255
226 238 255
226 238 255
226 238 255
226 238 255
226 238 255
226 238 255
226 238 255
226 238 255
226 238 255
226 238 255
226 238 255
226 238 255
226 238 255
226 238 255
226 238 255
226 238 255
226 238 255
226 238 255
226 238 255
226 238 255
226 238 255
226 238 255
226 238 255
226 238 255
226 238 255
226 238 255
226 238 255
226 238 255
226 238 255
226 238 255
226 238 255
226 238 255
226 238 255
226 238 255
226 238 255
226 238 255
226 238 255
226 238 255
226 238 255
226 238 255
226 238 255
226 238 255
226 238 255
226 238 255
226 238 255
226 238 255
226 238 255
226 238 255
226 238 255
226 238 255
226 238 255
226 238 255
226 238 255
226 238 255
226 238 255
226 238 255
226 238 255
226 238 255
226 238 255
226 238 255
226 238 255
226 238 255
226 238 255
226 238 255
226 238 255
226 238 255
226 238 255
226 238 255
226 238 255
226 238 255
226 238 255
226 238 255
226 238 255
226 238 255
226 238 255
226 238 255
226 238 255
226 238 255
226 238 255
226 238 255
226 238 255
226 238 255
226 238 255
226 238 255
226 238 255
226 238 255
226 238 255
226 238 255
226 238 255
226 238 255
226 238 255
226 238 255
226 238 255
226 238 255
226 238 255
226 238 255
226 238 255
226 238 255
226 238 255
226 238 255
226 238 255
226 238 255
226 238 255
226 238 255
226 238 255
226 238 255
226 238 255
226 238 255
226 238 255
226 238 255
226 238 255
226 238 255
226 238 255
226 238 255
226 238 255
226 238 255
226 238 255
226 238 255
226 238 255
226 238 255
226 238 255
226 238 255
226 238 255
226 238 255
226 238 255
226 238 255
226 238 255
226 238 255
226 238 255
226 238 255
226 238 255
226 238 255
226 238 255
226 238 255
226 238 255
226 238 255
226 238 255
226 238 255
226 238 255
226 238 255
226 238 255
226 238 255
226 238 255
226 238 255
226 238 255
226 238 255
226 238 255
226 238 255
226 238 255
226 238 255
226 238 255
226 238 255
226 238 255
226 238 255
226 238 255
226 238 255
226 238 255
226 238 255
226 238 255
226 238 255
226 238 255
226 238 255
226 238 255
226 238 255
226 238 255
226 238 255
226 238 255
226 238 255
226 238 255
226 238 255
226 238 255
226 238 255
226 238 255
226 238 255
226 238 255
226 238 255
209 221 238
87 92 112
0 0 57
0 0 50
0 0 48
0 0 48
0 0 49
0 0 50
0 0 49
0 0 49
0 0 51
0 0 52
0 0 52
0 0 51
0 0 49
0 0 48
0 0 47
0 0 47
0 0 50
0 0 52
0 0 48
0 0 45
0 0 45
0 0 46
0 0 47
0 0 47
0 0 47
0 0 47
0 0 46
0 0 45
0 0 45
0 0 45
0 0 45
0 0 45
0 0 45
0 0 45
0 0 45
0 0 45
0 0 45
0 0 45
0 0 45
0 0 45
0 0 45
0 0 43
0 0 45
0 0 45
0 0 45
0 0 47
0 0 47
0 0 46
0 0 47
0 0 47
0 0 46
0 0 45
0 0 47
0 0 50
0 0 50
0 0 47
0 0 45
0 0 47
0 0 45
0 0 45
0 0 46
0 0 45
0 0 46
0 0 47
0 0 47
0 0 48
0 0 48
0 0 48
0 0 48
0 0 48
0 0 48
0 0 48
0 0 48
0 0 48
0 0 48
0 0 48
0 0 50
0 0 50
0 0 50
0 0 50
0 0 51
0 0 53
0 0 53
0 0 53
0 0 53
0 0 53
0 0 53
0 0 56
0 0 58
0 0 63
0 0 69
0 13 75
0 15 72
0 30 28
13 20 65
98 111 107
113 124 127
89 76 54
90 78 51
92 80 51
104 89 59
103 87 57
107 91 64
104 90 56
91 78 50
58 63 67
17 30 75
0 13 77
0 17 77
0 19 81
0 20 81
0 10 74
0 6 69
0 0 64
0 14 75
0 19 81
0 15 79
0 15 78
0 13 75
0 13 75
0 13 74
0 12 73
0 13 76
0 12 74
0 11 73
0 7 71
0 2 69
0 7 72
0 13 73
0 9 72
0 4 70
0 11 73
0 13 74
0 9 72
0 12 75
0 6 70
0 9 71
0 7 68
75 79 102
212 223 241
226 238 255
226 238 255
226 238 255
226 238 255
226 238 255
226 238 255
226 238 255
226 238 255
226 238 255
226 238 255
226 238 255
226 238 255
226 238 255
226 238 255
226 238 255
226 238 255
226 238 255
226 238 255
226 238 255
226 238 255
226 238 255
226 238 255
226 238 255
226 238 255
226 238 255
226 238 255
226 238 255
226 238 255
226 238 255
226 238 255
226 238 255
226 238 255
226 238 255
226 238 255
226 238 255
226 238 255
226 238 255
226 238 255
226 238 255
226 238 255
226 238 255
226 238 255
226 238 255
226 238 255
226 238 255
226 238 255
226 238 255
226 238 255
226 238 255
226 238 255
226 238 255
226 238 255
226 238 255
226 238 255
226 238 255
226 238 255
226 238 255
226 238 255
226 238 255
226 238 255
226 238 255
226 238 255
226 238 255
226 238 255
226 238 255
226 238 255
226 238 255
226 238 255
226 238 255
226 238 255
226 238 255
226 238 255
226 238 255
226 238 255
226 238 255
226 238 255
226 238 255
226 238 255
226 238 255
226 238 255
226 238 255
226 238 255
226 238 255
226 238 255
226 238 255
226 238 255
226 238 255
226 238 255
226 238 255
226 238 255
226 238 255
226 238 255
226 238 255
226 238 255
226 238 255
226 238 255
226 238 255
226 238 255
226 238 255
226 238 255
226 238 255
226 238 255
226 238 255
226 238 255
226 238 255
226 238 255
226 238 255
226 238 255
226 238 255
226 238 255
226 238 255
226 238 255
226 238 255
226 238 255
226 238 255
226 238 255
226 238 255
226 238 255
226 238 255
226 238 255
226 238 255
226 238 255
226 238 255
226 238 255
226 238 255
226 238 255
226 238 255
226 238 255
226 238 255
226 238 255
226 238 255
226 238 255
226 238 255
226 238 255
226 238 255
226 238 255
226 238 255
226 238 255
226 238 255
226 238 255
226 238 255
226 238 255
226 238 255
226 238 255
226 238 255
226 238 255
226 238 255
226 238 255
226 238 255
226 238 255
226 238 255
226 238 255
226 238 255
226 238 255
226 238 255
226 238 255
226 238 255
226 238 255
226 238 255
226 238 255
226 238 255
226 238 255
226 238 255
226 238 255
226 238 255
226 238 255
226 238 255
226 238 255
226 238 255
226 238 255
226 238 255
226 238 255
226 238 255
226 238 255
226 238 255
226 238 255
226 238 255
226 238 255
226 238 255
226 238 255
226 238 255
226 238 255
226 238 255
226 238 255
226 238 255
226 238 255
226 238 255
226 238 255
226 238 255
226 238 255
226 238 255
226 238 255
226 238 255
226 238 255
226 238 255
226 238 255
226 238 255
226 238 255
226 238 255
226 238 255
226 238 255
226 238 255
226 238 255
226 238 255
226 238 255
226 238 255
226 238 255
226 238 255
226 238 255
226 238 255
226 238 255
226 238 255
226 238 255
226 238 255
226 238 255
226 238 255
226 238 255
226 238 255
226 238 255
226 238 255
226 238 255
226 238 255
226 238 255
226 238 255
226 238 255
226 238 255
226 238 255
226 238 255
226 238 255
226 238 255
226 238 255
226 238 255
226 238 255
226 238 255
226 238 255
226 238 255
226 238 255
226 238 255
226 238 255
226 238 255
226 238 255
226 238 255
226 238 255
226 238 255
226 238 255
226 238 255
226 238 255
226 238 255
226 238 255
226 238 255
226 238 255
226 238 255
226 238 255
226 238 255
226 238 255
226 238 255
226 238 255
226 238 255
226 238 255
218 230 247
93 98 119
0 1 58
0 0 52
0 0 51
0 0 52
0 0 51
0 0 51
0 0 52
0 0 51
0 0 51
0 0 53
0 0 56
0 0 53
0 0 51
0 0 49
0 0 49
0 0 50
0 0 52
0 0 49
0 0 46
0 0 46
0 0 45
0 0 44
0 0 45
0 0 47
0 0 50
0 0 49
0 0 47
0 0 45
0 0 45
0 0 45
0 0 45
0 0 45
0 0 45
0 0 45
0 0 45
0 0 45
0 0 45
0 0 46
0 0 46
0 0 46
0 0 45
0 0 46
0 0 46
0 0 46
0 0 48
0 0 48
0 0 49
0 0 47
0 0 48
0 0 47
0 0 48
0 0 50
0 0 51
0 0 50
0 0 47
0 0 49
0 0 51
0 0 50
0 0 48
0 0 48
0 0 48
0 0 48
0 0 48
0 0 48
0 0 48
0 0 48
0 0 48
0 0 48
0 0 49
0 0 49
0 0 49
0 0 49
0 0 48
0 0 48
0 0 50
0 0 50
0 0 50
0 0 51
0 0 51
0 0 53
0 0 53
0 0 53
0 0 53
0 0 53
0 0 53
0 0 56
0 0 58
0 0 62
0 0 66
0 0 72
0 10 66
0 13 63
0 13 65
49 60 66
123 136 132
114 117 109
92 79 51
96 83 53
94 82 52
110 95 62
117 99 64
105 88 56
85 79 53
68 66 58
10 20 80
0 15 71
0 15 81
0 16 76
0 16 80
0 15 77
0 7 69
0 0 61
0 1 65
0 11 74
0 11 74
0 13 74
0 14 75
0 7 72
0 12 72
0 8 68
0 6 70
0 6 70
0 0 68
0 0 67
0 0 67
0 6 71
0 16 80
0 11 74
0 8 72
0 12 76
0 15 78
0 10 73
0 6 71
0 7 71
0 8 71
0 6 68
103 109 129
215 227 244
226 238 255
226 238 255
226 238 255
226 238 255
226 238 255
226 238 255
226 238 255
226 238 255
226 238 255
226 238 255
226 238 255
226 238 255
226 238 255
226 238 255
226 238 255
226 238 255
226 238 255
226 238 255
226 238 255
226 238 255
226 238 255
226 238 255
226 238 255
226 238 255
226 238 255
226 238 255
226 238 255
226 238 255
226 238 255
226 238 255
226 238 255
226 238 255
226 238 255
226 238 255
226 238 255
226 238 255
226 238 255
226 238 255
226 238 255
226 238 255
226 238 255
226 238 255
226 238 255
226 238 255
226 238 255
226 238 255
226 238 255
226 238 255
226 238 255
226 238 255
226 238 255
226 238 255
226 238 255
226 238 255
226 238 255
226 238 255
226 238 255
226 238 255
226 238 255
226 238 255
226 238 255
226 238 255
226 238 255
226 238 255
226 238 255
226 238 255
226 238 255
226 238 255
226 238 255
226 238 255
226 238 255
226 238 255
226 238 255
226 238 255
226 238 255
226 238 255
226 238 255
226 238 255
226 238 255
226 238 255
226 238 255
226 238 255
226 238 255
226 238 255
226 238 255
226 238 255
226 238 255
226 238 255
226 238 255
226 238 255
226 238 255
226 238 255
226 238 255
226 238 255
226 238 255
226 238 255
226 238 255
226 238 255
226 238 255
226 238 255
226 238 255
226 238 255
226 238 255
226 238 255
226 238 255
226 238 255
226 238 255
226 238 255
226 238 255
226 238 255
226 238 255
226 238 255
226 238 255
226 238 255
226 238 255
226 238 255
226 238 255
226 238 255
226 238 255
226 238 255
226 238 255
226 238 255
226 238 255
226 238 255
226 238 255
226 238 255
226 238 255
226 238 255
226 238 255
226 238 255
226 238 255
226 238 255
226 238 255
226 238 255
226 238 255
226 238 255
226 238 255
226 238 255
226 238 255
226 238 255
226 238 255
226 238 255
226 238 255
226 238 255
226 238 255
226 238 255
226 238 255
226 238 255
226 238 255
226 238 255
226 238 255
226 238 255
226 238 255
226 238 255
226 238 255
226 238 255
226 238 255
226 238 255
226 238 255
226 238 255
226 238 255
226 238 255
226 238 255
226 238 255
226 238 255
226 238 255
226 238 255
226 238 255
226 238 255
226 238 255
226 238 255
226 238 255
226 238 255
226 238 255
226 238 255
226 238 255
226 238 255
226 238 255
226 238 255
226 238 255
226 238 255
226 238 255
226 238 255
226 238 255
226 238 255
226 238 255
226 238 255
226 238 255
226 238 255
226 238 255
226 238 255
226 238 255
226 238 255
226 238 255
226 238 255
226 238 255
226 238 255
226 238 255
226 238 255
226 238 255
226 238 255
226 238 255
226 238 255
226 238 255
226 238 255
226 238 255
226 238 255
226 238 255
226 238 255
226 238 255
226 238 255
226 238 255
226 238 255
226 238 255
226 238 255
226 238 255
226 238 255
226 238 255
226 238 255
226 238 255
226 238 255
226 238 255
226 238 255
226 238 255
226 238 255
226 238 255
226 238 255
226 238 255
226 238 255
226 238 255
226 238 255
226 238 255
226 238 255
226 238 255
226 238 255
226 238 255
226 238 255
226 238 255
226 238 255
226 238 255
226 238 255
226 238 255
226 238 255
226 238 255
226 238 255
226 238 255
226 238 255
226 238 255
226 238 255
226 238 255
226 238 255
226 238 255
226 238 255
226 238 255
226 238 255
226 238 255
226 238 255
226 238 255
226 238 255
226 238 255
226 238 255
224 236 253
133 141 159
0 5 63
0 0 54
0 0 57
0 0 59
0 0 54
0 0 53
0 0 55
0 0 54
0 0 54
0 0 56
0 0 58
0 0 56
0 0 54
0 0 51
0 0 51
0 0 50
0 0 51
0 0 49
0 0 48
0 0 48
0 0 49
0 0 47
0 0 46
0 0 48
0 0 50
0 0 50
0 0 46
0 0 46
0 0 45
0 0 45
0 0 45
0 0 45
0 0 45
0 0 44
0 0 45
0 0 45
0 0 47
0 0 48
0 0 46
0 0 48
0 0 48
0 0 48
0 0 48
0 0 48
0 0 48
0 0 49
0 0 46
0 0 47
0 0 50
0 0 52
0 0 53
0 0 51
0 0 49
0 0 48
0 0 49
0 0 49
0 0 49
0 0 48
0 0 48
0 0 48
0 0 48
0 0 48
0 0 48
0 0 48
0 0 48
0 0 48
0 0 48
0 0 50
0 0 52
0 0 51
0 0 50
0 0 50
0 0 50
0 0 50
0 0 51
0 0 51
0 0 51
0 0 52
0 0 53
0 0 55
0 0 56
0 0 57
0 0 56
0 0 56
0 0 57
0 0 61
0 0 64
0 0 65
0 7 62
0 12 67
0 26 44
19 44 60
98 116 113
138 146 145
113 105 86
94 81 48
90 77 47
96 83 53
106 90 55
116 101 62
89 77 50
63 68 56
23 30 74
0 13 74
0 21 84
0 17 76
0 15 77
0 15 78
0 9 71
0 0 60
0 0 60
0 3 66
0 14 74
0 10 75
0 9 72
0 2 68
0 0 68
0 5 67
0 2 67
0 3 68
0 9 73
0 8 73
0 4 67
0 7 70
0 14 78
0 14 76
0 12 73
0 15 78
0 16 78
0 10 73
0 2 69
0 0 68
0 9 70
0 5 66
150 158 176
218 230 247
226 238 255
226 238 255
226 238 255
226 238 255
226 238 255
226 238 255
226 238 255
226 238 255
226 238 255
226 238 255
226 238 255
226 238 255
226 238 255
226 238 255
226 238 255
226 238 255
226 238 255
226 238 255
226 238 255
226 238 255
226 238 255
226 238 255
226 238 255
226 238 255
226 238 255
226 238 255
226 238 255
226 238 255
226 238 255
226 238 255
226 238 255
226 238 255
226 238 255
226 238 255
226 238 255
226 238 255
226 238 255
226 238 255
226 238 255
226 238 255
226 238 255
226 238 255
226 238 255
226 238 255
226 238 255
226 238 255
226 238 255
226 238 255
226 238 255
226 238 255
226 238 255
226 238 255
226 238 255
226 238 255
226 238 255
226 238 255
226 238 255
226 238 255
226 238 255
226 238 255
226 238 255
226 238 255
226 238 255
226 238 255
226 238 255
226 238 255
226 238 255
226 238 255
226 238 255
226 238 255
226 238 255
226 238 255
226 238 255
226 238 255
226 238 255
226 238 255
226 238 255
226 238 255
226 238 255
226 238 255
226 238 255
226 238 255
226 238 255
226 238 255
226 238 255
226 238 255
226 238 255
226 238 255
226 238 255
226 238 255
226 238 255
226 238 255
226 238 255
226 238 255
226 238 255
226 238 255
226 238 255
226 238 255
226 238 255
226 238 255
226 238 255
226 238 255
226 238 255
226 238 255
226 238 255
226 238 255
226 238 255
226 238 255
226 238 255
226 238 255
226 238 255
226 238 255
226 238 255
226 238 255
226 238 255
226 238 255
226 238 255
226 238 255
226 238 255
226 238 255
226 238 255
226 238 255
226 238 255
226 238 255
226 238 255
226 238 255
226 238 255
226 238 255
226 238 255
226 238 255
226 238 255
226 238 255
226 238 255
226 238 255
226 238 255
226 238 255
226 238 255
226 238 255
226 238 255
226 238 255
226 238 255
226 238 255
226 238 255
226 238 255
226 238 255
226 238 255
226 238 255
226 238 255
226 238 255
226 238 255
226 238 255
226 238 255
226 238 255
226 238 255
226 238 255
226 238 255
226 238 255
226 238 255
226 238 255
226 238 255
226 238 255
226 238 255
226 238 255
226 238 255
226 238 255
226 238 255
226 238 255
226 238 255
226 238 255
226 238 255
226 238 255
226 238 255
226 238 255
226 238 255
226 238 255
226 238 255
226 238 255
226 238 255
226 238 255
226 238 255
226 238 255
226 238 255
226 238 255
226 238 255
226 238 255
226 238 255
226 238 255
226 238 255
226 238 255
226 238 255
226 238 255
226 238 255
226 238 255
226 238 255
226 238 255
226 238 255
226 238 255
226 238 255
226 238 255
226 238 255
226 238 255
226 238 255
226 238 255
226 238 255
226 238 255
226 238 255
226 238 255
226 238 255
226 238 255
226 238 255
226 238 255
226 238 255
226 238 255
226 238 255
226 238 255
226 238 255
226 238 255
226 238 255
226 238 255
226 238 255
226 238 255
226 238 255
226 238 255
226 238 255
226 238 255
226 238 255
226 238 255
226 238 255
226 238 255
226 238 255
226 238 255
226 238 255
226 238 255
226 238 255
226 238 255
226 238 255
226 238 255
226 238 255
226 238 255
226 238 255
226 238 255
226 238 255
226 238 255
226 238 255
226 238 255
226 238 255
226 238 255
226 238 255
226 238 255
226 238 255
226 238 255
226 238 255
226 238 255
226 238 255
226 238 255
226 238 255
226 238 255
226 238 255
226 238 255
226 238 255
226 238 255
226 238 255
226 238 255
226 238 255
169 178 196
39 41 79
0 3 57
0 0 61
0 0 64
0 0 60
0 0 59
0 0 57
0 0 58
0 0 57
0 0 59
0 0 60
0 0 60
0 0 57
0 0 54
0 0 54
0 0 54
0 0 52
0 0 50
0 0 51
0 0 53
0 0 54
0 0 51
0 0 45
0 0 45
0 0 48
0 0 46
0 0 45
0 0 45
0 0 45
0 0 45
0 0 44
0 0 45
0 0 43
0 0 45
0 0 47
0 0 48
0 0 48
0 0 47
0 0 48
0 0 48
0 0 48
0 0 48
0 0 48
0 0 47
0 0 48
0 0 47
0 0 47
0 0 47
0 0 49
0 0 51
0 0 51
0 0 48
0 0 48
0 0 48
0 0 47
0 0 46
0 0 46
0 0 48
0 0 50
0 0 49
0 0 49
0 0 49
0 0 48
0 0 48
0 0 48
0 0 49
0 0 52
0 0 52
0 0 53
0 0 51
0 0 50
0 0 50
0 0 50
0 0 52
0 0 53
0 0 52
0 0 52
0 0 53
0 0 54
0 0 54
0 0 57
0 0 57
0 0 57
0 0 60
0 0 61
0 0 63
0 0 68
0 9 75
0 23 60
14 37 54
76 99 96
116 127 126
92 89 71
95 82 52
97 80 48
94 84 49
97 86 50
100 87 54
56 57 67
15 27 79
0 14 69
0 8 71
0 10 71
0 13 73
0 12 74
0 15 75
0 13 74
0 3 63
0 0 62
0 0 65
0 11 72
0 18 79
0 15 75
0 5 69
0 0 70
0 0 68
0 6 68
0 13 73
0 14 74
0 15 76
0 15 77
0 14 73
0 12 74
0 10 74
0 12 74
0 15 77
0 13 73
0 0 65
0 0 67
0 5 67
0 4 69
39 41 77
161 170 188
226 238 255
226 238 255
226 238 255
226 238 255
226 238 255
226 238 255
226 238 255
226 238 255
226 238 255
226 238 255
226 238 255
226 238 255
226 238 255
226 238 255
226 238 255
226 238 255
226 238 255
226 238 255
226 238 255
226 238 255
226 238 255
226 238 255
226 238 255
226 238 255
226 238 255
226 238 255
226 238 255
226 238 255
226 238 255
226 238 255
226 238 255
226 238 255
226 238 255
226 238 255
226 238 255
226 238 255
226 238 255
226 238 255
226 238 255
226 238 255
226 238 255
226 238 255
226 238 255
226 238 255
226 238 255
226 238 255
226 238 255
226 238 255
226 238 255
226 238 255
226 238 255
226 238 255
226 238 255
226 238 255
226 238 255
226 238 255
226 238 255
226 238 255
226 238 255
226 238 255
226 238 255
226 238 255
226 238 255
226 238 255
226 238 255
226 238 255
226 238 255
226 238 255
226 238 255
226 238 255
226 238 255
226 238 255
226 238 255
226 238 255
226 238 255
226 238 255
226 238 255
226 238 255
226 238 255
226 238 255
226 238 255
226 238 255
226 238 255
226 238 255
226 238 255
226 238 255
226 238 255
226 238 255
226 238 255
226 238 255
226 238 255
226 238 255
226 238 255
226 238 255
226 238 255
226 238 255
226 238 255
226 238 255
226 238 255
226 238 255
226 238 255
226 238 255
226 238 255
226 238 255
226 238 255
226 238 255
226 238 255
226 238 255
226 238 255
226 238 255
226 238 255
226 238 255
226 238 255
226 238 255
226 238 255
226 238 255
226 238 255
226 238 255
226 238 255
226 238 255
226 238 255
226 238 255
226 238 255
226 238 255
226 238 255
226 238 255
226 238 255
226 238 255
226 238 255
226 238 255
226 238 255
226 238 255
226 238 255
226 238 255
226 238 255
226 238 255
226 238 255
226 238 255
226 238 255
226 238 255
226 238 255
226 238 255
226 238 255
226 238 255
226 238 255
226 238 255
226 238 255
226 238 255
226 238 255
226 238 255
226 238 255
226 238 255
226 238 255
226 238 255
226 238 255
226 238 255
226 238 255
226 238 255
226 238 255
226 238 255
226 238 255
226 238 255
226 238 255
226 238 255
226 238 255
226 238 255
226 238 255
226 238 255
226 238 255
226 238 255
226 238 255
226 238 255
226 238 255
226 238 255
226 238 255
226 238 255
226 238 255
226 238 255
226 238 255
226 238 255
226 238 255
226 238 255
226 238 255
226 238 255
226 238 255
226 238 255
226 238 255
226 238 255
226 238 255
226 238 255
226 238 255
226 238 255
226 238 255
226 238 255
226 238 255
226 238 255
226 238 255
226 238 255
226 238 255
226 238 255
226 238 255
226 238 255
226 238 255
226 238 255
226 238 255
226 238 255
226 238 255
226 238 255
226 238 255
226 238 255
226 238 255
226 238 255
226 238 255
226 238 255
226 238 255
226 238 255
226 238 255
226 238 255
226 238 255
226 238 255
226 238 255
226 238 255
226 238 255
226 238 255
226 238 255
226 238 255
226 238 255
226 238 255
226 238 255
226 238 255
226 238 255
226 238 255
226 238 255
226 238 255
226 238 255
226 238 255
226 238 255
226 238 255
226 238 255
226 238 255
226 238 255
226 238 255
226 238 255
226 238 255
226 238 255
226 238 255
226 238 255
226 238 255
226 238 255
226 238 255
226 238 255
226 238 255
226 238 255
226 238 255
226 238 255
226 238 255
226 238 255
226 238 255
226 238 255
226 238 255
226 238 255
226 238 255
226 238 255
226 238 255
226 238 255
226 238 255
226 238 255
201 212 229
78 83 110
0 8 64
0 0 62
0 0 66
0 7 69
0 4 65
0 0 61
0 0 63
0 0 63
0 0 64
0 0 63
0 0 63
0 0 63
0 0 59
0 0 56
0 0 59
0 0 55
0 0 53
0 0 55
0 0 55
0 0 55
0 0 52
0 0 50
0 0 49
0 0 47
0 0 45
0 0 45
0 0 47
0 0 46
0 0 47
0 0 47
0 0 47
0 0 47
0 0 45
0 0 47
0 0 48
0 0 48
0 0 49
0 0 49
0 0 49
0 0 49
0 0 49
0 0 49
0 0 49
0 0 48
0 0 48
0 0 48
0 0 48
0 0 48
0 0 49
0 0 49
0 0 49
0 0 49
0 0 50
0 0 50
0 0 50
0 0 51
0 0 50
0 0 50
0 0 49
0 0 48
0 0 51
0 0 50
0 0 51
0 0 51
0 0 51
0 0 52
0 0 54
0 0 53
0 0 51
0 0 51
0 0 51
0 0 52
0 0 53
0 0 52
0 0 52
0 0 53
0 0 52
0 0 54
0 0 55
0 0 57
0 0 58
0 0 60
0 0 63
0 0 65
0 6 71
11 24 58
23 41 36
62 78 79
152 164 171
138 144 142
93 87 73
89 75 42
98 82 47
104 91 52
88 81 46
53 56 66
2 24 87
0 16 80
0 11 72
0 0 67
0 0 67
0 6 70
0 7 71
0 6 71
0 3 67
0 0 66
0 0 66
0 0 68
0 10 71
0 10 73
0 11 74
0 6 70
0 0 69
0 0 68
0 6 69
0 10 72
0 10 71
0 1 70
0 4 68
0 5 69
0 8 71
0 0 69
0 9 71
0 7 68
0 0 65
0 0 67
0 3 67
0 6 69
87 92 116
201 212 229
226 238 255
226 238 255
226 238 255
226 238 255
226 238 255
226 238 255
226 238 255
226 238 255
226 238 255
226 238 255
226 238 255
226 238 255
226 238 255
226 238 255
226 238 255
226 238 255
226 238 255
226 238 255
226 238 255
226 238 255
226 238 255
226 238 255
226 238 255
226 238 255
226 238 255
226 238 255
226 238 255
226 238 255
226 238 255
226 238 255
226 238 255
226 238 255
226 238 255
226 238 255
226 238 255
226 238 255
226 238 255
226 238 255
226 238 255
226 238 255
226 238 255
226 238 255
226 238 255
226 238 255
226 238 255
226 238 255
226 238 255
226 238 255
226 238 255
226 238 255
226 238 255
226 238 255
226 238 255
226 238 255
226 238 255
226 238 255
226 238 255
226 238 255
226 238 255
226 238 255
226 238 255
226 238 255
226 238 255
226 238 255
226 238 255
226 238 255
226 238 255
226 238 255
226 238 255
226 238 255
226 238 255
226 238 255
226 238 255
226 238 255
226 238 255
226 238 255
226 238 255
226 238 255
226 238 255
226 238 255
226 238 255
226 238 255
226 238 255
226 238 255
226 238 255
226 238 255
226 238 255
226 238 255
226 238 255
226 238 255
226 238 255
226 238 255
226 238 255
226 238 255
226 238 255
226 238 255
226 238 255
226 238 255
226 238 255
226 238 255
226 238 255
226 238 255
226 238 255
226 238 255
226 238 255
226 238 255
226 238 255
226 238 255
226 238 255
226 238 255
226 238 255
226 238 255
226 238 255
226 238 255
226 238 255
226 238 255
226 238 255
226 238 255
226 238 255
226 238 255
226 238 255
226 238 255
226 238 255
226 238 255
226 238 255
226 238 255
226 238 255
226 238 255
226 238 255
226 238 255
226 238 255
226 238 255
226 238 255
226 238 255
226 238 255
226 238 255
226 238 255
226 238 255
226 238 255
226 238 255
226 238 255
226 238 255
226 238 255
226 238 255
226 238 255
226 238 255
226 238 255
226 238 255
226 238 255
226 238 255
226 238 255
226 238 255
226 238 255
226 238 255
226 238 255
226 238 255
226 238 255
226 238 255
226 238 255
226 238 255
226 238 255
226 238 255
226 238 255
226 238 255
226 238 255
226 238 255
226 238 255
226 238 255
226 238 255
226 238 255
226 238 255
226 238 255
226 238 255
226 238 255
226 238 255
226 238 255
226 238 255
226 238 255
226 238 255
226 238 255
226 238 255
226 238 255
226 238 255
226 238 255
226 238 255
226 238 255
226 238 255
226 238 255
226 238 255
226 238 255
226 238 255
226 238 255
226 238 255
226 238 255
226 238 255
226 238 255
226 238 255
226 238 255
226 238 255
226 238 255
226 238 255
226 238 255
226 238 255
226 238 255
226 238 255
226 238 255
226 238 255
226 238 255
226 238 255
226 238 255
226 238 255
226 238 255
226 238 255
226 238 255
226 238 255
226 238 255
226 238 255
226 238 255
226 238 255
226 238 255
226 238 255
226 238 255
226 238 255
226 238 255
226 238 255
226 238 255
226 238 255
226 238 255
226 238 255
226 238 255
226 238 255
226 238 255
226 238 255
226 238 255
226 238 255
226 238 255
226 238 255
226 238 255
226 238 255
226 238 255
226 238 255
226 238 255
226 238 255
226 238 255
226 238 255
226 238 255
226 238 255
226 238 255
226 238 255
226 238 255
226 238 255
226 238 255
226 238 255
226 238 255
226 238 255
226 238 255
226 238 255
226 238 255
226 238 255
226 238 255
226 238 255
226 238 255
226 238 255
226 238 255
226 238 255
226 238 255
226 238 255
226 238 255
226 238 255
224 236 253
146 154 174
0 7 69
0 0 63
0 0 65
0 7 69
0 6 66
0 0 66
0 0 66
0 0 65
0 0 64
0 0 65
0 0 66
0 1 66
0 0 60
0 0 63
0 0 59
0 0 57
0 0 56
0 0 56
0 0 57
0 0 57
0 0 59
0 0 57
0 0 54
0 0 52
0 0 49
0 0 48
0 0 48
0 0 48
0 0 48
0 0 48
0 0 48
0 0 48
0 0 48
0 0 48
0 0 48
0 0 49
0 0 50
0 0 50
0 0 50
0 0 51
0 0 50
0 0 51
0 0 50
0 0 49
0 0 48
0 0 48
0 0 48
0 0 51
0 0 52
0 0 51
0 0 52
0 0 54
0 0 52
0 0 52
0 0 53
0 0 53
0 0 53
0 0 52
0 0 52
0 0 52
0 0 50
0 0 51
0 0 53
0 0 51
0 0 51
0 0 54
0 0 54
0 0 53
0 0 53
0 0 53
0 0 53
0 0 53
0 0 53
0 0 54
0 0 53
0 0 53
0 0 55
0 0 55
0 0 57
0 0 60
0 0 63
0 0 66
0 4 69
2 22 61
9 28 48
94 103 105
183 196 206
121 132 141
167 175 175
117 112 92
102 85 53
102 87 54
106 90 52
96 85 52
85 79 48
49 51 68
12 29 81
0 5 71
0 0 70
0 5 71
0 0 69
0 0 67
0 0 67
0 0 66
0 0 69
0 0 68
0 0 63
0 6 68
0 11 73
0 8 70
0 0 68
0 0 66
0 0 65
0 0 66
0 0 68
0 5 70
0 5 66
0 0 64
0 0 66
0 7 69
0 4 68
0 3 67
0 6 68
0 2 69
0 0 67
0 4 69
148 156 175
220 232 249
226 238 255
226 238 255
226 238 255
226 238 255
226 238 255
226 238 255
226 238 255
226 238 255
226 238 255
226 238 255
226 238 255
226 238 255
226 238 255
226 238 255
226 238 255
226 238 255
226 238 255
226 238 255
226 238 255
226 238 255
226 238 255
226 238 255
226 238 255
226 238 255
226 238 255
226 238 255
226 238 255
226 238 255
226 238 255
226 238 255
226 238 255
226 238 255
226 238 255
226 238 255
226 238 255
226 238 255
226 238 255
226 238 255
226 238 255
226 238 255
226 238 255
226 238 255
226 238 255
226 238 255
226 238 255
226 238 255
226 238 255
226 238 255
226 238 255
226 238 255
226 238 255
226 238 255
226 238 255
226 238 255
226 238 255
226 238 255
226 238 255
226 238 255
226 238 255
226 238 255
226 238 255
226 238 255
226 238 255
226 238 255
226 238 255
226 238 255
226 238 255
226 238 255
226 238 255
226 238 255
226 238 255
226 238 255
226 238 255
226 238 255
226 238 255
226 238 255
226 238 255
226 238 255
226 238 255
226 238 255
226 238 255
226 238 255
226 238 255
226 238 255
226 238 255
226 238 255
226 238 255
226 238 255
226 238 255
226 238 255
226 238 255
226 238 255
226 238 255
226 238 255
226 238 255
226 238 255
226 238 255
226 238 255
226 238 255
226 238 255
226 238 255
226 238 255
226 238 255
226 238 255
226 238 255
226 238 255
226 238 255
226 238 255
226 238 255
226 238 255
226 238 255
226 238 255
226 238 255
226 238 255
226 238 255
226 238 255
226 238 255
226 238 255
226 238 255
226 238 255
226 238 255
226 238 255
226 238 255
226 238 255
226 238 255
226 238 255
226 238 255
226 238 255
226 238 255
226 238 255
226 238 255
226 238 255
226 238 255
226 238 255
226 238 255
226 238 255
226 238 255
226 238 255
226 238 255
226 238 255
226 238 255
226 238 255
226 238 255
226 238 255
226 238 255
226 238 255
226 238 255
226 238 255
226 238 255
226 238 255
226 238 255
226 238 255
226 238 255
226 238 255
226 238 255
226 238 255
226 238 255
226 238 255
226 238 255
226 238 255
226 238 255
226 238 255
226 238 255
226 238 255
226 238 255
226 238 255
226 238 255
226 238 255
226 238 255
226 238 255
226 238 255
226 238 255
226 238 255
226 238 255
226 238 255
226 238 255
226 238 255
226 238 255
226 238 255
226 238 255
226 238 255
226 238 255
226 238 255
226 238 255
226 238 255
226 238 255
226 238 255
226 238 255
226 238 255
226 238 255
226 238 255
226 238 255
226 238 255
226 238 255
226 238 255
226 238 255
226 238 255
226 238 255
226 238 255
226 238 255
226 238 255
226 238 255
226 238 255
226 238 255
226 238 255
226 238 255
226 238 255
226 238 255
226 238 255
226 238 255
226 238 255
226 238 255
226 238 255
226 238 255
226 238 255
226 238 255
226 238 255
226 238 255
226 238 255
226 238 255
226 238 255
226 238 255
226 238 255
226 238 255
226 238 255
226 238 255
226 238 255
226 238 255
226 238 255
226 238 255
226 238 255
226 238 255
226 238 255
226 238 255
226 238 255
226 238 255
226 238 255
226 238 255
226 238 255
226 238 255
226 238 255
226 238 255
226 238 255
226 238 255
226 238 255
226 238 255
226 238 255
226 238 255
226 238 255
226 238 255
226 238 255
226 238 255
226 238 255
226 238 255
226 238 255
226 238 255
226 238 255
226 238 255
226 238 255
226 238 255
226 238 255
226 238 255
226 238 255
226 238 255
226 238 255
226 238 255
226 238 255
226 238 255
226 238 255
226 238 255
226 238 255
226 238 255
169 178 197
50 53 88
0 4 68
0 8 67
0 7 67
0 6 70
0 0 68
0 1 67
0 0 67
0 0 66
0 0 65
0 4 66
0 0 68
0 0 66
0 0 65
0 0 60
0 0 59
0 0 62
0 0 60
0 0 57
0 0 61
0 0 62
0 0 64
0 0 60
0 0 57
0 0 52
0 0 52
0 0 49
0 0 46
0 0 48
0 0 49
0 0 50
0 0 54
0 0 52
0 0 55
0 0 56
0 0 52
0 0 52
0 0 52
0 0 52
0 0 52
0 0 51
0 0 53
0 0 51
0 0 50
0 0 50
0 0 50
0 0 52
0 0 54
0 0 53
0 0 53
0 0 55
0 0 55
0 0 53
0 0 54
0 0 57
0 0 56
0 0 53
0 0 53
0 0 52
0 0 52
0 0 52
0 0 52
0 0 51
0 0 51
0 0 52
0 0 54
0 0 53
0 0 53
0 0 53
0 0 53
0 0 54
0 0 53
0 0 55
0 0 54
0 0 53
0 0 54
0 0 56
0 0 59
0 0 62
0 5 68
0 12 74
0 15 79
4 28 76
30 49 85
143 158 167
185 194 200
184 191 201
138 136 116
119 100 71
112 94 60
108 95 58
111 92 54
108 90 51
77 74 51
42 47 75
0 14 77
0 7 72
0 0 69
0 0 67
0 0 68
0 0 66
0 0 63
0 0 64
0 0 67
0 0 68
0 0 63
0 0 62
0 0 62
0 0 65
0 0 63
0 0 61
0 0 64
0 0 66
0 0 64
0 0 65
0 0 64
0 0 67
0 7 71
0 13 73
0 10 72
0 1 67
0 2 67
0 0 66
39 41 79
181 191 208
226 238 255
226 238 255
226 238 255
226 238 255
226 238 255
226 238 255
226 238 255
226 238 255
226 238 255
226 238 255
226 238 255
226 238 255
226 238 255
226 238 255
226 238 255
226 238 255
226 238 255
226 238 255
226 238 255
226 238 255
226 238 255
226 238 255
226 238 255
226 238 255
226 238 255
226 238 255
226 238 255
226 238 255
226 238 255
226 238 255
226 238 255
226 238 255
226 238 255
226 238 255
226 238 255
226 238 255
226 238 255
226 238 255
226 238 255
226 238 255
226 238 255
226 238 255
226 238 255
226 238 255
226 238 255
226 238 255
226 238 255
226 238 255
226 238 255
226 238 255
226 238 255
226 238 255
226 238 255
226 238 255
226 238 255
226 238 255
226 238 255
226 238 255
226 238 255
226 238 255
226 238 255
226 238 255
226 238 255
226 238 255
226 238 255
226 238 255
226 238 255
226 238 255
226 238 255
226 238 255
226 238 255
226 238 255
226 238 255
226 238 255
226 238 255
226 238 255
226 238 255
226 238 255
226 238 255
226 238 255
226 238 255
226 238 255
226 238 255
226 238 255
226 238 255
226 238 255
226 238 255
226 238 255
226 238 255
226 238 255
226 238 255
226 238 255
226 238 255
226 238 255
226 238 255
226 238 255
226 238 255
226 238 255
226 238 255
226 238 255
226 238 255
226 238 255
226 238 255
226 238 255
226 238 255
226 238 255
226 238 255
226 238 255
226 238 255
226 238 255
226 238 255
226 238 255
226 238 255
226 238 255
226 238 255
226 238 255
226 238 255
226 238 255
226 238 255
226 238 255
226 238 255
226 238 255
226 238 255
226 238 255
226 238 255
226 238 255
226 238 255
226 238 255
226 238 255
226 238 255
226 238 255
226 238 255
226 238 255
226 238 255
226 238 255
226 238 255
226 238 255
226 238 255
226 238 255
226 238 255
226 238 255
226 238 255
226 238 255
226 238 255
226 238 255
226 238 255
226 238 255
226 238 255
226 238 255
226 238 255
226 238 255
226 238 255
226 238 255
226 238 255
226 238 255
226 238 255
226 238 255
226 238 255
226 238 255
226 238 255
226 238 255
226 238 255
226 238 255
226 238 255
226 238 255
226 238 255
226 238 255
226 238 255
226 238 255
226 238 255
226 238 255
226 238 255
226 238 255
226 238 255
226 238 255
226 238 255
226 238 255
226 238 255
226 238 255
226 238 255
226 238 255
226 238 255
226 238 255
226 238 255
226 238 255
226 238 255
226 238 255
226 238 255
226 238 255
226 238 255
226 238 255
226 238 255
226 238 255
226 238 255
226 238 255
226 238 255
226 238 255
226 238 255
226 238 255
226 238 255
226 238 255
226 238 255
226 238 255
226 238 255
226 238 255
226 238 255
226 238 255
226 238 255
226 238 255
226 238 255
226 238 255
226 238 255
226 238 255
226 238 255
226 238 255
226 238 255
226 238 255
226 238 255
226 238 255
226 238 255
226 238 255
226 238 255
226 238 255
226 238 255
226 238 255
226 238 255
226 238 255
226 238 255
226 238 255
226 238 255
226 238 255
226 238 255
226 238 255
226 238 255
226 238 255
226 238 255
226 238 255
226 238 255
226 238 255
226 238 255
226 238 255
226 238 255
226 238 255
226 238 255
226 238 255
226 238 255
226 238 255
226 238 255
226 238 255
226 238 255
226 238 255
226 238 255
226 238 255
226 238 255
226 238 255
226 238 255
226 238 255
226 238 255
226 238 255
226 238 255
226 238 255
226 238 255
226 238 255
226 238 255
226 238 255
226 238 255
226 238 255
226 238 255
226 238 255
226 238 255
226 238 255
226 238 255
226 238 255
226 238 255
226 238 255
215 226 244
113 120 144
0 13 76
0 16 77
0 10 72
0 9 72
0 10 71
0 5 69
0 2 68
0 0 66
0 0 64
0 0 65
0 0 68
0 4 69
0 7 68
0 0 62
0 0 60
0 0 63
0 0 62
0 0 60
0 0 56
0 0 57
0 0 59
0 0 57
0 0 57
0 0 56
0 0 53
0 0 50
0 0 47
0 0 48
0 0 52
0 0 57
0 0 55
0 0 55
0 0 54
0 0 54
0 0 56
0 0 56
0 0 55
0 0 54
0 0 54
0 0 53
0 0 56
0 0 54
0 0 52
0 0 54
0 0 53
0 0 54
0 0 56
0 0 56
0 0 57
0 0 56
0 0 55
0 0 57
0 0 57
0 0 57
0 0 57
0 0 57
0 0 54
0 0 52
0 0 52
0 0 52
0 0 49
0 0 51
0 0 52
0 0 53
0 0 56
0 0 57
0 0 54
0 0 56
0 0 59
0 0 58
0 0 58
0 0 58
0 0 57
0 0 56
0 0 59
0 0 60
0 0 65
0 7 70
0 15 79
10 25 68
34 53 62
94 111 122
182 195 209
163 179 188
173 175 160
115 108 75
111 94 50
114 90 48
106 94 60
91 78 58
53 49 72
11 21 75
0 8 72
0 11 75
0 2 70
0 0 67
0 0 67
0 0 67
0 5 68
0 6 67
0 0 66
0 0 69
0 0 65
0 0 60
0 0 60
0 0 61
0 0 60
0 0 60
0 0 60
0 0 61
0 0 62
0 0 63
0 0 65
0 2 68
0 11 74
0 12 74
0 6 70
0 4 68
0 0 67
0 1 66
115 121 142
202 213 231
226 238 255
226 238 255
226 238 255
226 238 255
226 238 255
226 238 255
226 238 255
226 238 255
226 238 255
226 238 255
226 238 255
226 238 255
226 238 255
226 238 255
226 238 255
226 238 255
226 238 255
226 238 255
226 238 255
226 238 255
226 238 255
226 238 255
226 238 255
226 238 255
226 238 255
226 238 255
226 238 255
226 238 255
226 238 255
226 238 255
226 238 255
226 238 255
226 238 255
226 238 255
226 238 255
226 238 255
226 238 255
226 238 255
226 238 255
226 238 255
226 238 255
226 238 255
226 238 255
226 238 255
226 238 255
226 238 255
226 238 255
226 238 255
226 238 255
226 238 255
226 238 255
226 238 255
226 238 255
226 238 255
226 238 255
226 238 255
226 238 255
226 238 255
226 238 255
226 238 255
226 238 255
226 238 255
226 238 255
226 238 255
226 238 255
226 238 255
226 238 255
226 238 255
226 238 255
226 238 255
226 238 255
226 238 255
226 238 255
226 238 255
226 238 255
226 238 255
226 238 255
226 238 255
226 238 255
226 238 255
226 238 255
226 238 255
226 238 255
226 238 255
226 238 255
226 238 255
226 238 255
226 238 255
226 238 255
226 238 255
226 238 255
226 238 255
226 238 255
226 238 255
226 238 255
226 238 255
226 238 255
226 238 255
226 238 255
226 238 255
226 238 255
226 238 255
226 238 255
226 238 255
226 238 255
226 238 255
226 238 255
226 238 255
226 238 255
226 238 255
226 238 255
226 238 255
226 238 255
226 238 255
226 238 255
226 238 255
226 238 255
226 238 255
226 238 255
226 238 255
226 238 255
226 238 255
226 238 255
226 238 255
226 238 255
226 238 255
226 238 255
226 238 255
226 238 255
226 238 255
226 238 255
226 238 255
226 238 255
226 238 255
226 238 255
226 238 255
226 238 255
226 238 255
226 238 255
226 238 255
226 238 255
226 238 255
226 238 255
226 238 255
226 238 255
226 238 255
226 238 255
226 238 255
226 238 255
226 238 255
226 238 255
226 238 255
226 238 255
226 238 255
226 238 255
226 238 255
226 238 255
226 238 255
226 238 255
226 238 255
226 238 255
226 238 255
226 238 255
226 238 255
226 238 255
226 238 255
226 238 255
226 238 255
226 238 255
226 238 255
226 238 255
226 238 255
226 238 255
226 238 255
226 238 255
226 238 255
226 238 255
226 238 255
226 238 255
226 238 255
226 238 255
226 238 255
226 238 255
226 238 255
226 238 255
226 238 255
226 238 255
226 238 255
226 238 255
226 238 255
226 238 255
226 238 255
226 238 255
226 238 255
226 238 255
226 238 255
226 238 255
226 238 255
226 238 255
226 238 255
226 238 255
226 238 255
226 238 255
226 238 255
226 238 255
226 238 255
226 238 255
226 238 255
226 238 255
226 238 255
226 238 255
226 238 255
226 238 255
226 238 255
226 238 255
226 238 255
226 238 255
226 238 255
226 238 255
226 238 255
226 238 255
226 238 255
226 238 255
226 238 255
226 238 255
226 238 255
226 238 255
226 238 255
226 238 255
226 238 255
226 238 255
226 238 255
226 238 255
226 238 255
226 238 255
226 238 255
226 238 255
226 238 255
226 238 255
226 238 255
226 238 255
226 238 255
226 238 255
226 238 255
226 238 255
226 238 255
226 238 255
226 238 255
226 238 255
226 238 255
226 238 255
226 238 255
226 238 255
226 238 255
226 238 255
226 238 255
226 238 255
226 238 255
226 238 255
226 238 255
226 238 255
226 238 255
226 238 255
226 238 255
226 238 255
226 238 255
226 238 255
226 238 255
226 238 255
226 238 255
226 238 255
226 238 255
226 238 255
226 238 255
226 238 255
226 238 255
226 238 255
225 237 254
174 183 203
55 62 102
0 23 83
0 18 79
0 10 71
0 11 72
0 8 68
0 8 71
0 0 66
0 0 66
0 0 67
0 0 63
0 3 67
0 4 68
0 0 65
0 0 63
0 0 61
0 0 64
0 0 63
0 0 61
0 0 59
0 0 56
0 0 54
0 0 53
0 0 56
0 0 54
0 0 52
0 0 50
0 0 48
0 0 52
0 0 60
0 0 58
0 0 57
0 0 53
0 0 54
0 0 62
0 0 60
0 0 57
0 0 57
0 0 56
0 0 58
0 0 55
0 0 55
0 0 57
0 0 61
0 0 59
0 0 57
0 0 54
0 0 56
0 0 57
0 0 57
0 0 57
0 0 57
0 0 58
0 0 60
0 0 61
0 0 59
0 0 56
0 0 55
0 0 53
0 0 51
0 0 50
0 0 51
0 0 52
0 0 53
0 0 55
0 0 57
0 0 57
0 0 57
0 0 57
0 0 57
0 0 56
0 0 57
0 0 58
0 0 59
0 0 59
0 0 64
0 0 68
0 14 77
34 52 73
102 122 139
177 187 202
200 215 223
135 144 133
120 108 74
116 101 59
108 94 52
98 82 44
85 78 52
26 36 72
0 10 74
0 12 73
0 12 76
0 0 71
0 0 68
0 0 67
0 0 68
0 2 69
0 6 71
0 1 69
0 0 69
0 0 65
0 0 62
0 0 62
0 0 63
0 0 65
0 0 65
0 0 64
0 0 64
0 0 64
0 0 65
0 3 67
0 6 70
0 13 75
0 10 74
0 0 67
0 7 71
0 4 70
45 47 81
168 177 195
225 237 254
226 238 255
226 238 255
226 238 255
226 238 255
226 238 255
226 238 255
226 238 255
226 238 255
226 238 255
226 238 255
226 238 255
226 238 255
226 238 255
226 238 255
226 238 255
226 238 255
226 238 255
226 238 255
226 238 255
226 238 255
226 238 255
226 238 255
226 238 255
226 238 255
226 238 255
226 238 255
226 238 255
226 238 255
226 238 255
226 238 255
226 238 255
226 238 255
226 238 255
226 238 255
226 238 255
226 238 255
226 238 255
226 238 255
226 238 255
226 238 255
226 238 255
226 238 255
226 238 255
226 238 255
226 238 255
226 238 255
226 238 255
226 238 255
226 238 255
226 238 255
226 238 255
226 238 255
226 238 255
226 238 255
226 238 255
226 238 255
226 238 255
226 238 255
226 238 255
226 238 255
226 238 255
226 238 255
226 238 255
226 238 255
226 238 255
226 238 255
226 238 255
226 238 255
226 238 255
226 238 255
226 238 255
226 238 255
226 238 255
226 238 255
226 238 255
226 238 255
226 238 255
226 238 255
226 238 255
226 238 255
226 238 255
226 238 255
226 238 255
226 238 255
226 238 255
226 238 255
226 238 255
226 238 255
226 238 255
226 238 255
226 238 255
226 238 255
226 238 255
226 238 255
226 238 255
226 238 255
226 238 255
226 238 255
226 238 255
226 238 255
226 238 255
226 238 255
226 238 255
226 238 255
226 238 255
226 238 255
226 238 255
226 238 255
226 238 255
226 238 255
226 238 255
226 238 255
226 238 255
226 238 255
226 238 255
226 238 255
226 238 255
226 238 255
226 238 255
226 238 255
226 238 255
226 238 255
226 238 255
226 238 255
226 238 255
226 238 255
226 238 255
226 238 255
226 238 255
226 238 255
226 238 255
226 238 255
226 238 255
226 238 255
226 238 255
226 238 255
226 238 255
226 238 255
226 238 255
226 238 255
226 238 255
226 238 255
226 238 255
226 238 255
226 238 255
226 238 255
226 238 255
226 238 255
226 238 255
226 238 255
226 238 255
226 238 255
226 238 255
226 238 255
226 238 255
226 238 255
226 238 255
226 238 255
226 238 255
226 238 255
226 238 255
226 238 255
226 238 255
226 238 255
226 238 255
226 238 255
226 238 255
226 238 255
226 238 255
226 238 255
226 238 255
226 238 255
226 238 255
226 238 255
226 238 255
226 238 255
226 238 255
226 238 255
226 238 255
226 238 255
226 238 255
226 238 255
226 238 255
226 238 255
226 238 255
226 238 255
226 238 255
226 238 255
226 238 255
226 238 255
226 238 255
226 238 255
226 238 255
226 238 255
226 238 255
226 238 255
226 238 255
226 238 255
226 238 255
226 238 255
226 238 255
226 238 255
226 238 255
226 238 255
226 238 255
226 238 255
226 238 255
226 238 255
226 238 255
226 238 255
226 238 255
226 238 255
226 238 255
226 238 255
226 238 255
226 238 255
226 238 255
226 238 255
226 238 255
226 238 255
226 238 255
226 238 255
226 238 255
226 238 255
226 238 255
226 238 255
226 238 255
226 238 255
226 238 255
226 238 255
226 238 255
226 238 255
226 238 255
226 238 255
226 238 255
226 238 255
226 238 255
226 238 255
226 238 255
226 238 255
226 238 255
226 238 255
226 238 255
226 238 255
226 238 255
226 238 255
226 238 255
226 238 255
226 238 255
226 238 255
226 238 255
226 238 255
226 238 255
226 238 255
226 238 255
226 238 255
226 238 255
226 238 255
226 238 255
226 238 255
226 238 255
226 238 255
226 238 255
226 238 255
226 238 255
226 238 255
226 238 255
226 238 255
226 238 255
226 238 255
226 238 255
226 238 255
226 238 255
226 238 255
226 238 255
226 238 255
226 238 255
226 238 255
226 238 255
226 238 255
217 229 246
124 132 158
0 23 84
0 20 81
0 15 76
0 12 73
0 10 72
0 12 74
0 5 68
0 2 69
0 2 68
0 4 67
0 5 67
0 5 69
0 0 65
0 0 64
0 0 65
0 0 64
0 0 64
0 0 62
0 0 57
0 0 56
0 0 53
0 0 52
0 0 54
0 0 53
0 0 54
0 0 54
0 0 52
0 0 53
0 0 58
0 0 62
0 0 62
0 0 62
0 0 56
0 0 54
0 0 61
0 0 61
0 0 58
0 0 61
0 0 61
0 0 59
0 0 60
0 0 60
0 0 58
0 0 59
0 0 59
0 0 59
0 0 61
0 0 61
0 0 62
0 0 64
0 0 63
0 0 61
0 0 65
0 0 65
0 0 61
0 0 57
0 0 55
0 0 53
0 0 53
0 0 53
0 0 52
0 0 52
0 0 54
0 0 58
0 0 59
0 0 60
0 0 59
0 0 57
0 0 56
0 0 56
0 0 58
0 0 59
0 0 59
0 0 65
0 0 66
6 18 78
27 49 70
102 124 148
197 207 220
155 172 174
126 126 104
113 103 65
102 87 44
85 75 51
35 42 74
14 27 78
0 16 81
0 16 78
0 8 71
0 8 72
0 0 67
0 3 66
2 6 69
22 34 66
31 34 66
20 23 67
0 2 72
0 0 65
0 0 64
0 0 63
0 0 63
0 0 65
0 0 63
0 0 63
0 0 66
0 0 66
0 0 66
0 3 69
0 14 76
15 25 83
7 14 72
0 3 68
0 10 71
0 10 72
120 126 147
206 217 235
226 238 255
226 238 255
226 238 255
226 238 255
226 238 255
226 238 255
226 238 255
226 238 255
226 238 255
226 238 255
226 238 255
226 238 255
226 238 255
226 238 255
226 238 255
226 238 255
226 238 255
226 238 255
226 238 255
226 238 255
226 238 255
226 238 255
226 238 255
226 238 255
226 238 255
226 238 255
226 238 255
226 238 255
226 238 255
226 238 255
226 238 255
226 238 255
226 238 255
226 238 255
226 238 255
226 238 255
226 238 255
226 238 255
226 238 255
226 238 255
226 238 255
226 238 255
226 238 255
226 238 255
226 238 255
226 238 255
226 238 255
226 238 255
226 238 255
226 238 255
226 238 255
226 238 255
226 238 255
226 238 255
226 238 255
226 238 255
226 238 255
226 238 255
226 238 255
226 238 255
226 238 255
226 238 255
226 238 255
226 238 255
226 238 255
226 238 255
226 238 255
226 238 255
226 238 255
226 238 255
226 238 255
226 238 255
226 238 255
226 238 255
226 238 255
226 238 255
226 238 255
226 238 255
226 238 255
226 238 255
226 238 255
226 238 255
226 238 255
226 238 255
226 238 255
226 238 255
226 238 255
226 238 255
226 238 255
226 238 255
226 238 255
226 238 255
226 238 255
226 238 255
226 238 255
226 238 255
226 238 255
226 238 255
226 238 255
226 238 255
226 238 255
226 238 255
226 238 255
226 238 255
226 238 255
226 238 255
226 238 255
226 238 255
226 238 255
226 238 255
226 238 255
226 238 255
226 238 255
226 238 255
226 238 255
226 238 255
226 238 255
226 238 255
226 238 255
226 238 255
226 238 255
226 238 255
226 238 255
226 238 255
226 238 255
226 238 255
226 238 255
226 238 255
226 238 255
226 238 255
226 238 255
226 238 255
226 238 255
226 238 255
226 238 255
226 238 255
226 238 255
226 238 255
226 238 255
226 238 255
226 238 255
226 238 255
226 238 255
226 238 255
226 238 255
226 238 255
226 238 255
226 238 255
226 238 255
226 238 255
226 238 255
226 238 255
226 238 255
226 238 255
226 238 255
226 238 255
226 238 255
226 238 255
226 238 255
226 238 255
226 238 255
226 238 255
226 238 255
226 238 255
226 238 255
226 238 255
226 238 255
226 238 255
226 238 255
226 238 255
226 238 255
226 238 255
226 238 255
226 238 255
226 238 255
226 238 255
226 238 255
226 238 255
226 238 255
226 238 255
226 238 255
226 238 255
226 238 255
226 238 255
226 238 255
226 238 255
226 238 255
226 238 255
226 238 255
226 238 255
226 238 255
226 238 255
226 238 255
226 238 255
226 238 255
226 238 255
226 238 255
226 238 255
226 238 255
226 238 255
226 238 255
226 238 255
226 238 255
226 238 255
226 238 255
226 238 255
226 238 255
226 238 255
226 238 255
226 238 255
226 238 255
226 238 255
226 238 255
226 238 255
226 238 255
226 238 255
226 238 255
226 238 255
226 238 255
226 238 255
226 238 255
226 238 255
226 238 255
226 238 255
226 238 255
226 238 255
226 238 255
226 238 255
226 238 255
226 238 255
226 238 255
226 238 255
226 238 255
226 238 255
226 238 255
226 238 255
226 238 255
226 238 255
226 238 255
226 238 255
226 238 255
226 238 255
226 238 255
226 238 255
226 238 255
226 238 255
226 238 255
226 238 255
226 238 255
226 238 255
226 238 255
226 238 255
226 238 255
226 238 255
226 238 255
226 238 255
226 238 255
226 238 255
226 238 255
226 238 255
226 238 255
226 238 255
226 238 255
226 238 255
226 238 255
226 238 255
226 238 255
226 238 255
226 238 255
226 238 255
226 238 255
226 238 255
226 238 255
226 238 255
226 238 255
226 238 255
226 238 255
226 238 255
226 238 255
226 238 255
226 238 255
226 238 255
226 238 255
226 238 255
177 187 207
45 54 100
0 24 86
0 18 80
0 19 78
0 15 76
0 10 73
0 5 68
0 0 66
0 0 66
0 8 71
0 7 67
0 3 67
0 6 69
0 4 67
0 0 65
0 0 65
0 4 68
0 12 71
0 8 67
0 0 61
0 0 54
0 0 52
0 0 54
0 0 53
0 0 57
0 0 61
0 0 63
0 0 61
0 0 57
0 0 58
0 0 63
0 0 62
0 0 60
0 0 57
0 0 56
0 0 59
0 0 62
0 0 64
0 0 65
0 0 62
0 0 62
0 0 59
0 0 58
0 0 62
0 0 63
0 0 65
0 0 65
0 0 65
0 5 65
0 1 66
0 0 65
0 0 60
0 0 62
0 0 66
0 0 62
0 0 63
0 0 62
0 0 59
0 0 55
0 0 55
0 0 55
0 0 53
0 0 55
0 0 59
0 0 62
0 0 65
0 0 64
0 0 63
0 0 62
0 0 64
0 0 64
0 0 63
0 0 64
0 3 68
7 24 81
38 64 90
116 133 150
172 181 187
121 114 98
109 97 57
89 76 36
73 65 32
38 47 82
0 21 81
0 18 80
0 16 80
0 16 77
0 9 73
0 2 70
0 7 71
5 14 71
24 37 62
40 54 62
31 39 64
5 12 69
0 3 68
0 0 65
0 0 64
0 0 64
0 3 66
0 3 68
0 6 67
0 7 69
0 8 70
0 6 70
0 9 70
0 7 71
0 13 76
53 64 106
9 18 76
0 17 77
71 77 111
180 189 208
226 238 255
226 238 255
226 238 255
226 238 255
226 238 255
226 238 255
226 238 255
226 238 255
226 238 255
226 238 255
226 238 255
226 238 255
226 238 255
226 238 255
226 238 255
226 238 255
226 238 255
226 238 255
226 238 255
226 238 255
226 238 255
226 238 255
226 238 255
226 238 255
226 238 255
226 238 255
226 238 255
226 238 255
226 238 255
226 238 255
226 238 255
226 238 255
226 238 255
226 238 255
226 238 255
226 238 255
226 238 255
226 238 255
226 238 255
226 238 255
226 238 255
226 238 255
226 238 255
226 238 255
226 238 255
226 238 255
226 238 255
226 238 255
226 238 255
226 238 255
226 238 255
226 238 255
226 238 255
226 238 255
226 238 255
226 238 255
226 238 255
226 238 255
226 238 255
226 238 255
226 238 255
226 238 255
226 238 255
226 238 255
226 238 255
226 238 255
226 238 255
226 238 255
226 238 255
226 238 255
226 238 255
226 238 255
226 238 255
226 238 255
226 238 255
226 238 255
226 238 255
226 238 255
226 238 255
226 238 255
226 238 255
226 238 255
226 238 255
226 238 255
226 238 255
226 238 255
226 238 255
226 238 255
226 238 255
226 238 255
226 238 255
226 238 255
226 238 255
226 238 255
226 238 255
226 238 255
226 238 255
226 238 255
226 238 255
226 238 255
226 238 255
226 238 255
226 238 255
226 238 255
226 238 255
226 238 255
226 238 255
226 238 255
226 238 255
226 238 255
226 238 255
226 238 255
226 238 255
226 238 255
226 238 255
226 238 255
226 238 255
226 238 255
226 238 255
226 238 255
226 238 255
226 238 255
226 238 255
226 238 255
226 238 255
226 238 255
226 238 255
226 238 255
226 238 255
226 238 255
226 238 255
226 238 255
226 238 255
226 238 255
226 238 255
226 238 255
226 238 255
226 238 255
226 238 255
226 238 255
226 238 255
226 238 255
226 238 255
226 238 255
226 238 255
226 238 255
226 238 255
226 238 255
226 238 255
226 238 255
226 238 255
226 238 255
226 238 255
226 238 255
226 238 255
226 238 255
226 238 255
226 238 255
226 238 255
226 238 255
226 238 255
226 238 255
226 238 255
226 238 255
226 238 255
226 238 255
226 238 255
226 238 255
226 238 255
226 238 255
226 238 255
226 238 255
226 238 255
226 238 255
226 238 255
226 238 255
226 238 255
226 238 255
226 238 255
226 238 255
226 238 255
226 238 255
226 238 255
226 238 255
226 238 255
226 238 255
226 238 255
226 238 255
226 238 255
226 238 255
226 238 255
226 238 255
226 238 255
226 238 255
226 238 255
226 238 255
226 238 255
226 238 255
226 238 255
226 238 255
226 238 255
226 238 255
226 238 255
226 238 255
226 238 255
226 238 255
226 238 255
226 238 255
226 238 255
226 238 255
226 238 255
226 238 255
226 238 255
226 238 255
226 238 255
226 238 255
226 238 255
226 238 255
226 238 255
226 238 255
226 238 255
226 238 255
226 238 255
226 238 255
226 238 255
226 238 255
226 238 255
226 238 255
226 238 255
226 238 255
226 238 255
226 238 255
226 238 255
226 238 255
226 238 255
226 238 255
226 238 255
226 238 255
226 238 255
226 238 255
226 238 255
226 238 255
226 238 255
226 238 255
226 238 255
226 238 255
226 238 255
226 238 255
226 238 255
226 238 255
226 238 255
226 238 255
226 238 255
226 238 255
226 238 255
226 238 255
226 238 255
226 238 255
226 238 255
226 238 255
226 238 255
226 238 255
226 238 255
226 238 255
226 238 255
226 238 255
226 238 255
226 238 255
226 238 255
226 238 255
226 238 255
226 238 255
226 238 255
226 238 255
226 238 255
226 238 255
226 238 255
226 238 255
226 238 255
226 238 255
226 238 255
226 238 255
226 238 255
226 238 255
226 238 255
226 238 255
226 238 255
221 233 250
139 149 173
22 39 95
0 22 83
0 15 76
0 15 77
0 20 81
0 13 73
0 8 68
0 3 66
0 10 73
0 10 74
0 11 74
0 14 73
0 5 68
0 0 65
0 0 66
0 5 68
0 6 71
0 2 68
0 0 61
0 0 53
0 0 54
0 0 57
0 0 58
0 0 58
0 0 64
0 0 65
0 0 62
0 0 58
0 0 55
0 0 59
0 0 61
0 0 64
0 0 64
0 0 63
0 0 65
0 0 68
0 6 70
0 0 66
0 0 66
0 0 63
0 0 57
0 0 60
0 0 65
0 0 63
0 0 63
0 0 66
0 5 67
0 7 64
0 0 61
0 5 67
0 0 67
0 0 67
0 0 66
0 0 66
0 0 65
0 0 62
0 0 58
0 0 58
0 0 59
0 0 56
0 0 54
0 0 57
0 0 63
0 0 67
0 0 66
0 0 64
0 0 64
0 0 65
0 0 68
0 9 72
0 12 72
0 14 76
14 33 84
31 57 86
90 109 122
83 99 112
93 96 76
86 73 42
73 70 50
53 60 62
19 42 81
0 19 81
0 17 80
0 13 74
0 4 69
0 1 68
0 2 70
0 3 69
0 8 72
0 15 75
0 14 74
0 9 75
0 0 65
0 0 66
0 0 63
0 0 63
0 0 67
0 3 70
0 6 70
0 2 70
0 10 71
0 6 69
0 3 68
0 11 73
0 10 71
0 15 77
0 17 79
32 38 86
153 162 183
224 236 253
226 238 255
226 238 255
226 238 255
226 238 255
226 238 255
226 238 255
226 238 255
226 238 255
226 238 255
226 238 255
226 238 255
226 238 255
226 238 255
226 238 255
226 238 255
226 238 255
226 238 255
226 238 255
226 238 255
226 238 255
226 238 255
226 238 255
226 238 255
226 238 255
226 238 255
226 238 255
226 238 255
226 238 255
226 238 255
226 238 255
226 238 255
226 238 255
226 238 255
226 238 255
226 238 255
226 238 255
226 238 255
226 238 255
226 238 255
226 238 255
226 238 255
226 238 255
226 238 255
226 238 255
226 238 255
226 238 255
226 238 255
226 238 255
226 238 255
226 238 255
226 238 255
226 238 255
226 238 255
226 238 255
226 238 255
226 238 255
226 238 255
226 238 255
226 238 255
226 238 255
226 238 255
226 238 255
226 238 255
226 238 255
226 238 255
226 238 255
226 238 255
226 238 255
226 238 255
226 238 255
226 238 255
226 238 255
226 238 255
226 238 255
226 238 255
226 238 255
226 238 255
226 238 255
226 238 255
226 238 255
226 238 255
226 238 255
226 238 255
226 238 255
226 238 255
226 238 255
226 238 255
226 238 255
226 238 255
226 238 255
226 238 255
226 238 255
226 238 255
226 238 255
226 238 255
226 238 255
226 238 255
226 238 255
226 238 255
226 238 255
226 238 255
226 238 255
226 238 255
226 238 255
226 238 255
226 238 255
226 238 255
226 238 255
226 238 255
226 238 255
226 238 255
226 238 255
226 238 255
226 238 255
226 238 255
226 238 255
226 238 255
226 238 255
226 238 255
226 238 255
226 238 255
226 238 255
226 238 255
226 238 255
226 238 255
226 238 255
226 238 255
226 238 255
226 238 255
226 238 255
226 238 255
226 238 255
226 238 255
226 238 255
226 238 255
226 238 255
226 238 255
226 238 255
226 238 255
226 238 255
226 238 255
226 238 255
226 238 255
226 238 255
226 238 255
226 238 255
226 238 255
226 238 255
226 238 255
226 238 255
226 238 255
226 238 255
226 238 255
226 238 255
226 238 255
226 238 255
226 238 255
226 238 255
226 238 255
226 238 255
226 238 255
226 238 255
226 238 255
226 238 255
226 238 255
226 238 255
226 238 255
226 238 255
226 238 255
226 238 255
226 238 255
226 238 255
226 238 255
226 238 255
226 238 255
226 238 255
226 238 255
226 238 255
226 238 255
226 238 255
226 238 255
226 238 255
226 238 255
226 238 255
226 238 255
226 238 255
226 238 255
226 238 255
226 238 255
226 238 255
226 238 255
226 238 255
226 238 255
226 238 255
226 238 255
226 238 255
226 238 255
226 238 255
226 238 255
226 238 255
226 238 255
226 238 255
226 238 255
226 238 255
226 238 255
226 238 255
226 238 255
226 238 255
226 238 255
226 238 255
226 238 255
226 238 255
226 238 255
226 238 255
226 238 255
226 238 255
226 238 255
226 238 255
226 238 255
226 238 255
226 238 255
226 238 255
226 238 255
226 238 255
226 238 255
226 238 255
226 238 255
226 238 255
226 238 255
226 238 255
226 238 255
226 238 255
226 238 255
226 238 255
226 238 255
226 238 255
226 238 255
226 238 255
226 238 255
226 238 255
226 238 255
226 238 255
226 238 255
226 239 255
226 239 255
226 239 255
226 239 255
226 239 255
226 239 255
226 239 255
226 239 255
226 239 255
226 239 255
226 239 255
226 239 255
226 239 255
226 239 255
226 239 255
226 239 255
226 239 255
226 239 255
226 239 255
226 239 255
226 239 255
226 239 255
226 239 255
226 239 255
226 239 255
226 239 255
226 239 255
226 239 255
226 239 255
226 239 255
226 239 255
226 239 255
226 239 255
226 239 255
226 239 255
226 239 255
226 239 255
226 239 255
227 239 255
227 239 255
227 239 255
226 239 255
227 239 255
227 239 255
227 239 255
227 239 255
227 239 255
208 219 237
120 130 158
0 31 91
0 24 85
0 21 82
0 23 85
0 17 79
0 10 72
0 5 67
0 12 73
0 11 73
0 15 74
0 14 76
0 13 76
0 4 68
0 6 68
0 3 69
0 3 67
0 8 72
0 8 68
0 1 64
0 0 58
0 0 59
0 0 58
0 0 58
0 0 59
0 0 60
0 0 63
0 0 62
0 0 60
0 0 61
0 0 59
0 0 61
0 0 63
0 0 65
0 0 68
0 4 70
0 2 67
0 0 62
0 0 62
0 0 62
0 0 55
0 0 57
0 0 62
0 0 67
0 0 67
0 3 68
0 15 78
0 5 70
0 6 68
0 2 66
0 0 66
0 0 66
0 0 66
0 0 64
0 0 60
0 0 58
0 0 61
0 0 64
0 0 58
0 0 56
0 0 61
0 0 65
0 0 68
0 0 68
0 0 64
0 0 63
0 3 65
0 9 72
0 14 73
0 12 74
0 14 75
4 26 82
24 52 89
101 124 145
111 128 150
88 109 117
42 53 68
62 65 49
80 75 50
26 44 91
0 19 81
0 14 78
0 7 70
0 7 70
0 10 72
0 7 69
0 6 69
0 11 73
0 9 71
0 10 71
0 0 70
0 5 70
0 0 65
0 0 63
0 0 63
0 0 67
0 8 69
0 13 74
0 7 73
0 9 71
0 14 74
0 15 76
0 15 78
0 21 82
2 20 80
128 136 159
208 219 236
227 239 255
227 239 255
227 239 255
227 239 255
227 239 255
227 239 255
226 239 255
227 239 255
227 239 255
226 239 255
226 239 255
226 239 255
226 239 255
226 239 255
226 239 255
226 239 255
226 239 255
226 239 255
226 239 255
226 239 255
226 239 255
226 239 255
226 239 255
226 239 255
226 239 255
226 239 255
226 239 255
226 239 255
226 239 255
226 239 255
226 239 255
226 239 255
226 239 255
226 239 255
226 239 255
226 239 255
226 239 255
226 239 255
226 239 255
226 239 255
226 239 255
226 239 255
226 239 255
226 239 255
226 239 255
226 239 255
226 238 255
226 238 255
226 238 255
226 239 255
226 239 255
226 238 255
226 238 255
226 238 255
226 238 255
226 238 255
226 238 255
226 238 255
226 238 255
226 238 255
226 238 255
226 238 255
226 238 255
226 238 255
226 238 255
226 238 255
226 238 255
226 238 255
226 238 255
226 238 255
226 238 255
226 238 255
226 238 255
226 238 255
226 238 255
226 238 255
226 238 255
226 238 255
226 238 255
226 238 255
226 238 255
226 238 255
226 238 255
226 238 255
226 238 255
226 238 255
226 238 255
226 238 255
226 238 255
226 238 255
226 238 255
226 238 255
226 238 255
226 238 255
226 238 255
226 238 255
226 238 255
226 238 255
226 238 255
226 238 255
226 238 255
226 238 255
226 238 255
226 238 255
226 238 255
226 238 255
226 238 255
226 238 255
226 238 255
226 238 255
226 238 255
226 238 255
226 238 255
226 238 255
226 238 255
226 238 255
226 238 255
226 238 255
226 238 255
226 238 255
226 238 255
226 238 255
226 238 255
226 238 255
226 238 255
226 238 255
226 238 255
226 238 255
226 238 255
226 238 255
226 238 255
226 238 255
226 238 255
226 238 255
226 238 255
226 238 255
226 238 255
226 238 255
226 238 255
226 238 255
226 238 255
226 238 255
226 238 255
226 238 255
226 238 255
226 238 255
226 238 255
226 238 255
226 238 255
226 238 255
226 238 255
226 238 255
226 238 255
226 238 255
226 238 255
226 238 255
226 238 255
226 238 255
226 238 255
226 238 255
226 238 255
226 238 255
226 238 255
226 238 255
226 238 255
226 238 255
226 238 255
226 238 255
226 238 255
226 238 255
226 238 255
226 238 255
226 238 255
226 238 255
226 238 255
226 238 255
226 238 255
226 238 255
226 238 255
226 238 255
226 238 255
226 238 255
226 238 255
226 238 255
226 238 255
226 238 255
226 238 255
226 238 255
226 238 255
226 238 255
226 238 255
226 238 255
226 238 255
226 238 255
226 238 255
226 238 255
226 238 255
226 238 255
226 238 255
226 238 255
226 238 255
226 238 255
226 238 255
226 238 255
226 238 255
226 238 255
226 239 255
226 239 255
226 239 255
226 239 255
226 239 255
226 239 255
226 239 255
226 239 255
226 239 255
226 239 255
226 239 255
226 239 255
226 239 255
226 239 255
226 239 255
226 239 255
226 239 255
226 239 255
226 239 255
226 239 255
226 239 255
226 239 255
226 239 255
226 239 255
226 239 255
226 239 255
226 239 255
227 239 255
227 239 255
227 239 255
227 239 255
227 239 255
227 239 255
227 239 255
227 239 255
227 239 255
227 239 255
227 239 255
227 239 255
227 239 255
227 239 255
227 239 255
227 239 255
227 239 255
227 239 255
227 239 255
227 239 255
227 239 255
227 239 255
227 239 255
227 239 255
227 239 255
227 239 255
227 239 255
227 239 255
227 239 255
227 239 255
227 239 255
227 239 255
227 239 255
227 239 255
227 239 255
227 239 255
227 239 255
227 239 255
227 239 255
227 239 255
227 239 255
227 239 255
227 239 255
227 239 255
227 239 255
227 239 255
227 239 255
227 239 255
227 239 255
227 239 255
227 239 255
227 239 255
227 239 255
227 239 255
227 239 255
227 239 255
227 239 255
227 239 255
227 239 255
227 239 255
227 239 255
200 211 230
101 113 145
0 33 93
0 25 86
0 24 85
0 26 86
0 18 80
0 12 73
0 11 70
0 15 76
0 19 79
0 17 79
0 18 80
0 11 72
0 9 72
0 9 72
0 0 70
0 13 75
0 10 73
0 7 69
0 1 58
0 0 60
0 2 64
0 0 62
0 2 64
0 4 69
0 4 64
0 0 62
0 0 59
0 0 63
0 0 62
0 2 64
0 1 64
0 0 68
0 0 67
0 0 69
0 0 68
0 0 64
0 0 62
0 0 60
0 0 58
0 0 62
0 0 66
0 0 69
0 1 71
0 12 73
0 9 74
0 8 72
0 2 68
0 0 68
0 0 65
0 0 66
0 0 64
0 0 61
0 0 58
0 0 62
0 0 65
0 0 61
0 0 61
0 0 67
0 0 68
0 0 66
0 0 64
0 0 65
0 0 66
0 0 68
0 10 72
0 7 67
0 2 68
0 0 68
0 13 79
7 31 82
66 86 113
92 112 139
107 123 147
114 134 146
104 115 112
82 85 63
57 65 49
23 33 67
6 19 77
0 13 70
0 11 72
0 12 74
0 7 72
0 4 69
0 12 75
0 15 76
0 11 73
0 0 67
0 0 63
0 6 68
0 7 68
0 5 69
0 2 69
0 11 75
0 22 83
0 22 82
0 13 73
0 16 77
0 16 78
0 17 80
113 120 144
188 198 217
227 239 255
227 239 255
227 239 255
227 239 255
227 239 255
227 239 255
227 239 255
227 239 255
227 239 255
227 239 255
227 239 255
227 239 255
227 239 255
227 239 255
227 239 255
227 239 255
227 239 255
227 239 255
227 239 255
227 239 255
227 239 255
227 239 255
227 239 255
227 239 255
227 239 255
227 239 255
227 239 255
227 239 255
227 239 255
227 239 255
227 239 255
227 239 255
227 239 255
227 239 255
227 239 255
227 239 255
227 239 255
227 239 255
227 239 255
227 239 255
227 239 255
227 239 255
227 239 255
227 239 255
227 239 255
227 239 255
227 239 255
227 239 255
227 239 255
227 239 255
227 239 255
227 239 255
227 239 255
227 239 255
227 239 255
227 239 255
227 239 255
227 239 255
227 239 255
227 239 255
226 239 255
226 239 255
226 239 255
226 239 255
226 239 255
226 239 255
226 239 255
226 239 255
226 239 255
226 239 255
226 239 255
226 239 255
226 239 255
226 239 255
226 239 255
226 239 255
226 239 255
226 239 255
226 239 255
226 239 255
226 239 255
226 239 255
226 239 255
226 239 255
226 239 255
226 238 255
226 238 255
226 238 255
226 238 255
226 238 255
226 238 255
226 238 255
226 238 255
226 238 255
226 238 255
226 238 255
226 238 255
226 238 255
226 238 255
226 238 255
226 238 255
226 238 255
226 238 255
226 238 255
226 238 255
226 238 255
226 238 255
226 238 255
226 238 255
226 238 255
226 238 255
226 238 255
226 238 255
226 238 255
226 238 255
226 238 255
226 238 255
226 238 255
226 238 255
226 238 255
226 238 255
226 238 255
226 238 255
226 238 255
226 238 255
226 238 255
226 238 255
226 238 255
226 238 255
226 238 255
226 238 255
226 238 255
226 238 255
226 238 255
226 238 255
226 238 255
226 238 255
226 238 255
226 238 255
226 238 255
226 238 255
226 238 255
226 238 255
226 238 255
226 238 255
226 238 255
226 238 255
226 238 255
226 238 255
226 238 255
226 238 255
226 238 255
226 238 255
226 238 255
226 238 255
226 238 255
226 238 255
226 238 255
226 238 255
226 238 255
226 238 255
226 238 255
226 238 255
226 238 255
226 238 255
226 238 255
226 238 255
226 238 255
226 238 255
226 238 255
226 238 255
226 238 255
226 238 255
226 238 255
226 238 255
226 238 255
226 238 255
226 238 255
226 238 255
226 239 255
226 239 255
226 239 255
226 239 255
226 239 255
226 239 255
226 239 255
226 239 255
226 239 255
226 239 255
226 239 255
226 239 255
226 239 255
226 239 255
226 239 255
226 239 255
226 239 255
226 239 255
226 239 255
226 239 255
226 239 255
226 239 255
226 239 255
227 239 255
227 239 255
227 239 255
227 239 255
227 239 255
227 239 255
227 239 255
227 239 255
227 239 255
227 239 255
227 239 255
227 239 255
227 239 255
227 239 255
227 239 255
227 239 255
227 239 255
227 239 255
227 239 255
227 239 255
227 239 255
227 239 255
227 239 255
227 239 255
227 239 255
227 239 255
227 239 255
227 239 255
227 239 255
227 239 255
227 239 255
227 239 255
227 239 255
227 239 255
227 239 255
227 239 255
227 239 255
227 239 255
227 239 255
227 239 255
227 239 255
227 239 255
227 239 255
227 239 255
227 239 255
227 239 255
227 239 255
227 239 255
227 239 255
227 239 255
227 239 255
227 239 255
227 239 255
227 239 255
227 239 255
227 239 255
227 239 255
227 239 255
227 239 255
227 239 255
227 239 255
227 239 255
227 239 255
227 239 255
227 239 255
227 239 255
227 239 255
227 239 255
227 239 255
227 239 255
227 239 255
227 239 255
227 239 255
227 239 255
227 239 255
227 239 255
227 239 255
227 239 255
227 239 255
227 239 255
227 239 255
227 239 255
227 239 255
227 239 255
227 239 255
227 239 255
227 239 255
227 239 255
227 239 255
227 239 255
227 239 255
227 239 255
227 239 255
227 239 255
227 239 255
227 239 255
183 194 214
109 118 147
26 42 97
0 31 90
0 23 86
0 24 86
0 24 86
0 25 86
0 21 83
0 19 83
0 19 81
0 21 81
0 19 80
0 15 77
0 20 82
0 18 80
0 17 80
0 19 82
0 16 75
0 13 73
0 12 73
0 9 70
0 0 67
0 9 71
0 11 73
0 10 74
0 12 74
0 11 72
0 2 69
0 0 69
0 4 66
0 0 68
0 2 70
0 6 71
0 8 71
0 0 67
0 0 65
0 0 62
0 0 59
0 0 67
0 2 67
0 0 64
0 3 68
0 4 69
0 11 72
0 8 71
0 0 67
0 0 70
0 0 68
0 0 65
0 0 64
0 0 62
0 0 61
0 0 62
0 0 65
0 0 64
0 0 63
0 0 66
0 0 67
0 0 66
0 4 67
0 0 66
0 0 67
0 0 63
0 1 63
0 11 71
0 6 73
0 4 66
0 6 68
0 12 77
5 19 76
29 45 92
46 70 102
72 91 115
36 66 89
27 44 76
12 26 79
4 12 72
0 8 71
0 4 70
0 3 69
0 5 70
0 12 74
0 16 80
0 15 78
0 14 75
0 9 72
0 10 74
0 9 74
0 8 72
0 12 74
0 20 81
0 18 80
0 21 82
0 27 87
0 29 91
5 23 84
5 17 79
85 91 120
180 190 208
227 239 255
227 239 255
227 239 255
227 239 255
227 239 255
227 239 255
227 239 255
227 239 255
227 239 255
227 239 255
227 239 255
227 239 255
227 239 255
227 239 255
227 239 255
227 239 255
227 239 255
227 239 255
227 239 255
227 239 255
227 239 255
227 239 255
227 239 255
227 239 255
227 239 255
227 239 255
227 239 255
227 239 255
227 239 255
227 239 255
227 239 255
227 239 255
227 239 255
227 239 255
227 239 255
227 239 255
227 239 255
227 239 255
227 239 255
227 239 255
227 239 255
227 239 255
227 239 255
227 239 255
227 239 255
227 239 255
227 239 255
227 239 255
227 239 255
227 239 255
227 239 255
227 239 255
227 239 255
227 239 255
227 239 255
227 239 255
227 239 255
227 239 255
227 239 255
227 239 255
227 239 255
227 239 255
227 239 255
227 239 255
227 239 255
227 239 255
227 239 255
227 239 255
227 239 255
227 239 255
227 239 255
227 239 255
227 239 255
227 239 255
227 239 255
227 239 255
227 239 255
227 239 255
227 239 255
227 239 255
227 239 255
227 239 255
227 239 255
227 239 255
227 239 255
227 239 255
227 239 255
227 239 255
227 239 255
227 239 255
227 239 255
227 239 255
227 239 255
227 239 255
227 239 255
227 239 255
227 239 255
227 239 255
226 239 255
226 239 255
226 239 255
226 239 255
226 239 255
226 239 255
226 239 255
226 239 255
226 239 255
226 239 255
226 239 255
226 239 255
226 239 255
226 239 255
226 239 255
226 239 255
226 239 255
226 239 255
226 239 255
226 238 255
226 238 255
226 238 255
226 238 255
226 238 255
226 238 255
226 238 255
226 238 255
226 238 255
226 238 255
226 238 255
226 238 255
226 238 255
226 238 255
226 238 255
226 238 255
226 238 255
226 238 255
226 238 255
226 238 255
226 238 255
226 238 255
226 238 255
226 238 255
226 238 255
226 238 255
226 238 255
226 238 255
226 238 255
226 238 255
226 238 255
226 238 255
226 238 255
226 238 255
226 238 255
226 238 255
226 238 255
226 238 255
226 238 255
226 239 255
226 239 255
226 239 255
226 239 255
226 239 255
226 239 255
226 239 255
226 239 255
226 239 255
226 239 255
226 239 255
226 239 255
226 239 255
226 239 255
226 239 255
226 239 255
226 239 255
226 239 255
226 239 255
227 239 255
227 239 255
227 239 255
227 239 255
227 239 255
227 239 255
227 239 255
227 239 255
227 239 255
227 239 255
227 239 255
227 239 255
227 239 255
227 239 255
227 239 255
227 239 255
227 239 255
227 239 255
227 239 255
227 239 255
227 239 255
227 239 255
227 239 255
227 239 255
227 239 255
227 239 255
227 239 255
227 239 255
227 239 255
227 239 255
227 239 255
227 239 255
227 239 255
227 239 255
227 239 255
227 239 255
227 239 255
227 239 255
227 239 255
227 239 255
227 239 255
227 239 255
227 239 255
227 239 255
227 239 255
227 239 255
227 239 255
227 239 255
227 239 255
227 239 255
227 239 255
227 239 255
227 239 255
227 239 255
227 239 255
227 239 255
227 239 255
227 239 255
227 239 255
227 239 255
227 239 255
227 239 255
227 239 255
227 239 255
227 239 255
227 239 255
227 239 255
227 239 255
227 239 255
227 239 255
227 239 255
227 239 255
227 239 255
227 239 255
227 239 255
227 239 255
227 239 255
227 239 255
227 239 255
227 239 255
227 239 255
227 239 255
227 239 255
227 239 255
227 239 255
227 239 255
227 239 255
227 239 255
227 239 255
227 239 255
227 239 255
227 239 255
227 239 255
227 239 255
227 239 255
227 239 255
227 239 255
227 239 255
227 239 255
227 239 255
227 239 255
227 239 255
227 239 255
227 239 255
227 239 255
227 239 255
227 239 255
227 239 255
227 239 255
227 239 255
227 239 255
227 239 255
227 239 255
227 239 255
227 239 255
227 239 255
227 239 255
227 239 255
227 239 255
227 239 255
227 239 255
227 239 255
227 239 255
227 239 255
227 239 255
227 239 255
226 237 254
186 196 215
107 117 147
14 38 95
0 30 90
0 27 89
0 27 89
0 27 88
0 23 85
0 23 85
0 23 85
0 23 85
0 23 84
0 19 81
0 27 87
0 26 86
0 21 81
0 20 81
0 19 81
0 18 79
0 13 72
0 3 65
0 0 65
0 2 67
0 6 65
0 9 70
0 10 70
0 6 65
0 5 65
0 8 68
0 5 70
0 10 73
0 11 72
0 10 74
0 7 71
0 7 68
0 11 70
0 5 64
0 5 69
0 10 73
0 0 68
0 6 70
0 7 68
0 0 67
0 5 70
0 8 72
0 0 71
0 0 68
0 0 64
0 0 64
0 0 63
0 0 64
0 11 71
0 10 70
0 0 63
0 0 63
0 0 65
0 0 65
0 6 66
0 8 71
0 7 68
0 6 67
0 0 63
0 7 67
0 18 79
0 11 73
0 5 71
0 7 71
0 5 69
0 4 68
0 5 67
0 9 73
0 19 81
0 22 84
0 16 78
0 9 72
0 12 72
0 18 79
0 16 77
0 18 77
0 18 80
0 17 79
0 17 77
0 13 73
0 5 70
0 11 75
0 15 77
0 16 78
0 15 78
0 19 81
0 19 81
0 25 86
0 28 88
69 75 114
112 121 150
153 162 183
189 199 218
227 239 255
227 239 255
227 239 255
227 239 255
227 239 255
227 239 255
227 239 255
227 239 255
227 239 255
227 239 255
227 239 255
227 239 255
227 239 255
227 239 255
227 239 255
227 239 255
227 239 255
227 239 255
227 239 255
227 239 255
227 239 255
227 239 255
227 239 255
227 239 255
227 239 255
227 239 255
227 239 255
227 239 255
227 239 255
227 239 255
227 239 255
227 239 255
227 239 255
227 239 255
227 239 255
227 239 255
227 239 255
227 239 255
227 239 255
227 239 255
227 239 255
227 239 255
227 239 255
227 239 255
227 239 255
227 239 255
227 239 255
227 239 255
227 239 255
227 239 255
227 239 255
227 239 255
227 239 255
227 239 255
227 239 255
227 239 255
227 239 255
227 239 255
227 239 255
227 239 255
227 239 255
227 239 255
227 239 255
227 239 255
227 239 255
227 239 255
227 239 255
227 239 255
227 239 255
227 239 255
227 239 255
227 239 255
227 239 255
227 239 255
227 239 255
227 239 255
227 239 255
227 239 255
227 239 255
227 239 255
227 239 255
227 239 255
227 239 255
227 239 255
227 239 255
227 239 255
227 239 255
227 239 255
227 239 255
227 239 255
227 239 255
227 239 255
227 239 255
227 239 255
227 239 255
227 239 255
227 239 255
227 239 255
227 239 255
227 239 255
227 239 255
227 239 255
227 239 255
227 239 255
227 239 255
227 239 255
227 239 255
227 239 255
227 239 255
227 239 255
227 239 255
227 239 255
227 239 255
227 239 255
227 239 255
227 239 255
227 239 255
227 239 255
227 239 255
227 239 255
227 239 255
227 239 255
227 239 255
227 239 255
227 239 255
227 239 255
226 239 255
227 239 255
226 239 255
226 239 255
226 239 255
226 239 255
226 239 255
226 239 255
226 239 255
226 239 255
226 239 255
226 239 255
226 239 255
226 239 255
226 239 255
226 239 255
226 239 255
226 239 255
226 239 255
226 239 255
226 238 255
226 238 255
226 238 255
226 238 255
226 238 255
226 238 255
226 239 255
226 239 255
227 239 255
227 239 255
227 239 255
227 239 255
227 239 255
227 239 255
227 239 255
227 239 255
227 239 255
227 239 255
227 239 255
227 239 255
227 239 255
227 239 255
227 239 255
227 239 255
227 239 255
227 239 255
227 239 255
227 239 255
227 239 255
227 239 255
227 239 255
227 239 255
227 239 255
227 239 255
227 239 255
227 239 255
227 239 255
227 239 255
227 239 255
227 239 255
227 239 255
227 239 255
227 239 255
227 239 255
227 239 255
227 239 255
227 239 255
227 239 255
227 239 255
227 239 255
227 239 255
227 239 255
227 239 255
227 239 255
227 239 255
227 239 255
227 239 255
227 239 255
227 239 255
227 239 255
227 239 255
227 239 255
227 239 255
227 239 255
227 239 255
227 239 255
227 239 255
227 239 255
227 239 255
227 239 255
227 239 255
227 239 255
227 239 255
227 239 255
227 239 255
227 239 255
227 239 255
227 239 255
227 239 255
227 239 255
227 239 255
227 239 255
227 239 255
227 239 255
227 239 255
227 239 255
227 239 255
227 239 255
227 239 255
227 239 255
227 239 255
227 239 255
227 239 255
227 239 255
227 239 255
227 239 255
227 239 255
227 239 255
227 239 255
227 239 255
227 239 255
227 239 255
227 239 255
227 239 255
227 239 255
227 239 255
227 239 255
227 239 255
227 239 255
227 239 255
227 239 255
227 239 255
227 239 255
227 239 255
227 239 255
227 239 255
227 239 255
227 239 255
227 239 255
227 239 255
227 239 255
227 239 255
227 239 255
227 239 255
227 239 255
227 239 255
227 239 255
227 239 255
227 239 255
227 239 255
227 239 255
227 239 255
227 239 255
227 239 255
227 239 255
227 239 255
227 239 255
227 239 255
227 239 255
227 239 255
227 239 255
227 239 255
227 239 255
227 239 255
227 239 255
227 239 255
227 239 255
227 239 255
227 239 255
227 239 255
227 239 255
227 239 255
227 239 255
227 239 255
227 239 255
227 239 255
227 239 255
227 239 255
227 239 255
227 239 255
197 208 227
113 125 153
89 100 134
29 44 96
36 47 94
0 22 84
0 23 84
0 23 84
0 25 86
0 26 87
0 25 86
0 30 89
0 37 97
0 34 94
0 33 92
0 22 83
0 19 81
0 18 79
0 16 78
0 12 72
0 5 67
0 9 69
0 4 68
0 15 75
0 12 74
0 11 71
0 9 72
0 12 74
0 5 68
0 12 73
0 11 72
0 11 73
0 17 74
0 13 73
0 8 71
0 10 72
0 10 71
0 0 68
0 8 71
0 15 75
0 13 73
0 8 71
0 11 74
0 6 70
0 4 70
0 9 71
0 11 72
0 10 71
0 3 65
0 10 70
0 10 72
0 11 74
0 15 77
0 7 68
0 4 66
0 12 71
0 12 73
0 16 78
0 15 76
0 13 73
0 10 73
0 9 72
0 5 71
0 12 73
0 13 75
0 13 74
0 12 73
0 10 73
0 11 72
0 9 72
0 17 78
0 22 84
0 17 78
0 15 77
0 22 82
0 15 77
0 18 78
0 11 72
0 3 69
0 5 69
0 10 70
0 9 73
0 11 75
0 15 75
11 27 84
42 51 96
117 121 148
147 153 173
138 142 165
189 194 208
219 227 238
208 219 237
227 239 255
227 239 255
227 239 255
227 239 255
227 239 255
227 239 255
227 239 255
227 239 255
227 239 255
227 239 255
227 239 255
227 239 255
227 239 255
227 239 255
227 239 255
227 239 255
227 239 255
227 239 255
227 239 255
227 239 255
227 239 255
227 239 255
227 239 255
227 239 255
227 239 255
227 239 255
227 239 255
227 239 255
227 239 255
227 239 255
227 239 255
227 239 255
227 239 255
227 239 255
227 239 255
227 239 255
227 239 255
227 239 255
227 239 255
227 239 255
227 239 255
227 239 255
227 239 255
227 239 255
227 239 255
227 239 255
227 239 255
227 239 255
227 239 255
227 239 255
227 239 255
227 239 255
227 239 255
227 239 255
227 239 255
227 239 255
227 239 255
227 239 255
227 239 255
227 239 255
227 239 255
227 239 255
227 239 255
227 239 255
227 239 255
227 239 255
227 239 255
227 239 255
227 239 255
227 239 255
227 239 255
227 239 255
227 239 255
227 239 255
227 239 255
227 239 255
227 239 255
227 239 255
227 239 255
227 239 255
227 239 255
227 239 255
227 239 255
227 239 255
227 239 255
227 239 255
227 239 255
227 239 255
227 239 255
227 239 255
227 239 255
227 239 255
227 239 255
227 239 255
227 239 255
227 239 255
227 239 255
227 239 255
227 239 255
227 239 255
227 239 255
227 239 255
227 239 255
227 239 255
227 239 255
227 239 255
227 239 255
227 239 255
227 239 255
227 239 255
227 239 255
227 239 255
227 239 255
227 239 255
227 239 255
227 239 255
227 239 255
227 239 255
227 239 255
227 239 255
227 239 255
227 239 255
227 239 255
227 239 255
227 239 255
227 239 255
227 239 255
227 239 255
227 239 255
227 239 255
227 239 255
227 239 255
227 239 255
227 239 255
227 239 255
227 239 255
227 239 255
227 239 255
227 239 255
227 239 255
227 239 255
227 239 255
227 239 255
227 239 255
227 239 255
227 239 255
227 239 255
227 239 255
227 239 255
227 239 255
227 239 255
227 239 255
227 239 255
226 239 255
227 239 255
227 239 255
227 239 255
227 239 255
227 239 255
227 239 255
227 239 255
227 239 255
227 239 255
227 239 255
227 239 255
227 239 255
227 239 255
227 239 255
227 239 255
227 239 255
227 239 255
227 239 255
227 239 255
227 239 255
227 239 255
227 239 255
227 239 255
227 239 255
227 239 255
227 239 255
227 239 255
227 239 255
227 239 255
227 239 255
227 239 255
227 239 255
227 239 255
227 239 255
227 239 255
227 239 255
227 239 255
227 239 255
227 239 255
227 239 255
227 239 255
227 239 255
227 239 255
227 239 255
227 239 255
227 239 255
227 239 255
227 239 255
227 239 255
227 239 255
227 239 255
227 239 255
227 239 255
227 239 255
227 239 255
227 239 255
227 239 255
227 239 255
227 239 255
227 239 255
227 239 255
227 239 255
227 239 255
227 239 255
227 239 255
227 239 255
227 239 255
227 239 255
227 239 255
227 239 255
227 239 255
227 239 255
227 239 255
227 239 255
227 239 255
227 239 255
227 239 255
227 239 255
227 239 255
227 239 255
227 239 255
227 239 255
227 239 255
227 239 255
227 239 255
227 239 255
227 239 255
227 239 255
227 239 255
227 239 255
227 239 255
227 239 255
227 239 255
227 239 255
227 239 255
227 239 255
227 239 255
227 239 255
227 239 255
227 239 255
227 239 255
227 239 255
227 239 255
227 239 255
227 239 255
227 239 255
227 239 255
227 239 255
227 239 255
227 239 255
227 239 255
227 239 255
227 239 255
227 239 255
227 239 255
227 239 255
227 239 255
227 239 255
227 239 255
227 239 255
227 239 255
227 239 255
227 239 255
227 239 255
227 239 255
227 239 255
227 239 255
227 239 255
227 239 255
227 239 255
227 239 255
227 239 255
227 239 255
227 239 255
227 239 255
227 239 255
227 239 255
227 239 255
227 239 255
227 239 255
227 239 255
227 239 255
227 239 255
227 239 255
227 239 255
227 239 255
227 239 255
227 239 255
227 239 255
227 239 255
227 239 255
227 239 255
227 239 255
227 239 255
227 239 255
227 239 255
226 237 254
218 226 241
187 195 210
117 127 154
84 91 126
53 61 102
15 34 93
4 32 93
0 28 90
0 27 89
0 34 95
0 37 96
0 40 98
0 40 99
0 27 89
0 24 87
0 24 86
0 25 84
0 29 89
0 21 78
0 17 77
0 26 85
0 20 80
0 28 87
0 26 84
0 10 71
0 11 70
0 12 73
0 14 74
0 16 78
0 29 89
0 26 88
0 25 86
0 17 78
0 15 75
0 4 63
0 0 66
0 15 76
0 20 81
0 19 83
0 16 79
0 17 79
0 14 78
0 19 80
0 22 84
0 18 79
0 15 76
0 21 80
0 23 84
0 25 87
0 31 92
0 22 83
0 12 74
0 16 77
0 15 76
0 16 77
0 18 82
0 22 85
0 25 86
0 23 85
0 28 88
0 23 84
0 23 84
0 18 81
0 19 81
0 23 85
0 24 85
0 26 85
0 21 82
0 17 79
0 21 83
0 20 83
0 21 82
0 18 79
0 20 80
8 23 82
4 14 74
36 42 88
112 116 143
132 139 161
133 141 165
125 128 149
171 175 192
216 223 235
223 230 240
240 245 252
235 243 253
230 240 255
227 239 255
227 239 255
227 239 255
227 239 255
227 239 255
227 239 255
227 239 255
227 239 255
227 239 255
227 239 255
227 239 255
227 239 255
227 239 255
227 239 255
227 239 255
227 239 255
227 239 255
227 239 255
227 239 255
227 239 255
227 239 255
227 239 255
227 239 255
227 239 255
227 239 255
227 239 255
227 239 255
227 239 255
227 239 255
227 239 255
227 239 255
227 239 255
227 239 255
227 239 255
227 239 255
227 239 255
227 239 255
227 239 255
227 239 255
227 239 255
227 239 255
227 239 255
227 239 255
227 239 255
227 239 255
227 239 255
227 239 255
227 239 255
227 239 255
227 239 255
227 239 255
227 239 255
227 239 255
227 239 255
227 239 255
227 239 255
227 239 255
227 239 255
227 239 255
227 239 255
227 239 255
227 239 255
227 239 255
227 239 255
227 239 255
227 239 255
227 239 255
227 239 255
227 239 255
227 239 255
227 239 255
227 239 255
227 239 255
227 239 255
227 239 255
227 239 255
227 239 255
227 239 255
227 239 255
227 239 255
227 239 255
227 239 255
227 239 255
227 239 255
227 239 255
227 239 255
227 239 255
227 239 255
227 239 255
227 239 255
227 239 255
227 239 255
227 239 255
227 239 255
227 239 255
227 239 255
227 239 255
227 239 255
227 239 255
227 239 255
227 239 255
227 239 255
227 239 255
227 239 255
227 239 255
227 239 255
227 239 255
227 239 255
227 239 255
227 239 255
227 239 255
227 239 255
227 239 255
227 239 255
227 239 255
227 239 255
227 239 255
227 239 255
227 239 255
227 239 255
227 239 255
227 239 255
227 239 255
227 239 255
227 239 255
227 239 255
227 239 255
227 239 255
227 239 255
227 239 255
227 239 255
227 239 255
227 239 255
227 239 255
227 239 255
227 239 255
227 239 255
227 239 255
227 239 255
227 239 255
227 239 255
227 239 255
227 239 255
227 239 255
227 239 255
227 239 255
227 239 255
227 239 255
227 239 255
227 239 255
227 239 255
227 239 255
227 239 255
227 239 255
227 239 255
227 239 255
227 239 255
227 239 255
227 239 255
227 239 255
227 239 255
227 239 255
227 239 255
227 239 255
227 239 255
227 239 255
227 239 255
227 239 255
227 239 255
227 239 255
227 239 255
227 239 255
227 239 255
227 239 255
227 239 255
227 239 255
227 239 255
227 239 255
227 239 255
227 239 255
227 239 255
227 239 255
227 239 255
227 239 255
227 239 255
227 239 255
227 239 255
227 239 255
227 239 255
227 239 255
227 239 255
227 239 255
227 239 255
227 239 255
227 239 255
227 239 255
227 239 255
227 239 255
227 239 255
227 239 255
227 239 255
227 239 255
227 239 255
227 239 255
227 239 255
227 239 255
227 239 255
227 239 255
227 239 255
227 239 255
227 239 255
227 239 255
227 239 255
227 239 255
227 239 255
227 239 255
227 239 255
227 239 255
227 239 255
227 239 255
227 239 255
227 239 255
227 239 255
227 239 255
227 239 255
227 239 255
227 239 255
227 239 255
227 239 255
227 239 255
227 239 255
227 239 255
227 239 255
227 239 255
227 239 255
227 239 255
227 239 255
227 239 255
227 239 255
227 239 255
227 239 255
227 239 255
227 239 255
227 239 255
227 239 255
227 239 255
227 239 255
227 239 255
227 239 255
227 239 255
227 239 255
227 239 255
227 239 255
227 239 255
227 239 255
227 239 255
227 239 255
227 239 255
227 239 255
227 239 255
227 239 255
227 239 255
227 239 255
227 239 255
227 239 255
227 239 255
227 239 255
227 239 255
227 239 255
227 239 255
227 239 255
227 239 255
227 239 255
227 239 255
227 239 255
227 239 255
227 239 255
227 239 255
227 239 255
227 239 255
227 239 255
227 239 255
227 239 255
227 239 255
227 239 255
227 239 255
227 239 255
227 239 255
227 239 255
227 239 255
227 239 255
227 239 255
227 239 255
227 239 255
227 239 255
227 239 255
227 239 255
227 239 255
227 239 255
227 239 255
227 239 255
227 239 255
227 239 255
227 239 255
227 239 255
227 239 255
227 239 255
227 239 255
227 239 255
227 239 255
227 239 255
227 239 255
227 239 255
227 239 255
229 240 255
229 239 253
202 210 224
182 190 205
195 207 222
168 175 191
125 136 159
52 67 115
0 36 97
0 33 93
0 28 88
0 26 88
7 29 88
0 25 86
0 29 91
0 28 89
0 28 90
0 38 97
0 42 101
0 40 98
0 36 94
0 21 82
0 22 83
0 19 81
0 20 81
0 16 78
0 19 82
0 22 83
0 18 79
0 21 83
0 21 83
0 23 84
0 12 73
0 6 69
0 5 67
0 6 70
0 16 78
0 23 84
0 23 84
0 22 83
0 26 85
0 22 83
0 25 86
0 27 88
0 29 88
0 31 93
0 30 90
0 27 86
0 36 94
0 34 92
0 18 80
0 21 83
0 23 83
0 24 85
0 29 90
0 22 86
0 22 84
0 25 85
0 26 86
0 19 81
0 19 82
0 25 86
0 24 85
0 23 83
0 22 84
0 33 91
0 23 84
0 22 83
0 28 89
0 25 87
3 29 88
33 46 100
34 48 99
114 123 154
171 179 196
227 232 242
217 224 237
227 233 243
242 247 255
240 245 253
243 247 255
238 245 254
235 244 255
229 240 255
227 239 255
227 239 255
227 239 255
227 239 255
227 239 255
227 239 255
227 239 255
227 239 255
227 239 255
227 239 255
227 239 255
227 239 255
227 239 255
227 239 255
227 239 255
227 239 255
227 239 255
227 239 255
227 239 255
227 239 255
227 239 255
227 239 255
227 239 255
227 239 255
227 239 255
227 239 255
227 239 255
227 239 255
227 239 255
227 239 255
227 239 255
227 239 255
227 239 255
227 239 255
227 239 255
227 239 255
227 239 255
227 239 255
227 239 255
227 239 255
227 239 255
227 239 255
227 239 255
227 239 255
227 239 255
227 239 255
227 239 255
227 239 255
227 239 255
227 239 255
227 239 255
227 239 255
227 239 255
227 239 255
227 239 255
227 239 255
227 239 255
227 239 255
227 239 255
227 239 255
227 239 255
227 239 255
227 239 255
227 239 255
227 239 255
227 239 255
227 239 255
227 239 255
227 239 255
227 239 255
227 239 255
227 239 255
227 239 255
227 239 255
227 239 255
227 239 255
227 239 255
227 239 255
227 239 255
227 239 255
227 239 255
227 239 255
227 239 255
227 239 255
227 239 255
227 239 255
227 239 255
227 239 255
227 239 255
227 239 255
227 239 255
227 239 255
227 239 255
227 239 255
227 239 255
227 239 255
227 239 255
227 239 255
227 239 255
227 239 255
227 239 255
227 239 255
227 239 255
227 239 255
227 239 255
227 239 255
227 239 255
227 239 255
227 239 255
227 239 255
227 239 255
227 239 255
227 239 255
227 239 255
227 239 255
227 239 255
227 239 255
227 239 255
227 239 255
227 239 255
227 239 255
227 239 255
227 239 255
227 239 255
227 239 255
227 239 255
227 239 255
227 239 255
227 239 255
227 239 255
227 239 255
227 239 255
227 239 255
227 239 255
227 239 255
227 239 255
227 239 255
227 239 255
227 239 255
227 239 255
227 239 255
227 239 255
227 239 255
227 239 255
227 239 255
227 239 255
227 239 255
227 239 255
227 239 255
227 239 255
227 239 255
227 239 255
227 239 255
227 239 255
227 239 255
227 239 255
227 239 255
227 239 255
227 239 255
227 239 255
227 239 255
227 239 255
227 239 255
227 239 255
227 239 255
227 239 255
227 239 255
227 239 255
227 239 255
227 239 255
227 239 255
227 239 255
227 239 255
227 239 255
227 239 255
227 239 255
227 239 255
227 239 255
227 239 255
227 239 255
227 239 255
227 239 255
227 239 255
227 239 255
227 239 255
227 239 255
227 239 255
227 239 255
227 239 255
227 239 255
227 239 255
227 239 255
227 239 255
227 239 255
227 239 255
227 239 255
227 239 255
227 239 255
227 239 255
227 239 255
227 239 255
227 239 255
227 239 255
227 239 255
227 239 255
227 239 255
227 239 255
227 239 255
227 239 255
227 239 255
227 239 255
227 239 255
227 239 255
227 239 255
227 239 255
227 239 255
227 239 255
227 239 255
227 239 255
227 239 255
227 239 255
227 239 255
227 239 255
227 239 255
227 239 255
227 239 255
227 239 255
227 239 255
227 239 255
227 239 255
227 239 255
227 239 255
227 239 255
227 239 255
227 239 255
227 239 255
227 239 255
227 239 255
227 239 255
227 239 255
227 239 255
227 239 255
227 239 255
227 239 255
227 239 255
227 239 255
227 239 255
227 239 255
227 239 255
227 239 255
227 239 255
227 239 255
227 239 255
227 239 255
227 239 255
227 239 255
227 239 255
227 239 255
227 239 255
227 239 255
227 239 255
227 239 255
227 239 255
227 239 255
227 239 255
227 239 255
227 239 255
227 239 255
227 239 255
227 239 255
227 239 255
227 239 255
227 239 255
227 239 255
227 239 255
227 239 255
227 239 255
227 239 255
227 239 255
227 239 255
227 239 255
227 239 255
227 239 255
227 239 255
227 239 255
227 239 255
227 239 255
227 239 255
227 239 255
227 239 255
227 239 255
227 239 255
227 239 255
227 239 255
227 239 255
227 239 255
227 239 255
227 239 255
227 239 255
227 239 255
227 239 255
227 239 255
227 239 255
227 239 255
227 239 255
227 239 255
227 239 255
227 239 255
227 239 255
227 239 255
227 239 255
227 239 255
227 239 255
227 239 255
227 239 255
227 239 255
227 239 255
227 239 255
227 239 255
232 241 255
238 245 255
241 246 255
243 248 255
239 245 252
219 227 237
193 199 214
131 142 167
85 101 134
141 154 179
102 109 137
48 56 100
10 27 86
5 28 89
2 28 89
0 29 87
7 29 89
3 27 89
0 30 90
0 26 87
0 25 84
5 22 82
0 21 83
0 21 81
2 23 85
0 19 82
0 17 80
0 16 78
0 17 79
0 21 82
0 15 76
16 28 83
15 23 78
0 11 73
0 17 77
0 23 82
0 21 80
0 18 77
0 17 76
0 22 82
43 59 105
85 96 133
81 91 126
77 86 124
51 63 110
44 52 100
25 35 90
0 23 84
0 22 84
0 26 86
0 24 87
0 28 90
0 33 94
0 29 91
0 28 87
19 36 94
4 26 88
17 37 94
0 28 89
0 32 92
18 51 105
75 86 126
115 123 149
106 119 150
69 85 130
36 52 103
105 116 145
148 158 179
189 198 214
214 220 233
238 244 252
241 246 254
241 247 255
241 247 255
242 248 255
242 247 255
237 244 255
231 241 255
227 239 255
227 239 255
227 239 255
227 239 255
227 239 255
227 239 255
227 239 255
227 239 255
227 239 255
227 239 255
227 239 255
227 239 255
227 239 255
227 239 255
227 239 255
227 239 255
227 239 255
227 239 255
227 239 255
227 239 255
227 239 255
227 239 255
227 239 255
227 239 255
227 239 255
227 239 255
227 239 255
227 239 255
227 239 255
227 239 255
227 239 255
227 239 255
227 239 255
227 239 255
227 239 255
227 239 255
227 239 255
227 239 255
227 239 255
227 239 255
227 239 255
227 239 255
227 239 255
227 239 255
227 239 255
227 239 255
227 239 255
227 239 255
227 239 255
227 239 255
227 239 255
227 239 255
227 239 255
227 239 255
227 239 255
227 239 255
227 239 255
227 239 255
227 239 255
227 239 255
227 239 255
227 239 255
227 239 255
227 239 255
227 239 255
227 239 255
227 239 255
227 239 255
227 239 255
227 239 255
227 239 255
227 239 255
227 239 255
227 239 255
227 239 255
227 239 255
227 239 255
227 239 255
227 239 255
227 239 255
227 239 255
227 239 255
227 239 255
227 239 255
227 239 255
227 239 255
227 239 255
227 239 255
227 239 255
227 239 255
227 239 255
227 239 255
227 239 255
227 239 255
227 239 255
227 239 255
227 239 255
227 239 255
227 239 255
227 239 255
227 239 255
227 239 255
227 239 255
227 239 255
227 239 255
227 239 255
227 239 255
227 239 255
227 239 255
227 239 255
227 239 255
227 239 255
227 239 255
227 239 255
227 239 255
227 239 255
227 239 255
227 239 255
227 239 255
227 239 255
227 239 255
227 239 255
227 239 255
227 239 255
227 239 255
227 239 255
227 239 255
227 239 255
227 239 255
227 239 255
227 239 255
227 239 255
227 239 255
227 239 255
227 239 255
227 239 255
227 239 255
227 239 255
227 239 255
227 239 255
227 239 255
227 239 255
227 239 255
227 239 255
227 239 255
227 239 255
227 239 255
227 239 255
227 239 255
227 239 255
227 239 255
227 239 255
227 239 255
227 239 255
227 239 255
227 239 255
227 239 255
227 239 255
227 239 255
227 239 255
227 239 255
227 239 255
227 239 255
227 239 255
227 239 255
227 239 255
227 239 255
227 239 255
227 239 255
227 239 255
227 239 255
227 239 255
227 239 255
227 239 255
227 239 255
227 239 255
227 239 255
227 239 255
227 239 255
227 239 255
227 239 255
227 239 255
227 239 255
227 239 255
227 239 255
227 239 255
227 239 255
227 239 255
227 239 255
227 239 255
227 239 255
227 239 255
227 239 255
227 239 255
227 239 255
227 239 255
227 239 255
227 239 255
227 239 255
227 239 255
227 239 255
227 239 255
227 239 255
227 239 255
227 239 255
227 239 255
227 239 255
227 239 255
227 239 255
227 239 255
227 239 255
227 239 255
227 239 255
227 239 255
227 239 255
227 239 255
227 239 255
227 239 255
227 239 255
227 239 255
227 239 255
227 239 255
227 239 255
227 239 255
227 239 255
227 239 255
227 239 255
227 239 255
227 239 255
227 239 255
227 239 255
227 239 255
227 239 255
227 239 255
227 239 255
227 239 255
227 239 255
227 239 255
227 239 255
227 239 255
227 239 255
227 239 255
227 239 255
227 239 255
227 239 255
227 239 255
227 239 255
227 239 255
227 239 255
227 239 255
227 239 255
227 239 255
227 239 255
227 239 255
227 239 255
227 239 255
227 239 255
227 239 255
227 239 255
227 239 255
227 239 255
227 239 255
227 239 255
227 239 255
227 239 255
227 239 255
227 239 255
227 239 255
227 239 255
227 239 255
227 239 255
227 239 255
227 239 255
227 239 255
227 239 255
227 239 255
227 239 255
227 239 255
227 239 255
227 239 255
227 239 255
227 239 255
227 239 255
227 239 255
227 239 255
227 239 255
227 239 255
227 239 255
227 239 255
227 239 255
227 239 255
227 239 255
227 239 255
227 239 255
227 239 255
227 239 255
227 239 255
227 239 255
227 239 255
227 239 255
227 239 255
227 239 255
227 239 255
227 239 255
227 239 255
227 239 255
227 239 255
227 239 255
227 239 255
227 239 255
227 239 255
227 239 255
227 239 255
227 239 255
227 239 255
227 239 255
227 239 255
227 239 255
227 239 255
227 239 255
227 239 255
227 239 255
227 239 255
227 239 255
228 239 255
233 242 255
238 245 255
243 248 255
245 250 255
243 248 255
243 248 255
240 246 254
239 246 254
233 239 246
225 231 239
188 194 207
152 158 179
166 174 192
151 157 178
163 175 196
135 143 166
101 113 145
182 190 203
175 183 203
180 191 209
166 175 193
162 170 191
177 184 198
156 162 181
118 126 150
72 82 117
56 70 114
51 64 110
83 96 135
152 163 187
140 147 172
144 153 176
100 106 133
121 127 144
139 144 165
75 82 111
36 44 87
102 110 145
197 205 220
232 238 249
208 213 227
201 208 218
162 169 186
107 118 147
124 134 160
124 134 161
35 54 104
78 92 128
107 117 145
95 103 136
58 69 114
17 43 97
37 58 107
61 77 119
6 47 103
9 41 99
76 98 135
212 224 235
228 234 242
189 202 220
223 232 242
225 232 242
226 235 244
236 243 251
241 247 255
244 248 254
242 248 255
241 247 255
244 249 255
242 248 255
236 244 255
232 242 255
227 239 255
227 239 255
227 239 255
227 239 255
227 239 255
227 239 255
227 239 255
227 239 255
227 239 255
227 239 255
227 239 255
227 239 255
227 239 255
227 239 255
227 239 255
227 239 255
227 239 255
227 239 255
227 239 255
227 239 255
227 239 255
227 239 255
227 239 255
227 239 255
227 239 255
227 239 255
227 239 255
227 239 255
227 239 255
227 239 255
227 239 255
227 239 255
227 239 255
227 239 255
227 239 255
227 239 255
227 239 255
227 239 255
227 239 255
227 239 255
227 239 255
227 239 255
227 239 255
227 239 255
227 239 255
227 239 255
227 239 255
227 239 255
227 239 255
227 239 255
227 239 255
227 239 255
227 239 255
227 239 255
227 239 255
227 239 255
227 239 255
227 239 255
227 239 255
227 239 255
227 239 255
227 239 255
227 239 255
227 239 255
227 239 255
227 239 255
227 239 255
227 239 255
227 239 255
227 239 255
227 239 255
227 239 255
227 239 255
227 239 255
227 239 255
227 239 255
227 239 255
227 239 255
227 239 255
227 239 255
227 239 255
227 239 255
227 239 255
227 239 255
227 239 255
227 239 255
227 239 255
227 239 255
227 239 255
227 239 255
227 239 255
227 239 255
227 239 255
227 239 255
227 239 255
227 239 255
227 239 255
227 239 255
227 239 255
227 239 255
227 239 255
227 239 255
227 239 255
227 239 255
227 239 255
227 239 255
227 239 255
227 239 255
227 239 255
227 239 255
227 239 255
227 239 255
227 239 255
227 239 255
227 239 255
227 239 255
227 239 255
227 239 255
227 239 255
227 239 255
227 239 255
227 239 255
227 239 255
227 239 255
227 239 255
227 239 255
227 239 255
227 239 255
227 239 255
227 239 255
227 239 255
227 239 255
227 239 255
227 239 255
227 239 255
227 239 255
227 239 255
227 239 255
227 239 255
227 239 255
227 239 255
227 239 255
227 239 255
227 239 255
227 239 255
227 239 255
227 239 255
227 239 255
227 239 255
227 239 255
227 239 255
227 239 255
227 239 255
227 239 255
227 239 255
227 239 255
227 239 255
227 239 255
227 239 255
227 239 255
227 239 255
227 239 255
227 239 255
227 239 255
227 239 255
227 239 255
227 239 255
227 239 255
227 239 255
227 239 255
227 239 255
227 239 255
227 239 255
227 239 255
227 239 255
227 239 255
227 239 255
227 239 255
227 239 255
227 239 255
227 239 255
227 239 255
227 239 255
227 239 255
227 239 255
227 239 255
227 239 255
227 239 255
227 239 255
227 239 255
227 239 255
227 239 255
227 239 255
227 239 255
227 239 255
227 239 255
227 239 255
227 239 255
227 239 255
227 239 255
227 239 255
227 239 255
227 239 255
227 239 255
227 239 255
227 239 255
227 239 255
227 239 255
227 239 255
227 239 255
227 239 255
227 239 255
227 239 255
227 239 255
227 239 255
227 239 255
227 239 255
227 239 255
227 239 255
227 239 255
227 239 255
227 239 255
227 239 255
227 239 255
227 239 255
227 239 255
227 239 255
227 239 255
227 239 255
227 239 255
227 239 255
227 239 255
227 239 255
227 239 255
227 239 255
227 239 255
227 239 255
227 239 255
227 239 255
227 239 255
227 239 255
227 239 255
227 239 255
227 239 255
227 239 255
227 239 255
227 239 255
227 239 255
227 239 255
227 239 255
227 239 255
227 239 255
227 239 255
227 239 255
227 239 255
227 239 255
227 239 255
227 239 255
227 239 255
227 239 255
227 239 255
227 239 255
227 239 255
227 239 255
227 239 255
227 239 255
227 239 255
227 239 255
227 239 255
227 239 255
227 239 255
227 239 255
227 239 255
227 239 255
227 239 255
227 239 255
227 239 255
227 239 255
227 239 255
227 239 255
227 239 255
227 239 255
227 239 255
227 239 255
227 239 255
227 239 255
227 239 255
227 239 255
227 239 255
227 239 255
227 239 255
227 239 255
227 239 255
227 239 255
227 239 255
227 239 255
227 239 255
227 239 255
227 239 255
227 239 255
227 239 255
227 239 255
227 239 255
227 239 255
227 239 255
227 239 255
227 239 255
227 239 255
227 239 255
227 239 255
227 239 255
227 239 255
227 239 255
227 239 255
227 239 255
227 239 255
227 239 255
227 239 255
227 239 255
227 239 255
227 239 255
227 239 255
227 239 255
227 239 255
227 239 255
227 239 255
227 239 255
227 239 255
227 239 255
227 239 255
227 239 255
232 242 255
237 245 255
241 247 255
243 248 255
244 248 255
243 248 255
243 248 255
242 248 255
244 249 255
244 248 255
243 248 255
242 247 255
242 247 254
244 249 255
243 248 253
242 247 255
242 247 254
241 246 254
242 247 254
242 247 254
240 246 253
242 247 254
241 246 253
235 242 249
234 241 249
225 231 241
222 229 241
209 218 230
215 221 233
213 221 233
161 172 193
144 152 176
162 170 190
219 225 235
237 243 250
241 246 253
240 246 254
235 242 250
225 230 240
218 224 236
206 212 222
198 205 219
208 217 226
219 228 240
240 247 254
241 247 254
240 246 254
236 242 249
233 241 250
230 237 245
228 235 244
224 232 241
223 231 241
225 234 242
215 228 239
224 233 244
238 244 253
244 249 255
243 248 255
242 248 255
242 248 255
243 248 255
242 247 255
241 247 255
237 245 255
232 242 255
228 239 255
227 239 255
227 239 255
227 239 255
227 239 255
227 239 255
227 239 255
227 239 255
227 239 255
227 239 255
227 239 255
227 239 255
227 239 255
227 239 255
227 239 255
227 239 255
227 239 255
227 239 255
227 239 255
227 239 255
227 239 255
227 239 255
227 239 255
227 239 255
227 239 255
227 239 255
227 239 255
227 239 255
227 239 255
227 239 255
227 239 255
227 239 255
227 239 255
227 239 255
227 239 255
227 239 255
227 239 255
227 239 255
227 239 255
227 239 255
227 239 255
227 239 255
227 239 255
227 239 255
227 239 255
227 239 255
227 239 255
227 239 255
227 239 255
227 239 255
227 239 255
227 239 255
227 239 255
227 239 255
227 239 255
227 239 255
227 239 255
227 239 255
227 239 255
227 239 255
227 239 255
227 239 255
227 239 255
227 239 255
227 239 255
227 239 255
227 239 255
227 239 255
227 239 255
227 239 255
227 239 255
227 239 255
227 239 255
227 239 255
227 239 255
227 239 255
227 239 255
227 239 255
227 239 255
227 239 255
227 239 255
227 239 255
227 239 255
227 239 255
227 239 255
227 239 255
227 239 255
227 239 255
227 239 255
227 239 255
227 239 255
227 239 255
227 239 255
227 239 255
227 239 255
227 239 255
227 239 255
227 239 255
227 239 255
227 239 255
227 239 255
227 239 255
227 239 255
227 239 255
227 239 255
227 239 255
227 239 255
227 239 255
227 239 255
227 239 255
227 239 255
227 239 255
227 239 255
227 239 255
227 239 255
227 239 255
227 239 255
227 239 255
227 239 255
227 239 255
227 239 255
227 239 255
227 239 255
227 239 255
227 239 255
227 239 255
227 239 255
227 239 255
227 239 255
227 239 255
227 239 255
227 239 255
227 239 255
227 239 255
227 239 255
227 239 255
227 239 255
227 239 255
227 239 255
227 239 255
227 239 255
227 239 255
227 239 255
227 239 255
227 239 255
227 239 255
227 239 255
227 239 255
227 239 255
227 239 255
227 239 255
227 239 255
227 239 255
227 239 255
227 239 255
227 239 255
227 239 255
227 239 255
227 239 255
227 239 255
227 239 255
227 239 255
227 239 255
227 239 255
227 239 255
227 239 255
227 239 255
227 239 255
227 239 255
227 239 255
227 239 255
227 239 255
227 239 255
227 239 255
227 239 255
227 239 255
227 239 255
227 239 255
227 239 255
227 239 255
227 239 255
227 239 255
227 239 255
227 239 255
227 239 255
227 239 255
227 239 255
227 239 255
227 239 255
227 239 255
227 239 255
227 239 255
227 239 255
227 239 255
227 239 255
227 239 255
227 239 255
227 239 255
227 239 255
227 239 255
227 239 255
227 239 255
227 239 255
227 239 255
227 239 255
227 239 255
227 239 255
227 239 255
227 239 255
227 239 255
227 239 255
227 239 255
227 239 255
227 239 255
227 239 255
227 239 255
227 239 255
227 239 255
227 239 255
227 239 255
227 239 255
227 239 255
227 239 255
227 239 255
227 239 255
227 239 255
227 239 255
227 239 255
227 239 255
227 239 255
227 239 255
227 239 255
227 239 255
227 239 255
227 239 255
227 239 255
227 239 255
227 239 255
227 239 255
227 239 255
227 239 255
227 239 255
227 239 255
227 239 255
227 239 255
227 239 255
227 239 255
227 239 255
227 239 255
227 239 255
227 239 255
227 239 255
227 239 255
227 239 255
227 239 255
227 239 255
227 239 255
227 239 255
227 239 255
227 239 255
227 239 255
227 239 255
227 239 255
227 239 255
227 239 255
227 239 255
227 239 255
227 239 255
227 239 255
227 239 255
227 239 255
227 239 255
227 239 255
227 239 255
227 239 255
227 239 255
227 239 255
227 239 255
227 239 255
227 239 255
227 239 255
227 239 255
227 239 255
227 239 255
227 239 255
227 239 255
227 239 255
227 239 255
227 239 255
227 239 255
227 239 255
227 239 255
227 239 255
227 239 255
227 239 255
227 239 255
227 239 255
227 239 255
227 239 255
227 239 255
227 239 255
227 239 255
227 239 255
227 239 255
227 239 255
227 239 255
227 239 255
227 239 255
227 239 255
227 239 255
227 239 255
227 239 255
227 239 255
227 239 255
227 239 255
227 239 255
227 239 255
227 239 255
227 239 255
227 239 255
227 239 255
227 239 255
227 239 255
227 239 255
227 239 255
227 239 255
227 239 255
227 239 255
227 239 255
227 239 255
227 239 255
227 239 255
227 239 255
227 239 255
227 239 255
227 239 255
227 239 255
230 241 255
234 243 255
242 248 255
241 247 255
242 248 255
242 247 255
244 248 255
244 249 255
243 248 255
242 247 255
242 247 255
243 248 255
243 248 255
243 248 255
243 248 255
242 248 255
243 248 255
242 247 255
242 248 255
243 248 255
244 249 255
243 248 255
243 248 255
242 247 255
241 247 255
242 247 255
240 246 255
242 247 255
242 247 255
242 247 255
243 248 255
243 248 255
243 248 255
241 247 255
243 248 255
242 248 255
245 249 255
244 249 255
245 249 255
242 247 255
244 249 255
244 249 255
244 249 255
242 247 255
243 248 255
241 246 253
229 237 246
231 239 247
231 240 248
233 240 248
238 244 252
242 247 255
243 248 255
242 247 255
243 248 255
245 249 255
242 248 255
241 247 255
235 243 255
231 241 255
227 239 255
227 239 255
227 239 255
227 239 255
227 239 255
227 239 255
227 239 255
227 239 255
227 239 255
227 239 255
227 239 255
227 239 255
227 239 255
227 239 255
227 239 255
227 239 255
227 239 255
227 239 255
227 239 255
227 239 255
227 239 255
227 239 255
227 239 255
227 239 255
227 239 255
227 239 255
227 239 255
227 239 255
227 239 255
227 239 255
227 239 255
227 239 255
227 239 255
227 239 255
227 239 255
227 239 255
227 239 255
227 239 255
227 239 255
227 239 255
227 239 255
227 239 255
227 239 255
227 239 255
227 239 255
227 239 255
227 239 255
227 239 255
227 239 255
227 239 255
227 239 255
227 239 255
227 239 255
227 239 255
227 239 255
227 239 255
227 239 255
227 239 255
227 239 255
227 239 255
227 239 255
227 239 255
227 239 255
227 239 255
227 239 255
227 239 255
227 239 255
227 239 255
227 239 255
227 239 255
227 239 255
227 239 255
227 239 255
227 239 255
227 239 255
227 239 255
227 239 255
227 239 255
227 239 255
227 239 255
227 239 255
227 239 255
227 239 255
227 239 255
227 239 255
227 239 255
227 239 255
227 239 255
227 239 255
227 239 255
227 239 255
227 239 255
227 239 255
227 239 255
227 239 255
227 239 255
227 239 255
227 239 255
227 239 255
227 239 255
227 239 255
227 239 255
227 239 255
227 239 255
227 239 255
227 239 255
227 239 255
227 239 255
227 239 255
227 239 255
227 239 255
227 239 255
227 239 255
227 239 255
227 239 255
227 239 255
227 239 255
227 239 255
227 239 255
227 239 255
227 239 255
227 239 255
227 239 255
227 239 255
227 239 255
227 239 255
227 239 255
227 239 255
227 239 255
227 239 255
227 239 255
227 239 255
227 239 255
227 239 255
227 239 255
227 239 255
227 239 255
227 239 255
227 239 255
227 239 255
227 239 255
227 239 255
227 239 255
227 239 255
227 239 255
227 239 255
227 239 255
227 239 255
227 239 255
227 239 255
227 239 255
227 239 255
227 239 255
227 239 255
227 239 255
227 239 255
227 239 255
227 239 255
227 239 255
227 239 255
227 239 255
227 239 255
227 239 255
227 239 255
227 239 255
227 239 255
227 239 255
227 239 255
227 239 255
227 239 255
227 239 255
227 239 255
227 239 255
227 239 255
227 239 255
227 239 255
227 239 255
227 239 255
227 239 255
227 239 255
227 239 255
227 239 255
227 239 255
227 239 255
227 239 255
227 239 255
227 239 255
227 239 255
227 239 255
227 239 255
227 239 255
227 239 255
227 239 255
227 239 255
227 239 255
227 239 255
227 239 255
227 239 255
227 239 255
227 239 255
227 239 255
227 239 255
227 239 255
227 239 255
227 239 255
227 239 255
227 239 255
227 239 255
227 239 255
227 239 255
227 239 255
227 239 255
227 239 255
227 239 255
227 239 255
227 239 255
227 239 255
227 239 255
227 239 255
227 239 255
227 239 255
227 239 255
227 239 255
227 239 255
227 239 255
227 239 255
227 239 255
227 239 255
227 239 255
227 239 255
227 239 255
227 239 255
227 239 255
227 239 255
227 239 255
227 239 255
227 239 255
227 239 255
227 239 255
227 239 255
227 239 255
227 239 255
227 239 255
227 239 255
227 239 255
227 239 255
227 239 255
227 239 255
227 239 255
227 239 255
227 239 255
227 239 255
227 239 255
227 239 255
227 239 255
227 239 255
227 239 255
227 239 255
227 239 255
227 239 255
227 239 255
227 239 255
227 239 255
227 239 255
227 239 255
227 239 255
227 239 255
227 239 255
227 239 255
227 239 255
227 239 255
227 239 255
227 239 255
227 239 255
227 239 255
227 239 255
227 239 255
227 239 255
227 239 255
227 239 255
227 239 255
227 239 255
227 239 255
227 239 255
227 239 255
227 239 255
227 239 255
227 239 255
227 239 255
227 239 255
227 239 255
227 239 255
227 239 255
227 239 255
227 239 255
227 239 255
227 239 255
227 239 255
227 239 255
227 239 255
227 239 255
227 239 255
227 239 255
227 239 255
227 239 255
227 239 255
227 239 255
227 239 255
227 239 255
227 239 255
227 239 255
227 239 255
227 239 255
227 239 255
227 239 255
227 239 255
227 239 255
227 239 255
227 239 255
227 239 255
227 239 255
227 239 255
227 239 255
227 239 255
227 239 255
227 239 255
227 239 255
227 239 255
227 239 255
227 239 255
227 239 255
227 239 255
227 239 255
227 239 255
227 239 255
227 239 255
227 239 255
227 239 255
227 239 255
227 239 255
227 239 255
227 239 255
227 239 255
228 239 255
232 242 255
236 244 255
242 248 255
243 248 255
243 248 255
242 248 255
244 249 255
243 248 255
244 249 255
244 249 255
243 248 255
243 248 255
244 249 255
243 248 255
244 248 255
243 248 255
244 249 255
242 248 255
242 247 255
244 249 255
243 248 255
243 248 255
243 248 255
243 248 255
245 249 255
242 247 255
242 247 255
245 249 255
240 246 255
244 249 255
243 248 255
243 248 255
243 248 255
244 249 255
242 248 255
243 248 255
243 248 255
243 248 255
234 242 250
237 244 251
236 243 251
231 239 248
219 231 242
223 234 244
236 243 251
243 248 255
244 248 255
243 248 255
244 248 255
240 246 255
236 244 255
232 242 255
228 239 255
227 239 255
227 239 255
227 239 255
227 239 255
227 239 255
227 239 255
227 239 255
227 239 255
227 239 255
227 239 255
227 239 255
227 239 255
227 239 255
227 239 255
227 239 255
227 239 255
227 239 255
227 239 255
227 239 255
227 239 255
227 239 255
227 239 255
227 239 255
227 239 255
227 239 255
227 239 255
227 239 255
227 239 255
227 239 255
227 239 255
227 239 255
227 239 255
227 239 255
227 239 255
227 239 255
227 239 255
227 239 255
227 239 255
227 239 255
227 239 255
227 239 255
227 239 255
227 239 255
227 239 255
227 239 255
227 239 255
227 239 255
227 239 255
227 239 255
227 239 255
227 239 255
227 239 255
227 239 255
227 239 255
227 239 255
227 239 255
227 239 255
227 239 255
227 239 255
227 239 255
227 239 255
227 239 255
227 239 255
227 239 255
227 239 255
227 239 255
227 239 255
227 239 255
227 239 255
227 239 255
227 239 255
227 239 255
227 239 255
227 239 255
227 239 255
227 239 255
227 239 255
227 239 255
227 239 255
227 239 255
227 239 255
227 239 255
227 239 255
227 239 255
227 239 255
227 239 255
227 239 255
227 239 255
227 239 255
227 239 255
227 239 255
227 239 255
227 239 255
227 239 255
227 239 255
227 239 255
227 239 255
227 239 255
227 239 255
227 239 255
227 239 255
227 239 255
227 239 255
227 239 255
227 239 255
227 239 255
227 239 255
227 239 255
227 239 255
227 239 255
227 239 255
227 239 255
227 239 255
227 239 255
227 239 255
227 239 255
227 239 255
227 239 255
227 239 255
227 239 255
227 239 255
227 239 255
227 239 255
227 239 255
227 239 255
227 239 255
227 239 255
227 239 255
227 239 255
227 239 255
227 239 255
227 239 255
227 239 255
227 239 255
227 239 255
227 239 255
227 239 255
227 239 255
227 239 255
227 239 255
227 239 255
227 239 255
227 239 255
227 239 255
227 239 255
227 239 255
227 239 255
227 239 255
227 239 255
227 239 255
227 239 255
227 239 255
227 239 255
227 239 255
227 239 255
227 239 255
227 239 255
227 239 255
227 239 255
227 239 255
227 239 255
227 239 255
227 239 255
227 239 255
227 239 255
227 239 255
227 239 255
227 239 255
227 239 255
227 239 255
227 239 255
227 239 255
227 239 255
227 239 255
227 239 255
227 239 255
227 239 255
227 239 255
227 239 255
227 239 255
227 239 255
227 239 255
227 239 255
227 239 255
227 239 255
227 239 255
227 239 255
227 239 255
227 239 255
227 239 255
227 239 255
227 239 255
227 239 255
227 239 255
227 239 255
227 239 255
227 239 255
227 239 255
227 239 255
227 239 255
227 239 255
227 239 255
227 239 255
227 239 255
227 239 255
227 239 255
227 239 255
227 239 255
227 239 255
227 239 255
227 239 255
227 239 255
227 239 255
227 239 255
227 239 255
227 239 255
227 239 255
227 239 255
227 239 255
227 239 255
227 239 255
227 239 255
227 239 255
227 239 255
227 239 255
227 239 255
227 239 255
227 239 255
227 239 255
227 239 255
227 239 255
227 239 255
227 239 255
227 239 255
227 239 255
227 239 255
227 239 255
227 239 255
227 239 255
227 239 255
227 239 255
227 239 255
227 239 255
227 239 255
227 239 255
227 239 255
227 239 255
227 239 255
227 239 255
227 239 255
227 239 255
227 239 255
227 239 255
227 239 255
227 239 255
227 239 255
227 239 255
227 239 255
227 239 255
227 239 255
227 239 255
227 239 255
227 239 255
227 239 255
227 239 255
227 239 255
227 239 255
227 239 255
227 239 255
227 239 255
227 239 255
227 239 255
227 239 255
227 239 255
227 239 255
227 239 255
227 239 255
227 239 255
227 239 255
227 239 255
227 239 255
227 239 255
227 239 255
227 239 255
227 239 255
227 239 255
227 239 255
227 239 255
227 239 255
227 239 255
227 239 255
227 239 255
227 239 255
227 239 255
227 239 255
227 239 255
227 239 255
227 239 255
227 239 255
227 239 255
227 239 255
227 239 255
227 239 255
227 239 255
227 239 255
227 239 255
227 239 255
227 239 255
227 239 255
227 239 255
227 239 255
227 239 255
227 239 255
227 239 255
227 239 255
227 239 255
227 239 255
227 239 255
227 239 255
227 239 255
227 239 255
227 239 255
227 239 255
227 239 255
227 239 255
227 239 255
227 239 255
227 239 255
227 239 255
227 239 255
227 239 255
227 239 255
227 239 255
227 239 255
227 239 255
227 239 255
227 239 255
227 239 255
227 239 255
227 239 255
227 239 255
227 239 255
227 239 255
227 239 255
227 239 255
227 239 255
227 239 255
227 239 255
227 239 255
227 239 255
228 239 255
229 240 255
232 242 255
234 242 254
237 244 254
239 245 253
242 247 253
242 247 255
245 249 255
244 248 255
243 248 255
244 248 255
244 249 255
243 248 255
243 248 255
242 248 255
241 247 255
243 248 255
243 248 255
243 248 255
244 248 255
241 247 255
241 246 254
242 247 255
242 247 255
241 247 255
244 249 255
243 248 255
243 248 255
244 249 255
244 249 255
241 246 255
233 240 248
235 242 250
233 241 249
225 235 244
226 236 245
223 234 243
226 236 245
233 241 249
239 245 253
239 246 255
238 245 255
233 242 255
231 241 255
228 239 255
227 239 255
227 239 255
227 239 255
227 239 255
227 239 255
227 239 255
227 239 255
227 239 255
227 239 255
227 239 255
227 239 255
227 239 255
227 239 255
227 239 255
227 239 255
227 239 255
227 239 255
227 239 255
227 239 255
227 239 255
227 239 255
227 239 255
227 239 255
227 239 255
227 239 255
227 239 255
227 239 255
227 239 255
227 239 255
227 239 255
227 239 255
227 239 255
227 239 255
227 239 255
227 239 255
227 239 255
227 239 255
227 239 255
227 239 255
227 239 255
227 239 255
227 239 255
227 239 255
227 239 255
227 239 255
227 239 255
227 239 255
227 239 255
227 239 255
227 239 255
227 239 255
227 239 255
227 239 255
227 239 255
227 239 255
227 239 255
227 239 255
227 239 255
227 239 255
227 239 255
227 239 255
227 239 255
227 239 255
227 239 255
227 239 255
227 239 255
227 239 255
227 239 255
227 239 255
227 239 255
227 239 255
227 239 255
227 239 255
227 239 255
227 239 255
227 239 255
227 239 255
227 239 255
227 239 255
227 239 255
227 239 255
227 239 255
227 239 255
227 239 255
227 239 255
227 239 255
227 239 255
227 239 255
227 239 255
227 239 255
227 239 255
227 239 255
227 239 255
227 239 255
227 239 255
227 239 255
227 239 255
227 239 255
227 239 255
227 239 255
227 239 255
227 239 255
227 239 255
227 239 255
227 239 255
227 239 255
227 239 255
227 239 255
227 239 255
227 239 255
227 239 255
227 239 255
227 239 255
227 239 255
227 239 255
227 239 255
227 239 255
227 239 255
227 239 255
227 239 255
227 239 255
227 239 255
227 239 255
227 239 255
227 239 255
227 239 255
227 239 255
227 239 255
227 239 255
227 239 255
227 239 255
227 239 255
227 239 255
227 239 255
227 239 255
227 239 255
227 239 255
227 239 255
227 239 255
227 239 255
227 239 255
227 239 255
227 239 255
227 239 255
227 239 255
227 239 255
227 239 255
227 239 255
227 239 255
227 239 255
227 239 255
227 239 255
227 239 255
227 239 255
227 239 255
227 239 255
227 239 255
227 239 255
227 239 255
227 239 255
227 239 255
227 239 255
227 239 255
227 239 255
227 239 255
227 239 255
227 239 255
227 239 255
227 239 255
227 239 255
227 239 255
227 239 255
227 239 255
227 239 255
227 239 255
227 239 255
227 239 255
227 239 255
227 239 255
227 239 255
227 239 255
227 239 255
227 239 255
227 239 255
227 239 255
227 239 255
227 239 255
227 239 255
227 239 255
227 239 255
227 239 255
227 239 255
227 239 255
227 239 255
227 239 255
227 239 255
227 239 255
227 239 255
227 239 255
227 239 255
227 239 255
227 239 255
227 239 255
227 239 255
227 239 255
227 239 255
227 239 255
227 239 255
227 239 255
227 239 255
227 239 255
227 239 255
227 239 255
227 239 255
227 239 255
227 239 255
227 239 255
227 239 255
227 239 255
227 239 255
227 239 255
227 239 255
227 239 255
227 239 255
227 239 255
227 239 255
227 239 255
227 239 255
227 239 255
227 239 255
227 239 255
227 239 255
227 239 255
227 239 255
227 239 255
227 239 255
227 239 255
227 239 255
227 239 255
227 239 255
227 239 255
227 239 255
227 239 255
227 239 255
227 239 255
227 239 255
227 239 255
227 239 255
227 239 255
227 239 255
227 239 255
227 239 255
227 239 255
227 239 255
227 239 255
227 239 255
227 239 255
227 239 255
227 239 255
227 239 255
227 239 255
227 239 255
227 239 255
227 239 255
227 239 255
227 239 255
227 239 255
227 239 255
227 239 255
227 239 255
227 239 255
227 239 255
227 239 255
227 239 255
227 239 255
227 239 255
227 239 255
227 239 255
227 239 255
227 239 255
227 239 255
227 239 255
227 239 255
227 239 255
227 239 255
227 239 255
227 239 255
227 239 255
227 239 255
227 239 255
227 239 255
227 239 255
227 239 255
227 239 255
227 239 255
227 239 255
227 239 255
227 239 255
227 239 255
227 239 255
227 239 255
227 239 255
227 239 255
227 239 255
227 239 255
227 239 255
227 239 255
227 239 255
227 239 255
227 239 255
227 239 255
227 239 255
227 239 255
227 239 255
227 239 255
227 239 255
227 239 255
227 239 255
227 239 255
227 239 255
227 239 255
227 239 255
227 239 255
227 239 255
227 239 255
227 239 255
227 239 255
227 239 255
227 239 255
227 239 255
227 239 255
227 239 255
227 239 255
227 239 255
227 239 255
227 239 255
227 239 255
227 239 255
227 239 255
227 239 255
227 239 255
227 239 255
227 239 255
227 239 255
227 239 255
227 239 255
227 239 255
227 239 255
227 239 255
227 239 255
227 239 255
227 239 255
227 239 255
227 239 255
227 239 255
227 239 255
227 239 255
227 239 255
227 239 255
227 239 255
227 239 255
226 238 253
227 238 252
226 237 249
227 238 250
230 239 249
231 240 250
235 242 251
237 243 251
233 240 248
233 240 247
225 234 243
224 234 243
232 239 248
232 240 248
235 242 250
229 238 246
235 242 250
235 242 251
236 243 251
233 240 249
233 240 248
228 238 247
225 235 245
227 237 245
226 236 246
230 238 247
231 239 248
228 238 250
229 239 251
231 240 251
229 239 252
231 241 255
228 240 255
227 239 255
227 239 255
227 239 255
227 239 255
227 239 255
227 239 255
227 239 255
227 239 255
227 239 255
227 239 255
227 239 255
227 239 255
227 239 255
227 239 255
227 239 255
227 239 255
227 239 255
227 239 255
227 239 255
227 239 255
227 239 255
227 239 255
227 239 255
227 239 255
227 239 255
227 239 255
227 239 255
227 239 255
227 239 255
227 239 255
227 239 255
227 239 255
227 239 255
227 239 255
227 239 255
227 239 255
227 239 255
227 239 255
227 239 255
227 239 255
227 239 255
227 239 255
227 239 255
227 239 255
227 239 255
227 239 255
227 239 255
227 239 255
227 239 255
227 239 255
227 239 255
227 239 255
227 239 255
227 239 255
227 239 255
227 239 255
227 239 255
227 239 255
227 239 255
227 239 255
227 239 255
227 239 255
227 239 255
227 239 255
227 239 255
227 239 255
227 239 255
227 239 255
227 239 255
227 239 255
227 239 255
227 239 255
227 239 255
227 239 255
227 239 255
227 239 255
227 239 255
227 239 255
227 239 255
227 239 255
227 239 255
227 239 255
227 239 255
227 239 255
227 239 255
227 239 255
227 239 255
227 239 255
227 239 255
227 239 255
227 239 255
227 239 255
227 239 255
227 239 255
227 239 255
227 239 255
227 239 255
227 239 255
227 239 255
227 239 255
227 239 255
227 239 255
227 239 255
227 239 255
227 239 255
227 239 255
227 239 255
227 239 255
227 239 255
227 239 255
227 239 255
227 239 255
227 239 255
227 239 255
227 239 255
227 239 255
227 239 255
227 239 255
227 239 255
227 239 255
227 239 255
227 239 255
227 239 255
227 239 255
227 239 255
227 239 255
227 239 255
227 239 255
227 239 255
227 239 255
227 239 255
227 239 255
227 239 255
227 239 255
227 239 255
227 239 255
227 239 255
227 239 255
227 239 255
227 239 255
227 239 255
227 239 255
227 239 255
227 239 255
227 239 255
227 239 255
227 239 255
227 239 255
227 239 255
227 239 255
227 239 255
227 239 255
227 239 255
227 239 255
227 239 255
227 239 255
227 239 255
227 239 255
227 239 255
227 239 255
227 239 255
227 239 255
227 239 255
227 239 255
227 239 255
227 239 255
227 239 255
227 239 255
227 239 255
227 239 255
227 239 255
227 239 255
227 239 255
227 239 255
227 239 255
227 239 255
227 239 255
227 239 255
227 239 255
227 239 255
227 239 255
227 239 255
227 239 255
227 239 255
227 239 255
227 239 255
227 239 255
227 239 255
227 239 255
227 239 255
227 239 255
227 239 255
227 239 255
227 239 255
227 239 255
227 239 255
227 239 255
227 239 255
227 239 255
227 239 255
227 239 255
227 239 255
227 239 255
227 239 255
227 239 255
227 239 255
227 239 255
227 239 255
227 239 255
227 239 255
227 239 255
227 239 255
227 239 255
227 239 255
227 239 255
227 239 255
227 239 255
227 239 255
227 239 255
227 239 255
227 239 255
227 239 255
227 239 255
227 239 255
227 239 255
227 239 255
227 239 255
227 239 255
227 239 255
227 239 255
227 239 255
227 239 255
227 239 255
227 239 255
227 239 255
227 239 255
227 239 255
227 239 255
227 239 255
227 239 255
227 239 255
227 239 255
227 239 255
227 239 255
227 239 255
227 239 255
227 239 255
227 239 255
227 239 255
227 239 255
227 239 255
227 239 255
227 239 255
227 239 255
227 239 255
227 239 255
227 239 255
227 239 255
227 239 255
227 239 255
227 239 255
227 239 255
227 239 255
227 239 255
227 239 255
227 239 255
227 239 255
227 239 255
227 239 255
227 239 255
227 239 255
227 239 255
227 239 255
227 239 255
227 239 255
227 239 255
227 239 255
227 239 255
227 239 255
227 239 255
227 239 255
227 239 255
227 239 255
227 239 255
227 239 255
227 239 255
227 239 255
227 239 255
227 239 255
227 239 255
227 239 255
227 239 255
227 239 255
227 239 255
227 239 255
227 239 255
227 239 255
227 239 255
227 239 255
227 239 255
227 239 255
227 239 255
227 239 255
227 239 255
227 239 255
227 239 255
227 239 255
227 239 255
227 239 255
227 239 255
227 239 255
227 239 255
227 239 255
227 239 255
227 239 255
227 239 255
227 239 255
227 239 255
227 239 255
227 239 255
227 239 255
227 239 255
227 239 255
227 239 255
227 239 255
227 239 255
227 239 255
227 239 255
227 239 255
227 239 255
227 239 255
227 239 255
227 239 255
227 239 255
227 239 255
227 239 255
227 239 255
227 239 255
227 239 255
227 239 255
227 239 255
227 239 255
227 239 255
227 239 255
227 239 255
227 239 255
227 239 255
227 239 255
227 239 255
227 239 255
227 239 255
227 239 255
227 239 255
227 239 255
227 239 255
227 239 255
227 239 255
227 239 255
227 239 255
227 239 255
227 239 255
227 239 255
227 239 255
227 239 255
227 239 255
227 239 255
227 239 255
227 239 255
227 239 255
227 239 255
227 239 255
227 239 255
227 239 255
227 239 255
227 239 255
227 238 254
226 238 254
226 238 253
227 238 253
226 238 252
227 238 252
226 237 251
224 236 250
226 237 252
225 237 250
224 236 251
225 237 251
227 238 253
230 240 254
229 240 255
227 239 255
227 239 255
227 239 255
227 239 255
227 239 255
227 239 255
227 239 255
227 239 255
227 239 255
227 239 255
227 239 255
227 239 255
227 239 255
227 239 255
227 239 255
227 239 255
227 239 255
227 239 255
227 239 255
227 239 255
227 239 255
227 239 255
227 239 255
227 239 255
227 239 255
227 239 255
227 239 255
227 239 255
227 239 255
227 239 255
227 239 255
227 239 255
227 239 255
227 239 255
227 239 255
227 239 255
227 239 255
227 239 255
227 239 255
227 239 255
227 239 255
227 239 255
227 239 255
227 239 255
227 239 255
227 239 255
227 239 255
227 239 255
227 239 255
227 239 255
227 239 255
227 239 255
227 239 255
227 239 255
227 239 255
227 239 255
227 239 255
227 239 255
227 239 255
227 239 255
227 239 255
227 239 255
227 239 255
227 239 255
227 239 255
227 239 255
227 239 255
227 239 255
227 239 255
227 239 255
227 239 255
227 239 255
227 239 255
227 239 255
227 239 255
227 239 255
227 239 255
227 239 255
227 239 255
227 239 255
227 239 255
227 239 255
227 239 255
227 239 255
227 239 255
227 239 255
227 239 255
227 239 255
227 239 255
227 239 255
227 239 255
227 239 255
227 239 255
227 239 255
227 239 255
227 239 255
227 239 255
227 239 255
227 239 255
227 239 255
227 239 255
227 239 255
227 239 255
227 239 255
227 239 255
227 239 255
227 239 255
227 239 255
227 239 255
227 239 255
227 239 255
227 239 255
227 239 255
227 239 255
227 239 255
227 239 255
227 239 255
227 239 255
227 239 255
227 239 255
227 239 255
227 239 255
227 239 255
227 239 255
227 239 255
227 239 255
227 239 255
227 239 255
227 239 255
227 239 255
227 239 255
227 239 255
227 239 255
227 239 255
227 239 255
227 239 255
227 239 255
227 239 255
227 239 255
227 239 255
227 239 255
227 239 255
227 239 255
227 239 255
227 239 255
227 239 255
227 239 255
227 239 255
227 239 255
227 239 255
227 239 255
227 239 255
227 239 255
227 239 255
227 239 255
227 239 255
227 239 255
227 239 255
227 239 255
227 239 255
227 239 255
227 239 255
227 239 255
227 239 255
227 239 255
227 239 255
227 239 255
227 239 255
227 239 255
227 239 255
227 239 255
227 239 255
227 239 255
227 239 255
227 239 255
227 239 255
227 239 255
227 239 255
227 239 255
227 239 255
227 239 255
227 239 255
227 239 255
227 239 255
227 239 255
227 239 255
227 239 255
227 239 255
227 239 255
227 239 255
227 239 255
227 239 255
227 239 255
227 239 255
227 239 255
227 239 255
227 239 255
227 239 255
227 239 255
227 239 255
227 239 255
227 239 255
227 239 255
227 239 255
227 239 255
227 239 255
227 239 255
227 239 255
227 239 255
227 239 255
227 239 255
227 239 255
227 239 255
227 239 255
227 239 255
227 239 255
227 239 255
227 239 255
227 239 255
227 239 255
227 239 255
227 239 255
227 239 255
227 239 255
227 239 255
227 239 255
227 239 255
227 239 255
227 239 255
227 239 255
227 239 255
227 239 255
227 239 255
227 239 255
227 239 255
227 239 255
227 239 255
227 239 255
227 239 255
227 239 255
227 239 255
227 239 255
227 239 255
227 239 255
227 239 255
227 239 255
227 239 255
227 239 255
227 239 255
227 239 255
227 239 255
227 239 255
227 239 255
227 239 255
227 239 255
227 239 255
227 239 255
227 239 255
227 239 255
227 239 255
227 239 255
227 239 255
227 239 255
227 239 255
227 239 255
227 239 255
227 239 255
227 239 255
227 239 255
227 239 255
227 239 255
227 239 255
227 239 255
227 239 255
227 239 255
227 239 255
227 239 255
227 239 255
227 239 255
227 239 255
227 239 255
227 239 255
227 239 255
227 239 255
227 239 255
227 239 255
227 239 255
227 239 255
227 239 255
227 239 255
227 239 255
227 239 255
227 239 255
227 239 255
227 239 255
227 239 255
227 239 255
227 239 255
227 239 255
227 239 255
227 239 255
227 239 255
227 239 255
227 239 255
227 239 255
227 239 255
227 239 255
227 239 255
227 239 255
227 239 255
227 239 255
227 239 255
227 239 255
227 239 255
227 239 255
227 239 255
227 239 255
227 239 255
227 239 255
227 239 255
227 239 255
227 239 255
227 239 255
227 239 255
227 239 255
227 239 255
227 239 255
227 239 255
227 239 255
227 239 255
227 239 255
227 239 255
227 239 255
227 239 255
227 239 255
227 239 255
227 239 255
227 239 255
227 239 255
227 239 255
227 239 255
227 239 255
227 239 255
227 239 255
227 239 255
227 239 255
227 239 255
227 239 255
227 239 255
227 239 255
227 239 255
227 239 255
227 239 255
227 239 255
227 239 255
227 239 255
227 239 255
227 239 255
227 239 255
227 239 255
227 239 255
227 239 255
227 239 255
227 239 255
227 239 255
227 239 255
227 239 255
227 239 255
227 239 255
227 239 255
227 239 255
227 239 255
227 239 255
227 239 255
227 239 255
227 239 255
227 239 255
227 239 255
227 239 255
227 239 255
227 239 255
227 239 255
227 239 255
227 239 255
227 239 255
227 239 255
227 239 255
227 239 255
227 239 255
227 239 255
227 239 255
227 239 255
227 239 255
227 239 255
227 239 255
227 239 255
227 239 255
227 239 255
227 239 255
227 239 255
227 239 255
227 239 255
227 239 255
227 239 255
227 239 255
227 239 255
227 239 255
227 239 255
227 239 255
227 239 255
227 239 255
227 239 255
227 239 255
227 239 255
227 239 255
227 239 255
227 239 255
227 239 255
227 239 255
227 239 255
227 239 255
227 239 255
227 239 255
227 239 255
227 239 255
227 239 255
227 239 255
227 239 255
227 239 255
227 239 255
227 239 255
227 239 255
227 239 255
227 239 255
227 239 255
227 239 255
227 239 255
227 239 255
227 239 255
227 239 255
227 239 255
227 239 255
227 239 255
227 239 255
227 239 255
227 239 255
227 239 255
227 239 255
227 239 255
227 239 255
227 239 255
227 239 255
227 239 255
227 239 255
227 239 255
227 239 255
227 239 255
227 239 255
227 239 255
227 239 255
227 239 255
227 239 255
227 239 255
227 239 255
227 239 255
227 239 255
227 239 255
227 239 255
227 239 255
227 239 255
227 239 255
227 239 255
227 239 255
227 239 255
227 239 255
227 239 255
227 239 255
227 239 255
227 239 255
227 239 255
227 239 255
227 239 255
227 239 255
227 239 255
227 239 255
227 239 255
227 239 255
227 239 255
227 239 255
227 239 255
227 239 255
227 239 255
227 239 255
227 239 255
227 239 255
227 239 255
227 239 255
227 239 255
227 239 255
227 239 255
227 239 255
227 239 255
227 239 255
227 239 255
227 239 255
227 239 255
227 239 255
227 239 255
227 239 255
227 239 255
227 239 255
227 239 255
227 239 255
227 239 255
227 239 255
227 239 255
227 239 255
227 239 255
227 239 255
227 239 255
227 239 255
227 239 255
227 239 255
227 239 255
227 239 255
227 239 255
227 239 255
227 239 255
227 239 255
227 239 255
227 239 255
227 239 255
227 239 255
227 239 255
227 239 255
227 239 255
227 239 255
227 239 255
227 239 255
227 239 255
227 239 255
227 239 255
227 239 255
227 239 255
227 239 255
227 239 255
227 239 255
227 239 255
227 239 255
227 239 255
227 239 255
227 239 255
227 239 255
227 239 255
227 239 255
227 239 255
227 239 255
227 239 255
227 239 255
227 239 255
227 239 255
227 239 255
227 239 255
227 239 255
227 239 255
227 239 255
227 239 255
227 239 255
227 239 255
227 239 255
227 239 255
227 239 255
227 239 255
227 239 255
227 239 255
227 239 255
227 239 255
227 239 255
227 239 255
227 239 255
227 239 255
227 239 255
227 239 255
227 239 255
227 239 255
227 239 255
227 239 255
227 239 255
227 239 255
227 239 255
227 239 255
227 239 255
227 239 255
227 239 255
227 239 255
227 239 255
227 239 255
227 239 255
227 239 255
227 239 255
227 239 255
227 239 255
227 239 255
227 239 255
227 239 255
227 239 255
227 239 255
227 239 255
227 239 255
227 239 255
227 239 255
227 239 255
227 239 255
227 239 255
227 239 255
227 239 255
227 239 255
227 239 255
227 239 255
227 239 255
227 239 255
227 239 255
227 239 255
227 239 255
227 239 255
227 239 255
227 239 255
227 239 255
227 239 255
227 239 255
227 239 255
227 239 255
227 239 255
227 239 255
227 239 255
227 239 255
227 239 255
227 239 255
227 239 255
227 239 255
227 239 255
227 239 255
227 239 255
227 239 255
227 239 255
227 239 255
227 239 255
227 239 255
227 239 255
227 239 255
227 239 255
227 239 255
227 239 255
227 239 255
227 239 255
227 239 255
227 239 255
227 239 255
227 239 255
227 239 255
227 239 255
227 239 255
227 239 255
227 239 255
227 239 255
227 239 255
227 239 255
227 239 255
227 239 255
227 239 255
227 239 255
227 239 255
227 239 255
227 239 255
227 239 255
227 239 255
227 239 255
227 239 255
227 239 255
227 239 255
227 239 255
227 239 255
227 239 255
227 239 255
227 239 255
227 239 255
227 239 255
227 239 255
227 239 255
227 239 255
227 239 255
227 239 255
227 239 255
227 239 255
227 239 255
227 239 255
227 239 255
227 239 255
227 239 255
227 239 255
227 239 255
227 239 255
227 239 255
227 239 255
227 239 255
227 239 255
227 239 255
227 239 255
227 239 255
227 239 255
227 239 255
227 239 255
227 239 255
227 239 255
227 239 255
227 239 255
227 239 255
227 239 255
227 239 255
227 239 255
227 239 255
227 239 255
227 239 255
227 239 255
227 239 255
227 239 255
227 239 255
227 239 255
227 239 255
227 239 255
227 239 255
227 239 255
227 239 255
227 239 255
227 239 255
227 239 255
227 239 255
227 239 255
227 239 255
227 239 255
227 239 255
227 239 255
227 239 255
227 239 255
227 239 255
227 239 255
227 239 255
227 239 255
227 239 255
227 239 255
227 239 255
227 239 255
227 239 255
227 239 255
227 239 255
227 239 255
227 239 255
227 239 255
227 239 255
227 239 255
227 239 255
227 239 255
227 239 255
227 239 255
227 239 255
227 239 255
227 239 255
227 239 255
227 239 255
227 239 255
227 239 255
227 239 255
227 239 255
227 239 255
227 239 255
227 239 255
227 239 255
227 239 255
227 239 255
227 239 255
227 239 255
227 239 255
227 239 255
227 239 255
227 239 255
227 239 255
227 239 255
227 239 255
227 239 255
227 239 255
227 239 255
227 239 255
227 239 255
227 239 255
227 239 255
227 239 255
227 239 255
227 239 255
227 239 255
227 239 255
227 239 255
227 239 255
227 239 255
227 239 255
227 239 255
227 239 255
227 239 255
227 239 255
227 239 255
227 239 255
227 239 255
227 239 255
227 239 255
227 239 255
227 239 255
227 239 255
227 239 255
227 239 255
227 239 255
227 239 255
227 239 255
227 239 255
227 239 255
227 239 255
227 239 255
227 239 255
227 239 255
227 239 255
227 239 255
227 239 255
227 239 255
227 239 255
227 239 255
227 239 255
227 239 255
227 239 255
227 239 255
227 239 255
227 239 255
227 239 255
227 239 255
227 239 255
227 239 255
227 239 255
227 239 255
227 239 255
227 239 255
227 239 255
227 239 255
227 239 255
227 239 255
227 239 255
227 239 255
227 239 255
227 239 255
227 239 255
227 239 255
227 239 255
227 239 255
227 239 255
227 239 255
227 239 255
227 239 255
227 239 255
227 239 255
227 239 255
227 239 255
227 239 255
227 239 255
227 239 255
227 239 255
227 239 255
227 239 255
227 239 255
227 239 255
227 239 255
227 239 255
227 239 255
227 239 255
227 239 255
227 239 255
227 239 255
227 239 255
227 239 255
227 239 255
227 239 255
227 239 255
227 239 255
227 239 255
227 239 255
227 239 255
227 239 255
227 239 255
227 239 255
227 239 255
227 239 255
227 239 255
227 239 255
227 239 255
227 239 255
227 239 255
227 239 255
227 239 255
227 239 255
227 239 255
227 239 255
227 239 255
227 239 255
227 239 255
227 239 255
227 239 255
227 239 255
227 239 255
227 239 255
227 239 255
227 239 255
227 239 255
227 239 255
227 239 255
227 239 255
227 239 255
227 239 255
227 239 255
227 239 255
227 239 255
227 239 255
227 239 255
227 239 255
227 239 255
227 239 255
227 239 255
227 239 255
227 239 255
227 239 255
227 239 255
227 239 255
227 239 255
227 239 255
227 239 255
227 239 255
227 239 255
227 239 255
227 239 255
227 239 255
227 239 255
227 239 255
227 239 255
227 239 255
227 239 255
227 239 255
227 239 255
227 239 255
227 239 255
227 239 255
227 239 255
227 239 255
227 239 255
227 239 255
227 239 255
227 239 255
227 239 255
227 239 255
227 239 255
227 239 255
227 239 255
227 239 255
227 239 255
227 239 255
227 239 255
227 239 255
227 239 255
227 239 255
227 239 255
227 239 255
227 239 255
227 239 255
227 239 255
227 239 255
227 239 255
227 239 255
227 239 255
227 239 255
227 239 255
227 239 255
227 239 255
227 239 255
227 239 255
227 239 255
227 239 255
227 239 255
227 239 255
227 239 255
227 239 255
227 239 255
227 239 255
227 239 255
227 239 255
227 239 255
227 239 255
227 239 255
227 239 255
227 239 255
227 239 255
227 239 255
227 239 255
227 239 255
227 239 255
227 239 255
227 239 255
227 239 255
227 239 255
227 239 255
227 239 255
227 239 255
227 239 255
227 239 255
227 239 255
227 239 255
227 239 255
227 239 255
227 239 255
227 239 255
227 239 255
227 239 255
227 239 255
227 239 255
227 239 255
227 239 255
227 239 255
227 239 255
227 239 255
227 239 255
227 239 255
227 239 255
227 239 255
227 239 255
227 239 255
227 239 255
227 239 255
227 239 255
227 239 255
227 239 255
227 239 255
227 239 255
227 239 255
227 239 255
227 239 255
227 239 255
227 239 255
227 239 255
227 239 255
227 239 255
227 239 255
227 239 255
227 239 255
227 239 255
227 239 255
227 239 255
227 239 255
227 239 255
227 239 255
227 239 255
227 239 255
227 239 255
227 239 255
227 239 255
227 239 255
227 239 255
227 239 255
227 239 255
227 239 255
227 239 255
227 239 255
227 239 255
227 239 255
227 239 255
227 239 255
227 239 255
227 239 255
227 239 255
227 239 255
227 239 255
227 239 255
227 239 255
227 239 255
227 239 255
227 239 255
227 239 255
227 239 255
227 239 255
227 239 255
227 239 255
227 239 255
227 239 255
227 239 255
227 239 255
227 239 255
227 239 255
227 239 255
227 239 255
227 239 255
227 239 255
227 239 255
227 239 255
227 239 255
227 239 255
227 239 255
227 239 255
227 239 255
227 239 255
227 239 255
227 239 255
227 239 255
227 239 255
227 239 255
227 239 255
227 239 255
227 239 255
227 239 255
227 239 255
227 239 255
227 239 255
227 239 255
227 239 255
227 239 255
227 239 255
227 239 255
227 239 255
227 239 255
227 239 255
227 239 255
227 239 255
227 239 255
227 239 255
227 239 255
227 239 255
227 239 255
227 239 255
227 239 255
227 239 255
227 239 255
227 239 255
227 239 255
227 239 255
227 239 255
227 239 255
227 239 255
227 239 255
227 239 255
227 239 255
227 239 255
227 239 255
227 239 255
227 239 255
227 239 255
227 239 255
227 239 255
227 239 255
227 239 255
227 239 255
227 239 255
227 239 255
227 239 255
227 239 255
227 239 255
227 239 255
227 239 255
227 239 255
227 239 255
227 239 255
227 239 255
227 239 255
227 239 255
227 239 255
227 239 255
227 239 255
227 239 255
227 239 255
227 239 255
227 239 255
227 239 255
227 239 255
227 239 255
227 239 255
227 239 255
227 239 255
227 239 255
227 239 255
227 239 255
227 239 255
227 239 255
227 239 255
227 239 255
227 239 255
227 239 255
227 239 255
227 239 255
227 239 255
227 239 255
227 239 255
227 239 255
227 239 255
227 239 255
227 239 255
227 239 255
227 239 255
227 239 255
227 239 255
227 239 255
227 239 255
227 239 255
227 239 255
227 239 255
227 239 255
227 239 255
227 239 255
227 239 255
227 239 255
227 239 255
227 239 255
227 239 255
227 239 255
227 239 255
227 239 255
227 239 255
227 239 255
227 239 255
227 239 255
227 239 255
227 239 255
227 239 255
227 239 255
227 239 255
227 239 255
227 239 255
227 239 255
227 239 255
227 239 255
227 239 255
227 239 255
227 239 255
227 239 255
227 239 255
227 239 255
227 239 255
227 239 255
227 239 255
227 239 255
227 239 255
227 239 255
227 239 255
227 239 255
227 239 255
227 239 255
227 239 255
227 239 255
227 239 255
227 239 255
227 239 255
227 239 255
227 239 255
227 239 255
227 239 255
227 239 255
227 239 255
227 239 255
227 239 255
227 239 255
227 239 255
227 239 255
227 239 255
227 239 255
227 239 255
227 239 255
227 239 255
227 239 255
227 239 255
227 239 255
227 239 255
227 239 255
227 239 255
227 239 255
227 239 255
227 239 255
227 239 255
227 239 255
227 239 255
227 239 255
227 239 255
227 239 255
227 239 255
227 239 255
227 239 255
227 239 255
227 239 255
227 239 255
227 239 255
227 239 255
227 239 255
227 239 255
227 239 255
227 239 255
227 239 255
227 239 255
227 239 255
227 239 255
227 239 255
227 239 255
227 239 255
227 239 255
227 239 255
227 239 255
227 239 255
227 239 255
227 239 255
227 239 255
227 239 255
227 239 255
227 239 255
227 239 255
227 239 255
227 239 255
227 239 255
227 239 255
227 239 255
227 239 255
227 239 255
227 239 255
227 239 255
227 239 255
227 239 255
227 239 255
227 239 255
227 239 255
227 239 255
227 239 255
227 239 255
227 239 255
227 239 255
227 239 255
227 239 255
227 239 255
227 239 255
227 239 255
227 239 255
227 239 255
227 239 255
227 239 255
227 239 255
227 239 255
227 239 255
227 239 255
227 239 255
227 239 255
227 239 255
227 239 255
227 239 255
227 239 255
227 239 255
227 239 255
227 239 255
227 239 255
227 239 255
227 239 255
227 239 255
227 239 255
227 239 255
227 239 255
227 239 255
227 239 255
227 239 255
227 239 255
227 239 255
227 239 255
227 239 255
227 239 255
227 239 255
227 239 255
227 239 255
227 239 255
227 239 255
227 239 255
227 239 255
227 239 255
227 239 255
227 239 255
227 239 255
227 239 255
227 239 255
227 239 255
227 239 255
227 239 255
227 239 255
227 239 255
227 239 255
227 239 255
227 239 255
227 239 255
227 239 255
227 239 255
227 239 255
227 239 255
227 239 255
227 239 255
227 239 255
227 239 255
227 239 255
227 239 255
227 239 255
227 239 255
227 239 255
227 239 255
227 239 255
227 239 255
227 239 255
227 239 255
227 239 255
227 239 255
227 239 255
227 239 255
227 239 255
227 239 255
227 239 255
227 239 255
227 239 255
227 239 255
227 239 255
227 239 255
227 239 255
227 239 255
227 239 255
227 239 255
227 239 255
227 239 255
227 239 255
227 239 255
227 239 255
227 239 255
227 239 255
227 239 255
227 239 255
227 239 255
227 239 255
227 239 255
227 239 255
227 239 255
227 239 255
227 239 255
227 239 255
227 239 255
227 239 255
227 239 255
227 239 255
227 239 255
227 239 255
227 239 255
227 239 255
227 239 255
227 239 255
227 239 255
227 239 255
227 239 255
227 239 255
227 239 255
227 239 255
227 239 255
227 239 255
227 239 255
227 239 255
227 239 255
227 239 255
227 239 255
227 239 255
227 239 255
227 239 255
227 239 255
227 239 255
227 239 255
227 239 255
227 239 255
227 239 255
227 239 255
227 239 255
227 239 255
227 239 255
227 239 255
227 239 255
227 239 255
227 239 255
227 239 255
227 239 255
227 239 255
227 239 255
227 239 255
227 239 255
227 239 255
227 239 255
227 239 255
227 239 255
227 239 255
227 239 255
227 239 255
227 239 255
227 239 255
227 239 255
227 239 255
227 239 255
227 239 255
227 239 255
227 239 255
227 239 255
227 239 255
227 239 255
227 239 255
227 239 255
227 239 255
227 239 255
227 239 255
227 239 255
227 239 255
227 239 255
227 239 255
227 239 255
227 239 255
227 239 255
227 239 255
227 239 255
227 239 255
227 239 255
227 239 255
227 239 255
227 239 255
227 239 255
227 239 255
227 239 255
227 239 255
227 239 255
227 239 255
227 239 255
227 239 255
227 239 255
227 239 255
227 239 255
227 239 255
227 239 255
227 239 255
227 239 255
227 239 255
227 239 255
227 239 255
227 239 255
227 239 255
227 239 255
227 239 255
227 239 255
227 239 255
227 239 255
227 239 255
227 239 255
227 239 255
227 239 255
227 239 255
227 239 255
227 239 255
227 239 255
227 239 255
227 239 255
227 239 255
227 239 255
227 239 255
228 239 255
227 239 255
227 239 255
227 239 255
227 239 255
227 239 255
228 239 255
227 239 255
227 239 255
227 239 255
228 239 255
228 239 255
228 239 255
227 239 255
228 239 255
228 239 255
228 239 255
228 239 255
228 239 255
228 239 255
228 239 255
228 239 255
228 239 255
228 239 255
228 239 255
228 239 255
228 239 255
228 239 255
228 239 255
228 239 255
228 239 255
228 239 255
228 239 255
228 239 255
227 239 255
227 239 255
228 239 255
228 239 255
227 239 255
227 239 255
228 239 255
227 239 255
227 239 255
227 239 255
227 239 255
227 239 255
227 239 255
227 239 255
227 239 255
227 239 255
227 239 255
227 239 255
227 239 255
227 239 255
227 239 255
227 239 255
227 239 255
227 239 255
227 239 255
227 239 255
227 239 255
227 239 255
227 239 255
227 239 255
227 239 255
227 239 255
227 239 255
227 239 255
227 239 255
227 239 255
227 239 255
227 239 255
227 239 255
227 239 255
227 239 255
227 239 255
227 239 255
227 239 255
227 239 255
227 239 255
227 239 255
227 239 255
227 239 255
227 239 255
227 239 255
227 239 255
227 239 255
227 239 255
227 239 255
227 239 255
227 239 255
227 239 255
227 239 255
227 239 255
227 239 255
227 239 255
227 239 255
227 239 255
227 239 255
227 239 255
227 239 255
227 239 255
227 239 255
227 239 255
227 239 255
227 239 255
227 239 255
227 239 255
227 239 255
227 239 255
227 239 255
227 239 255
227 239 255
227 239 255
227 239 255
227 239 255
227 239 255
227 239 255
227 239 255
227 239 255
227 239 255
227 239 255
227 239 255
227 239 255
227 239 255
227 239 255
227 239 255
227 239 255
227 239 255
227 239 255
227 239 255
227 239 255
227 239 255
227 239 255
227 239 255
227 239 255
227 239 255
227 239 255
227 239 255
227 239 255
227 239 255
227 239 255
227 239 255
227 239 255
227 239 255
227 239 255
227 239 255
227 239 255
227 239 255
227 239 255
227 239 255
227 239 255
227 239 255
227 239 255
227 239 255
227 239 255
227 239 255
227 239 255
227 239 255
227 239 255
227 239 255
227 239 255
227 239 255
227 239 255
227 239 255
227 239 255
227 239 255
227 239 255
227 239 255
227 239 255
227 239 255
227 239 255
227 239 255
227 239 255
227 239 255
227 239 255
227 239 255
227 239 255
227 239 255
227 239 255
227 239 255
227 239 255
227 239 255
227 239 255
227 239 255
227 239 255
227 239 255
227 239 255
227 239 255
227 239 255
227 239 255
227 239 255
227 239 255
227 239 255
227 239 255
227 239 255
227 239 255
227 239 255
227 239 255
227 239 255
227 239 255
227 239 255
227 239 255
227 239 255
227 239 255
227 239 255
227 239 255
227 239 255
227 239 255
227 239 255
227 239 255
227 239 255
227 239 255
227 239 255
227 239 255
227 239 255
227 239 255
227 239 255
227 239 255
227 239 255
227 239 255
227 239 255
227 239 255
